lut.cube
TITLE "Generated by Resolve"
LUT_3D_SIZE 9
0 0 0
0.0717937 0 0
0.142153 0.000350958 0.000350958
0.246159 0.00357061 0.00357061
0.504082 0.00595102 0.00595102
0.925917 0.0167849 0.0167849
0.954162 0.018967 0.018967
0.954162 0.018967 0.018967
0.954162 0.018967 0.018967
3.0518e-05 0.0366674 3.0518e-05
0.0271 0.0212253 0
0.100587 0.0257877 0.002533
0.257725 0.024506 0.00640879
0.60148 0.00663767 0.00663767
0.954101 0.018967 0.018967
0.954162 0.018967 0.018967
0.954162 0.018967 0.018967
0.954162 0.018967 0.018967
0.0113985 0.128771 0.0113985
0.0271 0.128344 0.0118868
0.148302 0.141588 0.0170443
0.383932 0.136614 0.020325
0.74818 0.0336309 0.0120699
0.954162 0.018967 0.018967
0.954162 0.018967 0.018967
0.954162 0.018967 0.018967
0.954162 0.018967 0.018967
0.0281529 0.362188 0.0281529
0.0280766 0.360739 0.0280766
0.0450904 0.36669 0.029221
0.376486 0.363027 0.0400397
0.766461 0.304311 0.0433204
0.954192 0.0799878 0.0280003
0.954162 0.018967 0.018967
0.954162 0.018967 0.018967
0.954162 0.018967 0.018967
0.0431983 0.656535 0.0431983
0.0429389 0.651621 0.0429389
0.0430457 0.654124 0.0430457
0.0802167 0.645136 0.0441749
0.63563 0.616968 0.0532998
0.954192 0.511376 0.0609751
0.954162 0.0345006 0.0212711
0.954162 0.018967 0.018967
0.954162 0.018967 0.018967
0.061265 0.913787 0.061265
0.0614176 0.915297 0.0614176
0.0617838 0.91899 0.0617838
0.061326 0.914488 0.061326
0.124331 0.899413 0.0611276
0.861769 0.843091 0.0555428
0.954192 0.603357 0.0609598
0.954162 0.018967 0.018967
0.954162 0.018967 0.018967
0.0664988 0.954192 0.0664988
0.0664988 0.954192 0.0664988
0.0664988 0.954192 0.0664988
0.0664988 0.954192 0.0664988
0.0664988 0.954192 0.0664988
0.0682536 0.954192 0.0665141
0.937392 0.93901 0.0570535
0.954192 0.599344 0.0607919
0.954192 0.558785 0.0613413
0.0667887 0.954192 0.193027
0.0667887 0.954192 0.194812
0.0667735 0.954192 0.170687
0.0666514 0.954192 0.11696
0.0665293 0.954192 0.0737926
0.0664988 0.954192 0.0664988
0.0664988 0.954192 0.0664988
0.950118 0.953399 0.0579843
0.953857 0.954055 0.0580911
0.0668498 0.954192 0.254276
0.0668498 0.954192 0.254414
0.0668498 0.954192 0.254368
0.066804 0.954192 0.200183
0.0666209 0.954192 0.107027
0.0664988 0.954192 0.0664988
0.0821393 0.954192 0.0665904
0.953964 0.954192 0.0581064
0.95404 0.954192 0.0581216
0 0 0.00164797
0.0679789 0 0.0200046
0.139315 0.000885023 0.0371862
0.246418 0.00419623 0.0456092
0.51165 0.00650034 0.0456092
0.937407 0.0178225 0.0283665
0.954162 0.018967 0.018967
0.954162 0.018967 0.018967
0.954162 0.018967 0.018967
0.000228885 0.0366064 0.0254215
0.0185245 0.0183261 0.0183108
0.0961624 0.0267491 0.030808
0.263584 0.024155 0.0442817
0.610849 0.00714122 0.0388037
0.954101 0.018967 0.0190433
0.954162 0.018967 0.018967
0.954162 0.018967 0.018967
0.954162 0.018967 0.018967
0.0122072 0.132052 0.0539406
0.0214084 0.13022 0.0539101
0.147173 0.143893 0.0622416
0.389349 0.13846 0.0641184
0.750851 0.0335546 0.0392767
0.954162 0.018967 0.0189822
0.954162 0.018967 0.018967
0.954162 0.018967 0.018967
0.954162 0.018967 0.018967
0.028687 0.364691 0.0514229
0.0285496 0.362615 0.0497444
0.0410773 0.367727 0.0490883
0.374701 0.363348 0.0539254
0.76553 0.304509 0.0447242
0.954192 0.0798505 0.0279698
0.954162 0.018967 0.018967
0.954162 0.018967 0.018967
0.954162 0.018967 0.018967
0.0431983 0.65658 0.0431983
0.0429541 0.651926 0.0429541
0.0430915 0.654627 0.0430915
0.0807507 0.646403 0.0442512
0.637079 0.619074 0.0533608
0.954192 0.512795 0.0610056
0.954162 0.0383154 0.0218357
0.954162 0.018967 0.018967
0.954162 0.018967 0.018967
0.0614023 0.915221 0.0614023
0.0615702 0.916884 0.0615702
0.0618753 0.920256 0.0618753
0.0614328 0.915816 0.0614328
0.121996 0.900847 0.0612192
0.863371 0.844556 0.0555276
0.954192 0.60296 0.060914
0.954162 0.018967 0.018967
0.954162 0.018967 0.018967
0.0664988 0.954192 0.0664988
0.0664988 0.954192 0.0664988
0.0664988 0.954192 0.0664988
0.0664988 0.954192 0.0664988
0.0664988 0.954192 0.0664988
0.0674144 0.954192 0.0665141
0.933654 0.937423 0.0569924
0.954192 0.597726 0.0607462
0.954192 0.553002 0.0611582
0.066804 0.954192 0.204211
0.0667887 0.954192 0.200076
0.0667887 0.954192 0.168338
0.0666209 0.954192 0.106096
0.0664988 0.954192 0.0664988
0.0664988 0.954192 0.0664988
0.0664988 0.954192 0.0664988
0.950195 0.953536 0.0579538
0.951934 0.953902 0.0580301
0.0668345 0.954192 0.258076
0.0668345 0.954192 0.258289
0.0668345 0.954192 0.258518
0.066804 0.954192 0.178241
0.0665446 0.954192 0.0803693
0.0664988 0.954192 0.0664988
0.0738842 0.954192 0.0665446
0.951705 0.953872 0.0580148
0.951614 0.953857 0.0580148
0 0 0.0644846
0.0680247 0 0.0783703
0.138186 0.00170901 0.0887617
0.252522 0.00500496 0.0965591
0.535302 0.00743114 0.107424
0.953689 0.0203708 0.105776
0.954162 0.0189975 0.0205386
0.954162 0.018967 0.018967
0.954162 0.018967 0.018967
0.00129702 0.039292 0.0723583
0.0177005 0.0211337 0.0639658
0.103304 0.0322728 0.0847791
0.279438 0.0250553 0.110842
0.633402 0.00839246 0.119066
0.954192 0.0203555 0.102281
0.954162 0.0189822 0.0198062
0.954162 0.018967 0.018967
0.954162 0.018967 0.018967
0.0137942 0.139834 0.127581
0.0189822 0.136812 0.13106
0.150286 0.150423 0.150362
0.402808 0.143465 0.165301
0.759609 0.0351873 0.145907
0.954192 0.0204471 0.107637
0.954162 0.018967 0.0190433
0.954162 0.018967 0.018967
0.954162 0.018967 0.018967
0.0308843 0.37232 0.163119
0.0307164 0.369375 0.16231
0.0380407 0.373297 0.164767
0.376196 0.367697 0.17145
0.769726 0.308095 0.157061
0.954192 0.0810864 0.0909743
0.954162 0.018967 0.018967
0.954162 0.018967 0.018967
0.954162 0.018967 0.018967
0.0441291 0.660365 0.0941939
0.0438697 0.655695 0.0924392
0.0440223 0.6589 0.0911269
0.0796368 0.650523 0.0863355
0.639017 0.622904 0.0788434
0.954192 0.51426 0.061738
0.954162 0.0408331 0.0222019
0.954162 0.018967 0.018967
0.954162 0.018967 0.018967
0.0616007 0.91725 0.0616007
0.0618143 0.91931 0.0618143
0.0620432 0.922118 0.0620432
0.0615854 0.917403 0.0615854
0.114733 0.902556 0.0612802
0.863249 0.845914 0.0555734
0.954192 0.600916 0.0608835
0.954162 0.018967 0.018967
0.954162 0.018967 0.018967
0.0664988 0.954192 0.0664988
0.0664988 0.954192 0.0664988
0.0664988 0.954192 0.0664988
0.0664988 0.954192 0.0664988
0.0664988 0.954192 0.0664988
0.0664988 0.954192 0.0664988
0.932143 0.936202 0.0569467
0.954192 0.60061 0.0607919
0.954192 0.562097 0.0610513
0.066804 0.954192 0.212192
0.066804 0.954192 0.20029
0.0667735 0.954192 0.159945
0.0665751 0.954192 0.090959
0.0664988 0.954192 0.0664988
0.0664988 0.954192 0.0664988
0.0664988 0.954192 0.0664988
0.949004 0.953521 0.0579232
0.950744 0.95375 0.057969
0.0668345 0.954192 0.263188
0.0668345 0.954192 0.263142
0.0668345 0.954192 0.253239
0.0667735 0.954192 0.15288
0.0664988 0.954192 0.0664988
0.0664988 0.954192 0.0664988
0.094728 0.954192 0.0666667
0.950713 0.95375 0.0579538
0.950713 0.95375 0.0579538
0 0 0.141085
0.0632944 0 0.159915
0.133471 0.00263981 0.169009
0.259693 0.00614939 0.190982
0.56585 0.00874342 0.228138
0.954192 0.0223392 0.256245
0.954192 0.0213931 0.170611
0.954162 0.018967 0.018967
0.954162 0.018967 0.018967
0.0027924 0.0429847 0.144884
0.0182345 0.029572 0.149477
0.109346 0.0380713 0.190936
0.294362 0.0246738 0.237125
0.658183 0.0100099 0.269474
0.954192 0.0224308 0.266178
0.954192 0.0213626 0.168734
0.954162 0.018967 0.018967
0.954162 0.018967 0.018967
0.0155184 0.147433 0.264118
0.0157321 0.144533 0.275471
0.144717 0.156786 0.313817
0.409552 0.14638 0.349783
0.76286 0.0355077 0.330175
0.954192 0.0226291 0.293111
0.954192 0.0213931 0.172412
0.954162 0.018967 0.018967
0.954162 0.018967 0.018967
0.0329595 0.376867 0.354665
0.0327764 0.373663 0.35433
0.0349737 0.37586 0.361227
0.369039 0.369238 0.369543
0.768353 0.309667 0.354742
0.954192 0.0838331 0.291722
0.954192 0.0211643 0.155642
0.954162 0.018967 0.018967
0.954162 0.018967 0.018967
0.0465248 0.663157 0.311437
0.0463264 0.65864 0.309361
0.0465095 0.66212 0.312795
0.0716869 0.653742 0.311192
0.63798 0.625254 0.306508
0.954192 0.516228 0.271946
0.954192 0.0440986 0.107042
0.954162 0.018967 0.018967
0.954162 0.018967 0.018967
0.0623331 0.918547 0.1617
0.062501 0.920623 0.161044
0.0626535 0.922499 0.16025
0.062211 0.917845 0.155077
0.101167 0.902815 0.143099
0.861585 0.845151 0.102983
0.954192 0.597971 0.0617685
0.954162 0.018967 0.018967
0.954162 0.018967 0.018967
0.0664988 0.954192 0.0664988
0.0664988 0.954192 0.0664988
0.0664988 0.954192 0.0664988
0.0664988 0.954192 0.0664988
0.0664988 0.954192 0.0664988
0.0664988 0.954192 0.0664988
0.92987 0.934157 0.0568856
0.954192 0.604212 0.0609445
0.954192 0.572473 0.0609751
0.0668193 0.954192 0.227802
0.0668345 0.954192 0.207156
0.066743 0.954192 0.151583
0.0665293 0.954192 0.079881
0.0664988 0.954192 0.0664988
0.0664988 0.954192 0.0664988
0.0664988 0.954192 0.0664988
0.949844 0.953262 0.0579232
0.951095 0.95378 0.0579538
0.066804 0.954192 0.277958
0.066804 0.954192 0.276905
0.0668193 0.954192 0.235233
0.0666667 0.954192 0.126192
0.0664988 0.954192 0.0664988
0.0664988 0.954192 0.0664988
0.0899214 0.954192 0.0666514
0.95111 0.95378 0.0579538
0.95111 0.95378 0.0579538
0 0 0.280552
0.0469062 0 0.292485
0.122042 0.00331121 0.317891
0.264256 0.00704967 0.388434
0.595285 0.00991836 0.478264
0.954177 0.024094 0.534844
0.954192 0.0234684 0.430503
0.954192 0.0210422 0.148257
0.954192 0.0203861 0.103334
0.00482185 0.0496986 0.295995
0.00674449 0.035935 0.326223
0.0977188 0.0390631 0.409216
0.295918 0.019028 0.492332
0.675914 0.011368 0.560082
0.954192 0.0241855 0.55021
0.954192 0.0234989 0.432959
0.954192 0.0209049 0.137499
0.954192 0.0206149 0.11841
0.0166934 0.151965 0.536294
0.0164187 0.148623 0.55993
0.0998245 0.157107 0.621103
0.386694 0.141512 0.659785
0.75256 0.0303502 0.639261
0.954192 0.0244755 0.59469
0.954192 0.0235752 0.446571
0.954192 0.0211948 0.156863
0.954192 0.0211185 0.151568
0.0347753 0.375799 0.670512
0.0345769 0.372259 0.669306
0.034699 0.373251 0.678019
0.33753 0.365499 0.684459
0.75465 0.305592 0.666285
0.954192 0.0823072 0.595514
0.954192 0.0234989 0.432975
0.954192 0.0213016 0.163882
0.954192 0.0213169 0.165972
0.0476081 0.660365 0.628489
0.0474556 0.656947 0.626108
0.0476234 0.660334 0.632074
0.0572824 0.65153 0.63032
0.621332 0.622889 0.622812
0.954147 0.512444 0.57937
0.954192 0.0448768 0.393683
0.954192 0.0211032 0.150393
0.954192 0.0211795 0.156298
0.0619974 0.917281 0.492454
0.0621347 0.919234 0.494331
0.0622416 0.920882 0.495796
0.0619364 0.91632 0.490959
0.0880446 0.900801 0.477729
0.853178 0.842145 0.433539
0.954192 0.594171 0.321736
0.954192 0.019791 0.0675517
0.954192 0.019852 0.0713664
0.0666361 0.954192 0.107378
0.0666361 0.954192 0.108598
0.0666361 0.954192 0.108232
0.0665904 0.954192 0.0948196
0.0665599 0.954192 0.0861067
0.0671855 0.954192 0.0804303
0.929641 0.93109 0.0577554
0.954192 0.606165 0.0609751
0.954192 0.582956 0.0608988
0.0667887 0.954192 0.26566
0.0668498 0.954192 0.240558
0.0667735 0.954192 0.172107
0.0665751 0.954192 0.0881666
0.0664988 0.954192 0.0665141
0.0664988 0.954192 0.0664988
0.0664988 0.954192 0.0664988
0.951278 0.95378 0.0579538
0.951263 0.95378 0.0579538
0.0666667 0.954192 0.315892
0.0666819 0.954192 0.311971
0.0668345 0.954192 0.248417
0.0666819 0.954192 0.123598
0.0665141 0.954192 0.0673381
0.0664988 0.954192 0.0664988
0.0988022 0.954192 0.066453
0.951247 0.953765 0.0579538
0.951232 0.95375 0.0579538
0 0 0.520256
0.0033875 0 0.544259
0.075288 0.00256352 0.613245
0.242512 0.00784314 0.732692
0.606317 0.0127108 0.854978
0.954192 0.0281224 0.893919
0.954192 0.0262913 0.790433
0.954192 0.023621 0.454124
0.954192 0.0233463 0.411093
0.00560006 0.0487526 0.607355
0.00408942 0.0340581 0.666026
0.0171206 0.0277562 0.767254
0.255268 0.00949111 0.865782
0.656565 0.014847 0.91957
0.954192 0.0284276 0.907301
0.954192 0.0263523 0.796796
0.954192 0.0235904 0.449393
0.954192 0.0234684 0.429618
0.0192264 0.148333 0.909789
0.0191501 0.143679 0.931792
0.0195163 0.142901 0.952285
0.300511 0.122866 0.954192
0.712596 0.0208591 0.952499
0.954192 0.0293736 0.940108
0.954192 0.026627 0.815961
0.954192 0.023743 0.475822
0.954192 0.0237278 0.472023
0.038819 0.365469 0.954192
0.0385748 0.361242 0.953643
0.0385595 0.360861 0.953887
0.232212 0.349798 0.954192
0.709697 0.292638 0.954162
0.954192 0.0737469 0.937636
0.954192 0.0265049 0.806714
0.954192 0.0238346 0.491402
0.954192 0.0238651 0.494972
0.0507668 0.649332 0.949172
0.05066 0.646876 0.948775
0.0508736 0.650477 0.950317
0.0505837 0.640864 0.953063
0.569619 0.611292 0.952804
0.953582 0.500816 0.934844
0.954192 0.0416571 0.771603
0.954192 0.0238041 0.484291
0.954192 0.0238499 0.493568
0.0608072 0.910109 0.88278
0.060914 0.911742 0.885023
0.0610056 0.913527 0.887633
0.0607462 0.908705 0.88455
0.0726024 0.892515 0.873396
0.82826 0.831647 0.831479
0.954192 0.583841 0.701549
0.954192 0.0233463 0.409323
0.954192 0.0233768 0.413733
0.0653697 0.954192 0.539727
0.0653849 0.954192 0.538323
0.0654154 0.954192 0.532448
0.0654917 0.954192 0.522606
0.0655833 0.954192 0.506432
0.0665141 0.954192 0.476387
0.930098 0.926528 0.389197
0.954192 0.60795 0.227543
0.954192 0.593347 0.21471
0.0664378 0.954192 0.364401
0.0665599 0.954192 0.337545
0.066743 0.954192 0.287953
0.066804 0.954192 0.19144
0.0665751 0.954192 0.0859083
0.0664988 0.954192 0.0664988
0.0673075 0.954192 0.0665141
0.951156 0.953689 0.0579385
0.951171 0.953674 0.0579385
0.0661479 0.954192 0.414343
0.0662699 0.954192 0.392645
0.0665599 0.954192 0.3393
0.066804 0.954192 0.249485
0.0666514 0.954192 0.116136
0.0664988 0.954192 0.0671702
0.1514 0.954192 0.0671702
0.951217 0.953674 0.0579385
0.951232 0.953658 0.0593271
0.00251774 0.00251774 0.903029
0.00282292 0.00282292 0.917952
0.00343328 0.00343328 0.945632
0.065156 0.00575265 0.947021
0.51136 0.0135958 0.951293
0.940856 0.0284276 0.954192
0.954192 0.0299535 0.954192
0.954192 0.0275578 0.866514
0.954192 0.0268711 0.831754
0.00624094 0.0265202 0.947204
0.00408942 0.00784314 0.946105
0.00343328 0.00343328 0.945739
0.00555428 0.00352483 0.945785
0.512245 0.013611 0.951308
0.946975 0.0289311 0.954192
0.954192 0.0299535 0.954192
0.954192 0.0276799 0.87361
0.954192 0.0273594 0.856992
0.0136568 0.0916915 0.951324
0.0122683 0.0796368 0.950591
0.0112001 0.0702068 0.949996
0.00715648 0.0327001 0.947677
0.537179 0.0139315 0.951476
0.951675 0.0296025 0.954192
0.954192 0.0299535 0.954192
0.954192 0.0283513 0.903197
0.954192 0.0284276 0.906645
0.035172 0.307362 0.954192
0.0348211 0.302602 0.954192
0.0346227 0.299855 0.954192
0.0330816 0.279332 0.954192
0.507271 0.227726 0.954192
0.948669 0.0390021 0.954192
0.954192 0.0299535 0.954192
0.954192 0.0289921 0.927047
0.954192 0.0291447 0.931182
0.0491188 0.595926 0.954192
0.0490272 0.59379 0.954192
0.0491035 0.595728 0.954192
0.0486915 0.585061 0.954192
0.311559 0.555032 0.954192
0.933074 0.451087 0.954192
0.954192 0.0343633 0.954192
0.954192 0.0291905 0.933623
0.954192 0.0293584 0.938811
0.0598611 0.879728 0.954192
0.0599069 0.880888 0.954192
0.059968 0.881895 0.954192
0.0596933 0.876005 0.954192
0.0588235 0.85745 0.954192
0.720913 0.793652 0.954192
0.954192 0.552712 0.954192
0.954192 0.0281376 0.894759
0.954192 0.0283665 0.903746
0.0640574 0.954192 0.951995
0.0640574 0.954192 0.951904
0.0640574 0.954192 0.952346
0.0640726 0.954192 0.953948
0.0640574 0.954192 0.9505
0.0640116 0.954192 0.946029
0.910399 0.910246 0.910628
0.954192 0.599435 0.740734
0.954192 0.594507 0.739498
0.0646982 0.954192 0.648798
0.0647746 0.954192 0.635737
0.0648814 0.954192 0.617273
0.065095 0.954192 0.585031
0.0653544 0.954192 0.543282
0.0653544 0.954192 0.541863
0.0684062 0.954192 0.525933
0.952773 0.953796 0.482521
0.952972 0.953841 0.516716
0.0643931 0.954192 0.697398
0.0644694 0.954192 0.684001
0.0645457 0.954192 0.672587
0.0646677 0.954192 0.654124
0.0648203 0.954192 0.628061
0.0647288 0.954192 0.643946
0.156237 0.954192 0.633417
0.953536 0.953994 0.596399
0.953704 0.95404 0.630014
0.00343328 0.00343328 0.945739
0.00343328 0.00343328 0.945739
0.00343328 0.00343328 0.945739
0.00343328 0.00343328 0.945739
0.00343328 0.00343328 0.945739
0.603464 0.0149996 0.952041
0.954192 0.0299535 0.954192
0.954192 0.0299535 0.954192
0.954192 0.0299535 0.954192
0.00343328 0.00343328 0.945739
0.00343328 0.00343328 0.945739
0.00343328 0.00343328 0.945739
0.00343328 0.00343328 0.945739
0.00343328 0.00343328 0.945739
0.589532 0.0146334 0.951843
0.954192 0.0299535 0.954192
0.954192 0.0299535 0.954192
0.954192 0.0299535 0.954192
0.00343328 0.00343328 0.945739
0.00343328 0.00343328 0.945739
0.00343328 0.00343328 0.945739
0.00343328 0.00343328 0.945739
0.00343328 0.00343328 0.945739
0.689693 0.0165255 0.952865
0.954192 0.0299535 0.954192
0.954192 0.0299535 0.954192
0.954192 0.0299535 0.954192
0.016144 0.113237 0.952453
0.0154269 0.10695 0.952148
0.0155947 0.108385 0.952361
0.013077 0.0865797 0.950973
0.00582895 0.0236973 0.947066
0.69987 0.0167239 0.952972
0.954192 0.0299535 0.954192
0.954192 0.0299535 0.954192
0.954192 0.0299535 0.954192
0.0425727 0.442817 0.954192
0.0425879 0.443259 0.954192
0.0429236 0.450477 0.954192
0.0426337 0.443748 0.954192
0.0411536 0.412055 0.954192
0.674159 0.322728 0.954192
0.954192 0.030045 0.954192
0.954192 0.0299535 0.954192
0.954192 0.0299535 0.954192
0.0556497 0.779019 0.954192
0.055787 0.782681 0.954192
0.0559548 0.787472 0.954192
0.0557412 0.781415 0.954192
0.055024 0.761898 0.954192
0.373709 0.706416 0.954192
0.954192 0.474495 0.954192
0.954192 0.0299535 0.954192
0.954192 0.0299535 0.954192
0.0640116 0.954192 0.954192
0.0640269 0.954192 0.954192
0.0640574 0.954192 0.954192
0.0639353 0.954192 0.954192
0.0636454 0.952636 0.954192
0.0628061 0.940841 0.954192
0.778378 0.86186 0.954192
0.954192 0.568048 0.954192
0.954192 0.573327 0.954192
0.0640726 0.954192 0.954192
0.0640726 0.954192 0.954192
0.0640726 0.954192 0.954192
0.0640726 0.954192 0.954192
0.0640726 0.954192 0.954192
0.0640726 0.954192 0.954192
0.0640726 0.954192 0.954192
0.947738 0.948745 0.948287
0.947738 0.948745 0.948287
0.0640726 0.954192 0.954192
0.0640726 0.954192 0.954192
0.0640726 0.954192 0.954192
0.0640726 0.954192 0.954192
0.0640726 0.954192 0.954192
0.0640726 0.954192 0.954192
0.130175 0.954192 0.954192
0.947738 0.948745 0.948287
0.947738 0.948745 0.948287
0.00343328 0.00343328 0.945739
0.00343328 0.00343328 0.945739
0.00343328 0.00343328 0.945739
0.00343328 0.00343328 0.945739
0.00343328 0.00343328 0.945739
0.532189 0.013901 0.951461
0.954192 0.0299535 0.954192
0.954192 0.0299535 0.954192
0.954192 0.0299535 0.954192
0.00343328 0.00343328 0.945739
0.00343328 0.00343328 0.945739
0.00343328 0.00343328 0.945739
0.00343328 0.00343328 0.945739
0.00343328 0.00343328 0.945739
0.580407 0.0144808 0.951766
0.954192 0.0299535 0.954192
0.954192 0.0299535 0.954192
0.954192 0.0299535 0.954192
0.00343328 0.00343328 0.945739
0.00343328 0.00343328 0.945739
0.00343328 0.00343328 0.945739
0.00343328 0.00343328 0.945739
0.00343328 0.00343328 0.945739
0.686305 0.0163882 0.952773
0.954192 0.0299535 0.954192
0.954192 0.0299535 0.954192
0.954192 0.0299535 0.954192
0.0159915 0.111833 0.952361
0.0152895 0.105867 0.952087
0.0155032 0.107698 0.952316
0.0130465 0.0863508 0.950927
0.00578317 0.023209 0.947036
0.702937 0.0167849 0.953002
0.954192 0.0299535 0.954192
0.954192 0.0299535 0.954192
0.954192 0.0299535 0.954192
0.0425727 0.442741 0.954192
0.042649 0.444648 0.954192
0.0429999 0.452247 0.954192
0.0427253 0.445945 0.954192
0.0412604 0.414374 0.954192
0.68191 0.325322 0.954192
0.954192 0.0299535 0.954192
0.954192 0.0299535 0.954192
0.954192 0.0299535 0.954192
0.0557412 0.781262 0.954192
0.0559091 0.786145 0.954192
0.0560769 0.79057 0.954192
0.0558785 0.784848 0.954192
0.0551614 0.765743 0.954192
0.388846 0.709972 0.954192
0.954192 0.471916 0.954192
0.954192 0.0299535 0.954192
0.954192 0.0299535 0.954192
0.0640269 0.954192 0.954192
0.0640574 0.954192 0.954192
0.0640574 0.954192 0.954192
0.0639658 0.954192 0.954192
0.0636759 0.952895 0.954192
0.0627451 0.939925 0.954192
0.756298 0.857038 0.954192
0.954192 0.572976 0.954192
0.954192 0.587625 0.954192
0.0640726 0.954192 0.954192
0.0640726 0.954192 0.954192
0.0640726 0.954192 0.954192
0.0640726 0.954192 0.954192
0.0640726 0.954192 0.954192
0.0640726 0.954192 0.954192
0.0640726 0.954192 0.954192
0.947738 0.948745 0.948287
0.947738 0.948745 0.948287
0.0640726 0.954192 0.954192
0.0640726 0.954192 0.954192
0.0640726 0.954192 0.954192
0.0640726 0.954192 0.954192
0.0640726 0.954192 0.954192
0.0640726 0.954192 0.954192
0.147646 0.954192 0.954192
0.947738 0.948745 0.948287
0.947738 0.948745 0.948287
