lut.cube
TITLE "Generated by Resolve"
LUT_3D_SIZE 33
0 0 0
0 0 0
0 0 0
0.0198825 0 0
0.0717937 0 0
0.105623 0 0
0.118563 0 0
0.128466 0 0
0.142153 0.000350958 0.000350958
0.161807 0.00117494 0.00117494
0.186282 0.00204471 0.00204471
0.213413 0.00282292 0.00282292
0.246159 0.00357061 0.00357061
0.29276 0.00428778 0.00428778
0.349462 0.00485237 0.00485237
0.419379 0.00537118 0.00537118
0.504082 0.00595102 0.00595102
0.604593 0.00665293 0.00665293
0.71371 0.00817884 0.00817884
0.827008 0.0114137 0.0114137
0.925917 0.0167849 0.0167849
0.954162 0.018967 0.018967
0.954162 0.018967 0.018967
0.954162 0.018967 0.018967
0.954162 0.018967 0.018967
0.954162 0.018967 0.018967
0.954162 0.018967 0.018967
0.954162 0.018967 0.018967
0.954162 0.018967 0.018967
0.954162 0.018967 0.018967
0.954162 0.018967 0.018967
0.954162 0.018967 0.018967
0.954162 0.018967 0.018967
0 0 0
0 0 0
0 0 0
0.0166323 0 0
0.0615702 0 0
0.0904402 0 0
0.105653 0 0
0.118898 0 0
0.135348 4.57771e-05 4.57771e-05
0.156085 0.0009308 0.0009308
0.180209 0.00184634 0.00184634
0.20885 0.00270085 0.00270085
0.247166 0.00358587 0.00358587
0.293568 0.00430304 0.00430304
0.354574 0.00489815 0.00489815
0.432151 0.00546273 0.00546273
0.525353 0.00607309 0.00607309
0.631998 0.0069276 0.0069276
0.74696 0.00892653 0.00892653
0.862882 0.0130312 0.0130312
0.950698 0.018677 0.018677
0.954162 0.018967 0.018967
0.954162 0.018967 0.018967
0.954162 0.018967 0.018967
0.954162 0.018967 0.018967
0.954162 0.018967 0.018967
0.954162 0.018967 0.018967
0.954162 0.018967 0.018967
0.954162 0.018967 0.018967
0.954162 0.018967 0.018967
0.954162 0.018967 0.018967
0.954162 0.018967 0.018967
0.954162 0.018967 0.018967
0 0 0
0 0 0
0 0 0
0.0147555 0 0
0.0544442 0 0
0.0793774 0 0
0.0949874 0 0
0.108507 0 0
0.124285 0 0
0.144411 0.000442512 0.000442512
0.168795 0.00143435 0.00143435
0.199756 0.00244144 0.00244144
0.239078 0.00341802 0.00341802
0.290837 0.00425727 0.00425727
0.357382 0.00491341 0.00491341
0.44062 0.00552377 0.00552377
0.539406 0.00616464 0.00616464
0.648783 0.00714122 0.00714122
0.76228 0.00933852 0.00933852
0.87245 0.013489 0.013489
0.94963 0.0186007 0.0186007
0.954162 0.018967 0.018967
0.954162 0.018967 0.018967
0.954162 0.018967 0.018967
0.954162 0.018967 0.018967
0.954162 0.018967 0.018967
0.954162 0.018967 0.018967
0.954162 0.018967 0.018967
0.954162 0.018967 0.018967
0.954162 0.018967 0.018967
0.954162 0.018967 0.018967
0.954162 0.018967 0.018967
0.954162 0.018967 0.018967
0 0.00619516 0
0 0.00749218 0
0 0.00715648 0
0.00877394 0.00474556 0
0.0414588 0.0033875 0
0.0655528 0.002533 0
0.0800031 0.002533 0
0.0925917 0.0028687 0
0.108034 0.00271611 0
0.129778 0.00257877 0.000350958
0.157931 0.00419623 0.0015259
0.192523 0.00755322 0.00302129
0.235325 0.00679026 0.00384527
0.293385 0.00595102 0.00457771
0.368261 0.00500496 0.00500496
0.457115 0.00564584 0.00564584
0.5579 0.00628672 0.00628672
0.66743 0.00735485 0.00735485
0.780835 0.00985733 0.00985733
0.887602 0.0143435 0.0143435
0.952499 0.0188296 0.0188296
0.954162 0.018967 0.018967
0.954162 0.018967 0.018967
0.954162 0.018967 0.018967
0.954162 0.018967 0.018967
0.954162 0.018967 0.018967
0.954162 0.018967 0.018967
0.954162 0.018967 0.018967
0.954162 0.018967 0.018967
0.954162 0.018967 0.018967
0.954162 0.018967 0.018967
0.954162 0.018967 0.018967
0.954162 0.018967 0.018967
3.0518e-05 0.0366674 3.0518e-05
0 0.034165 0
0 0.0307469 0
0.000946059 0.0254673 0
0.0271 0.0212253 0
0.0507973 0.0195773 0
0.0646067 0.0200198 0.000167849
0.0792706 0.022858 0.00123598
0.100587 0.0257877 0.002533
0.128405 0.0279393 0.00384527
0.163043 0.0289769 0.00505074
0.205127 0.028275 0.00598154
0.257725 0.024506 0.00640879
0.323293 0.0162051 0.00611887
0.40264 0.00601205 0.00535592
0.496651 0.00590524 0.00590524
0.60148 0.00663767 0.00663767
0.711391 0.00814832 0.00814832
0.824186 0.0113069 0.0113069
0.922087 0.0165103 0.0165103
0.954101 0.018967 0.018967
0.954162 0.018967 0.018967
0.954162 0.018967 0.018967
0.954162 0.018967 0.018967
0.954162 0.018967 0.018967
0.954162 0.018967 0.018967
0.954162 0.018967 0.018967
0.954162 0.018967 0.018967
0.954162 0.018967 0.018967
0.954162 0.018967 0.018967
0.954162 0.018967 0.018967
0.954162 0.018967 0.018967
0.954162 0.018967 0.018967
0.00251774 0.0548257 0.00251774
0.00192264 0.0508125 0.00192264
0.00120546 0.0460365 0.00120546
0.0015259 0.0408942 0.000488289
0.0226902 0.038056 0.000991836
0.0474861 0.0391546 0.00222782
0.0625772 0.0415656 0.00315862
0.0834058 0.0441138 0.0043183
0.1122 0.0460059 0.0055848
0.147082 0.0471962 0.00683604
0.187457 0.0468299 0.00781262
0.235264 0.0442206 0.00839246
0.293919 0.0385443 0.00840772
0.365301 0.0277714 0.00770581
0.448798 0.0119173 0.00639353
0.545037 0.00627146 0.00621042
0.651209 0.00714122 0.00714122
0.761929 0.00929274 0.00929274
0.870237 0.0133822 0.0133822
0.941405 0.0179446 0.0179446
0.954162 0.018967 0.018967
0.954162 0.018967 0.018967
0.954162 0.018967 0.018967
0.954162 0.018967 0.018967
0.954162 0.018967 0.018967
0.954162 0.018967 0.018967
0.954162 0.018967 0.018967
0.954162 0.018967 0.018967
0.954162 0.018967 0.018967
0.954162 0.018967 0.018967
0.954162 0.018967 0.018967
0.954162 0.018967 0.018967
0.954162 0.018967 0.018967
0.00430304 0.0676432 0.00430304
0.00389105 0.0645762 0.00389105
0.00332647 0.060441 0.00332647
0.00535592 0.0569009 0.00291447
0.0345312 0.0571756 0.0041352
0.0526284 0.0603494 0.00523384
0.0715496 0.0644541 0.00640879
0.0985428 0.0678874 0.00775158
0.131807 0.0698711 0.00901808
0.169574 0.0707103 0.010132
0.212894 0.0699931 0.0109407
0.263508 0.0667735 0.0112917
0.325658 0.059678 0.0110323
0.400977 0.0472267 0.010071
0.488258 0.0283055 0.00848402
0.58674 0.00906386 0.00682078
0.694026 0.0077821 0.0077821
0.804623 0.0105898 0.0105898
0.891127 0.0145266 0.0145266
0.948058 0.0184634 0.0184634
0.954162 0.018967 0.018967
0.954162 0.018967 0.018967
0.954162 0.018967 0.018967
0.954162 0.018967 0.018967
0.954162 0.018967 0.018967
0.954162 0.018967 0.018967
0.954162 0.018967 0.018967
0.954162 0.018967 0.018967
0.954162 0.018967 0.018967
0.954162 0.018967 0.018967
0.954162 0.018967 0.018967
0.954162 0.018967 0.018967
0.954162 0.018967 0.018967
0.00727855 0.0912032 0.00727855
0.007187 0.0905776 0.007187
0.00695811 0.0885023 0.0069276
0.0154574 0.087129 0.0071107
0.0365759 0.0893721 0.00810254
0.0534371 0.0935988 0.00915541
0.0758221 0.0979782 0.0103609
0.10721 0.100999 0.0117037
0.143374 0.102815 0.0129549
0.183108 0.103609 0.014023
0.228931 0.103319 0.014847
0.284749 0.100481 0.0152743
0.353033 0.0933547 0.0150454
0.434256 0.0804761 0.0141299
0.52694 0.0592966 0.012314
0.628534 0.0290227 0.00956741
0.730526 0.00921645 0.00863661
0.82356 0.0113222 0.0113222
0.904189 0.0153353 0.0153353
0.951614 0.0187533 0.0187533
0.954162 0.018967 0.018967
0.954162 0.018967 0.018967
0.954162 0.018967 0.018967
0.954162 0.018967 0.018967
0.954162 0.018967 0.018967
0.954162 0.018967 0.018967
0.954162 0.018967 0.018967
0.954162 0.018967 0.018967
0.954162 0.018967 0.018967
0.954162 0.018967 0.018967
0.954162 0.018967 0.018967
0.954162 0.018967 0.018967
0.954162 0.018967 0.018967
0.0113985 0.128771 0.0113985
0.011368 0.128527 0.011368
0.0111543 0.126604 0.0111543
0.0142061 0.125719 0.0111849
0.0271 0.128344 0.0118868
0.0446937 0.132403 0.0128634
0.0706798 0.136019 0.0140841
0.107637 0.138994 0.0155642
0.148302 0.141588 0.0170443
0.192966 0.143618 0.0184024
0.244938 0.143984 0.0194858
0.307881 0.142306 0.0201877
0.383932 0.136614 0.020325
0.472419 0.124971 0.019852
0.569268 0.104692 0.0183566
0.659541 0.0730297 0.0154269
0.74818 0.0336309 0.0120699
0.837858 0.0137484 0.0121309
0.915389 0.0160678 0.0160678
0.952621 0.0188449 0.0188449
0.954162 0.018967 0.018967
0.954162 0.018967 0.018967
0.954162 0.018967 0.018967
0.954162 0.018967 0.018967
0.954162 0.018967 0.018967
0.954162 0.018967 0.018967
0.954162 0.018967 0.018967
0.954162 0.018967 0.018967
0.954162 0.018967 0.018967
0.954162 0.018967 0.018967
0.954162 0.018967 0.018967
0.954162 0.018967 0.018967
0.954162 0.018967 0.018967
0.0155337 0.173114 0.0155337
0.0154421 0.172152 0.0154421
0.0152132 0.169451 0.0152132
0.0151522 0.168856 0.0151522
0.0172427 0.172198 0.0155032
0.0284428 0.176867 0.0163119
0.0577401 0.18114 0.0176852
0.102007 0.185092 0.0195926
0.149828 0.189044 0.0215763
0.200534 0.192203 0.023331
0.259586 0.194202 0.0248417
0.330877 0.192721 0.025864
0.412482 0.186526 0.0263066
0.496544 0.17464 0.0260929
0.585824 0.156664 0.0251621
0.67718 0.131395 0.0234379
0.76672 0.0938125 0.0204776
0.850599 0.0421302 0.0163577
0.923033 0.0183261 0.0168307
0.953353 0.0189059 0.0189059
0.954162 0.018967 0.018967
0.954162 0.018967 0.018967
0.954162 0.018967 0.018967
0.954162 0.018967 0.018967
0.954162 0.018967 0.018967
0.954162 0.018967 0.018967
0.954162 0.018967 0.018967
0.954162 0.018967 0.018967
0.954162 0.018967 0.018967
0.954162 0.018967 0.018967
0.954162 0.018967 0.018967
0.954162 0.018967 0.018967
0.954162 0.018967 0.018967
0.0196689 0.225681 0.0196689
0.0195773 0.224491 0.0195773
0.0193637 0.221698 0.0193637
0.0194705 0.223087 0.0194705
0.019852 0.228031 0.019852
0.0204318 0.233005 0.0202182
0.034165 0.237324 0.0210574
0.0800031 0.242741 0.0232547
0.138537 0.248096 0.0259709
0.19678 0.250965 0.0282444
0.260121 0.250065 0.0299077
0.332464 0.246601 0.0310369
0.413169 0.239414 0.0316625
0.500481 0.228733 0.0319982
0.592645 0.213184 0.0318608
0.686198 0.191943 0.0312352
0.777722 0.162707 0.0300298
0.861723 0.119402 0.0274662
0.927901 0.0524605 0.0218814
0.953536 0.0199435 0.0190585
0.954162 0.018967 0.018967
0.954162 0.018967 0.018967
0.954162 0.018967 0.018967
0.954162 0.018967 0.018967
0.954162 0.018967 0.018967
0.954162 0.018967 0.018967
0.954162 0.018967 0.018967
0.954162 0.018967 0.018967
0.954162 0.018967 0.018967
0.954162 0.018967 0.018967
0.954162 0.018967 0.018967
0.954162 0.018967 0.018967
0.954162 0.018967 0.018967
0.0241245 0.293111 0.0241245
0.0240635 0.291936 0.0240635
0.0238804 0.289189 0.0238804
0.0240177 0.291463 0.0240177
0.0243229 0.296239 0.0243229
0.0245212 0.299535 0.0245212
0.0251621 0.300862 0.0246128
0.041825 0.302434 0.025452
0.0995346 0.305226 0.0281834
0.169497 0.307683 0.0312963
0.239658 0.307774 0.0336919
0.316655 0.304829 0.0353246
0.401709 0.298909 0.0363928
0.493019 0.288823 0.0371252
0.587716 0.274846 0.0375677
0.683314 0.256397 0.0377661
0.777768 0.232593 0.0379644
0.864424 0.198993 0.0377203
0.930816 0.147814 0.0353399
0.954116 0.0654612 0.0258488
0.954162 0.0204166 0.0191806
0.954162 0.018967 0.018967
0.954162 0.018967 0.018967
0.954162 0.018967 0.018967
0.954162 0.018967 0.018967
0.954162 0.018967 0.018967
0.954162 0.018967 0.018967
0.954162 0.018967 0.018967
0.954162 0.018967 0.018967
0.954162 0.018967 0.018967
0.954162 0.018967 0.018967
0.954162 0.018967 0.018967
0.954162 0.018967 0.018967
0.0281529 0.362188 0.0281529
0.027924 0.357961 0.027924
0.0276493 0.353307 0.0276493
0.0277867 0.355673 0.0277867
0.0280766 0.360739 0.0280766
0.0282444 0.363821 0.0282444
0.0283055 0.364843 0.0283055
0.0286564 0.365667 0.0283665
0.0450904 0.36669 0.029221
0.115648 0.369711 0.0326696
0.200198 0.370886 0.0362249
0.285237 0.368978 0.0386053
0.376486 0.363027 0.0400397
0.472587 0.35378 0.041001
0.570428 0.341878 0.0417945
0.669078 0.325582 0.0424353
0.766461 0.304311 0.0433204
0.858137 0.276555 0.0445411
0.927947 0.237263 0.045243
0.954192 0.176364 0.0412451
0.954192 0.0799878 0.0280003
0.954162 0.0213169 0.0193179
0.954162 0.018967 0.018967
0.954162 0.018967 0.018967
0.954162 0.018967 0.018967
0.954162 0.018967 0.018967
0.954162 0.018967 0.018967
0.954162 0.018967 0.018967
0.954162 0.018967 0.018967
0.954162 0.018967 0.018967
0.954162 0.018967 0.018967
0.954162 0.018967 0.018967
0.954162 0.018967 0.018967
0.0321355 0.43299 0.0321355
0.0318151 0.427298 0.0318151
0.0315557 0.422919 0.0315557
0.0317235 0.425635 0.0317235
0.0320287 0.431052 0.0320287
0.032166 0.433783 0.032166
0.0321965 0.434241 0.0321965
0.0322423 0.434913 0.0322423
0.0322423 0.434974 0.0322423
0.0452735 0.434897 0.0328679
0.133547 0.436835 0.0370184
0.234836 0.43621 0.0407111
0.335515 0.431083 0.04271
0.438224 0.423346 0.0438392
0.541314 0.412528 0.0447242
0.644602 0.398108 0.0455329
0.746319 0.379965 0.0466621
0.843793 0.356146 0.0485542
0.92108 0.323171 0.0508583
0.954192 0.275853 0.0509194
0.954192 0.204746 0.0445258
0.954192 0.0901045 0.0294347
0.954162 0.0217899 0.0193942
0.954162 0.018967 0.018967
0.954162 0.018967 0.018967
0.954162 0.018967 0.018967
0.954162 0.018967 0.018967
0.954162 0.018967 0.018967
0.954162 0.018967 0.018967
0.954162 0.018967 0.018967
0.954162 0.018967 0.018967
0.954162 0.018967 0.018967
0.954162 0.018967 0.018967
0.0361639 0.507317 0.0361639
0.0358282 0.500374 0.0358282
0.0356146 0.495933 0.0356146
0.0357824 0.499123 0.0357824
0.0360113 0.503624 0.0360113
0.0361181 0.505684 0.0361181
0.0361334 0.50605 0.0361334
0.0361639 0.506462 0.0361639
0.0361791 0.506859 0.0361791
0.0361334 0.506249 0.0361334
0.0508125 0.504601 0.0367437
0.156573 0.504738 0.0411994
0.276875 0.501762 0.0447395
0.38996 0.495476 0.0463874
0.502022 0.486 0.0474098
0.610971 0.47393 0.0482795
0.717983 0.458244 0.0493019
0.822919 0.437339 0.0511025
0.909453 0.409003 0.0539559
0.952148 0.37052 0.0563058
0.954192 0.313222 0.0538643
0.954192 0.228229 0.0468605
0.954177 0.0905776 0.0294041
0.954162 0.0209659 0.0192569
0.954162 0.018967 0.018967
0.954162 0.018967 0.018967
0.954162 0.018967 0.018967
0.954162 0.018967 0.018967
0.954162 0.018967 0.018967
0.954162 0.018967 0.018967
0.954162 0.018967 0.018967
0.954162 0.018967 0.018967
0.954162 0.018967 0.018967
0.0396429 0.582422 0.0396429
0.0392615 0.573922 0.0392615
0.0390936 0.570169 0.0390936
0.0392462 0.573495 0.0392462
0.0394141 0.577508 0.0394141
0.0394751 0.578668 0.0394751
0.0394903 0.579004 0.0394903
0.0395056 0.579309 0.0395056
0.0395209 0.579965 0.0395209
0.0395056 0.57911 0.0395056
0.0393988 0.576974 0.0393988
0.0622721 0.57377 0.0402533
0.188907 0.573236 0.0452735
0.324331 0.569329 0.0485084
0.449912 0.561318 0.0498665
0.567514 0.550835 0.0507668
0.682887 0.536568 0.0516518
0.795041 0.518578 0.0531624
0.892348 0.494545 0.0558022
0.951492 0.462394 0.0589761
0.954192 0.413916 0.0585489
0.954192 0.344656 0.0556039
0.954192 0.240589 0.047776
0.954177 0.0621042 0.0252689
0.954162 0.019379 0.019028
0.954162 0.018967 0.018967
0.954162 0.018967 0.018967
0.954162 0.018967 0.018967
0.954162 0.018967 0.018967
0.954162 0.018967 0.018967
0.954162 0.018967 0.018967
0.954162 0.018967 0.018967
0.954162 0.018967 0.018967
0.0431983 0.656535 0.0431983
0.0427253 0.647257 0.0427253
0.0425727 0.644114 0.0425727
0.0427405 0.647868 0.0427405
0.0429389 0.651621 0.0429389
0.0429694 0.652308 0.0429694
0.0429694 0.652552 0.0429694
0.0430152 0.653315 0.0430152
0.0430457 0.654124 0.0430457
0.0430304 0.653513 0.0430304
0.0429541 0.651774 0.0429541
0.0432441 0.648386 0.0428016
0.0802167 0.645136 0.0441749
0.225788 0.643397 0.0492103
0.376211 0.638209 0.0518196
0.509422 0.629465 0.0527047
0.63563 0.616968 0.0532998
0.757015 0.600458 0.0543221
0.867613 0.578988 0.0565194
0.943679 0.551354 0.0596933
0.954192 0.511376 0.0609751
0.954192 0.452888 0.0597086
0.954192 0.367224 0.0565805
0.954192 0.228656 0.0462806
0.954162 0.0345006 0.0212711
0.954162 0.018967 0.018967
0.954162 0.018967 0.018967
0.954162 0.018967 0.018967
0.954162 0.018967 0.018967
0.954162 0.018967 0.018967
0.954162 0.018967 0.018967
0.954162 0.018967 0.018967
0.954162 0.018967 0.018967
0.0472419 0.729793 0.0472419
0.0466468 0.719982 0.0466468
0.0465705 0.718593 0.0465705
0.0467994 0.722622 0.0467994
0.0469673 0.725597 0.0469673
0.0470283 0.726467 0.0470283
0.0470436 0.726848 0.0470436
0.0471199 0.728191 0.0471199
0.0471656 0.728954 0.0471656
0.0471809 0.729168 0.0471809
0.0471046 0.727901 0.0471046
0.0469673 0.725185 0.0469673
0.0480964 0.721202 0.0467994
0.0994583 0.717678 0.0484932
0.260517 0.715373 0.0529335
0.423545 0.708614 0.0545663
0.566461 0.697459 0.0546883
0.700969 0.682307 0.0547951
0.826505 0.662226 0.0559548
0.919982 0.637537 0.0585184
0.953841 0.603403 0.0611124
0.954192 0.55494 0.061387
0.954192 0.483818 0.0603952
0.954192 0.372702 0.0568093
0.954192 0.180163 0.040238
0.954162 0.0193332 0.019028
0.954162 0.018967 0.018967
0.954162 0.018967 0.018967
0.954162 0.018967 0.018967
0.954162 0.018967 0.018967
0.954162 0.018967 0.018967
0.954162 0.018967 0.018967
0.954162 0.018967 0.018967
0.0519112 0.801251 0.0519112
0.0513008 0.792538 0.0513008
0.0512703 0.791821 0.0512703
0.0515602 0.796185 0.0515602
0.0517281 0.798871 0.0517281
0.0518044 0.8 0.0518044
0.0518807 0.801007 0.0518807
0.0519875 0.802716 0.0519875
0.052079 0.803876 0.052079
0.0521096 0.804242 0.0521096
0.0520638 0.80351 0.0520638
0.0518959 0.801083 0.0518959
0.051667 0.797772 0.051667
0.0532387 0.793011 0.0514229
0.11281 0.7888 0.0529793
0.287861 0.784833 0.0563516
0.466926 0.77528 0.056672
0.621988 0.760647 0.0557565
0.761776 0.741878 0.0554055
0.880369 0.718929 0.0566415
0.945998 0.689586 0.0589914
0.954192 0.647745 0.0605173
0.954192 0.589303 0.0613107
0.954192 0.496971 0.0606088
0.954192 0.346777 0.0548714
0.954177 0.110445 0.0313878
0.954162 0.018967 0.018967
0.954162 0.018967 0.018967
0.954162 0.018967 0.018967
0.954162 0.018967 0.018967
0.954162 0.018967 0.018967
0.954162 0.018967 0.018967
0.954162 0.018967 0.018967
0.0568093 0.864378 0.0568093
0.0562448 0.857664 0.0562448
0.0562905 0.858305 0.0562905
0.0565957 0.861906 0.0565957
0.0567941 0.86421 0.0567941
0.0569009 0.865309 0.0569009
0.0569924 0.866438 0.0569924
0.0571145 0.867918 0.0571145
0.0572061 0.868879 0.0572061
0.0572366 0.869261 0.0572366
0.0571756 0.868666 0.0571756
0.0570077 0.866636 0.0570077
0.0567788 0.864103 0.0567788
0.0564889 0.860517 0.0564889
0.0575875 0.855879 0.0561379
0.118883 0.851102 0.0572671
0.311971 0.845319 0.0593729
0.510216 0.833341 0.0581674
0.673381 0.817258 0.05626
0.81593 0.79675 0.0555428
0.920531 0.770062 0.0567025
0.953536 0.734417 0.0583658
0.954192 0.682948 0.0597391
0.954192 0.605676 0.0610666
0.954192 0.485252 0.0602579
0.954192 0.289586 0.05066
0.954162 0.0510109 0.0235294
0.954162 0.018967 0.018967
0.954162 0.018967 0.018967
0.954162 0.018967 0.018967
0.954162 0.018967 0.018967
0.954162 0.018967 0.018967
0.954162 0.018967 0.018967
0.061265 0.913787 0.061265
0.0608682 0.909499 0.0608682
0.0609903 0.910765 0.0609903
0.061265 0.913634 0.061265
0.0614176 0.915297 0.0614176
0.0614939 0.915999 0.0614939
0.0615854 0.916976 0.0615854
0.0617075 0.918196 0.0617075
0.0617838 0.91899 0.0617838
0.0617685 0.918914 0.0617685
0.061677 0.918135 0.061677
0.0615244 0.916579 0.0615244
0.061326 0.914488 0.061326
0.0610666 0.911772 0.0610666
0.0607767 0.908583 0.0607767
0.0603647 0.90428 0.0603647
0.124331 0.899413 0.0611276
0.335515 0.892317 0.061738
0.54696 0.880079 0.059205
0.718944 0.863783 0.0564431
0.861769 0.843091 0.0555428
0.945602 0.814588 0.0564736
0.954192 0.769985 0.0575875
0.954192 0.70341 0.059205
0.954192 0.603357 0.0609598
0.954192 0.454826 0.0594797
0.954192 0.188251 0.0399481
0.954162 0.0202487 0.0191501
0.954162 0.018967 0.018967
0.954162 0.018967 0.018967
0.954162 0.018967 0.018967
0.954162 0.018967 0.018967
0.954162 0.018967 0.018967
0.0646982 0.948882 0.0646982
0.0644541 0.946838 0.0644541
0.0645609 0.947829 0.0645609
0.064744 0.949462 0.064744
0.0648356 0.950347 0.0648356
0.0648814 0.95079 0.0648814
0.0649424 0.951537 0.0649424
0.0650034 0.952255 0.0650034
0.0650034 0.952392 0.0650034
0.0649882 0.95201 0.0649882
0.0649119 0.951339 0.0649119
0.0648203 0.950652 0.0648203
0.0647135 0.949416 0.0647135
0.0645304 0.947555 0.0645304
0.0643473 0.945663 0.0643473
0.0641184 0.943404 0.0641184
0.0637827 0.940414 0.0637827
0.124804 0.936156 0.0640574
0.344198 0.928954 0.063508
0.571466 0.916838 0.0599985
0.754208 0.900679 0.0567483
0.897032 0.879576 0.0557412
0.95227 0.847257 0.0563516
0.954192 0.79263 0.0571756
0.954192 0.709072 0.0590677
0.954192 0.589227 0.0609598
0.954192 0.401068 0.0575113
0.954177 0.105455 0.030045
0.954162 0.0253758 0.0198825
0.954162 0.018967 0.018967
0.954162 0.018967 0.018967
0.954162 0.018967 0.018967
0.954162 0.018967 0.018967
0.0663767 0.954192 0.0663767
0.066331 0.954192 0.066331
0.0663615 0.954192 0.0663615
0.0664073 0.954192 0.0664073
0.0664073 0.954192 0.0664073
0.0664225 0.954192 0.0664225
0.0664378 0.954192 0.0664378
0.066453 0.954192 0.066453
0.0664683 0.954192 0.0664683
0.066453 0.954192 0.066453
0.0664225 0.954192 0.0664225
0.0664073 0.954192 0.0664073
0.0663767 0.954192 0.0663767
0.066331 0.954192 0.066331
0.0662852 0.954192 0.0662852
0.0662394 0.954192 0.0662394
0.0661021 0.954192 0.0661021
0.0662699 0.954055 0.0659342
0.0938582 0.953155 0.0658579
0.320027 0.952148 0.0652628
0.575692 0.945663 0.0608835
0.774929 0.929702 0.0572213
0.919173 0.907073 0.0562448
0.953735 0.869749 0.0563363
0.954192 0.807767 0.0569467
0.954192 0.710292 0.0590219
0.954192 0.567163 0.0607309
0.954192 0.357961 0.0552377
0.954192 0.240375 0.0473945
0.954192 0.233219 0.0465705
0.954192 0.241382 0.0474403
0.954192 0.251637 0.0485542
0.954192 0.262379 0.0497139
0.0664988 0.954192 0.0664988
0.0664988 0.954192 0.0664988
0.0664988 0.954192 0.0664988
0.0664988 0.954192 0.0664988
0.0664988 0.954192 0.0664988
0.0664988 0.954192 0.0664988
0.0664988 0.954192 0.0664988
0.0664988 0.954192 0.0664988
0.0664988 0.954192 0.0664988
0.0664988 0.954192 0.0664988
0.0664988 0.954192 0.0664988
0.0664988 0.954192 0.0664988
0.0664988 0.954192 0.0664988
0.0664988 0.954192 0.0664988
0.0664988 0.954192 0.0664988
0.0664988 0.954192 0.0664988
0.0664988 0.954192 0.0664988
0.0664988 0.954192 0.0664988
0.0664988 0.954192 0.0664988
0.0779431 0.954192 0.0665599
0.247623 0.954192 0.0665446
0.545403 0.953872 0.0621042
0.778241 0.948211 0.0578317
0.929137 0.926863 0.056672
0.954116 0.887541 0.0563516
0.954192 0.81973 0.0568093
0.954192 0.709529 0.0590372
0.954192 0.559579 0.0606394
0.954192 0.417838 0.0584726
0.954192 0.41091 0.0582895
0.954192 0.417182 0.0585489
0.954192 0.424216 0.0588388
0.954192 0.431266 0.0591287
0.0664988 0.954192 0.0664988
0.0664988 0.954192 0.0664988
0.0664988 0.954192 0.0664988
0.0664988 0.954192 0.0664988
0.0664988 0.954192 0.0664988
0.0664988 0.954192 0.0664988
0.0664988 0.954192 0.0664988
0.0664988 0.954192 0.0664988
0.0664988 0.954192 0.0664988
0.0664988 0.954192 0.0664988
0.0664988 0.954192 0.0664988
0.0664988 0.954192 0.0664988
0.0664988 0.954192 0.0664988
0.0664988 0.954192 0.0664988
0.0664988 0.954192 0.0664988
0.0664988 0.954192 0.0664988
0.0664988 0.954192 0.0664988
0.0664988 0.954192 0.0664988
0.0664988 0.954192 0.0664988
0.0664988 0.954192 0.0664988
0.0682536 0.954192 0.0665141
0.162127 0.954192 0.0667582
0.504982 0.954192 0.0628367
0.784649 0.953841 0.0581826
0.937392 0.93901 0.0570535
0.954192 0.898955 0.0564889
0.954192 0.826871 0.056733
0.954192 0.718227 0.0588388
0.954192 0.599344 0.0607919
0.954192 0.543069 0.0612192
0.954192 0.548379 0.061265
0.954192 0.553445 0.0612955
0.954192 0.558785 0.0613413
0.0664988 0.954192 0.0664988
0.0664988 0.954192 0.0664988
0.0664988 0.954192 0.0664988
0.0664988 0.954192 0.0664988
0.0664988 0.954192 0.0664988
0.0664988 0.954192 0.0664988
0.0664988 0.954192 0.0664988
0.0664988 0.954192 0.0664988
0.0664988 0.954192 0.0664988
0.0664988 0.954192 0.0664988
0.0664988 0.954192 0.0664988
0.0664988 0.954192 0.0664988
0.0664988 0.954192 0.0664988
0.0664988 0.954192 0.0664988
0.0664988 0.954192 0.0664988
0.0664988 0.954192 0.0664988
0.0664988 0.954192 0.0664988
0.0664988 0.954192 0.0664988
0.0664988 0.954192 0.0664988
0.0664988 0.954192 0.0664988
0.0664988 0.954192 0.0664988
0.0664988 0.954192 0.0664988
0.100496 0.954192 0.0667277
0.476905 0.954192 0.0632639
0.784543 0.954192 0.0585184
0.939376 0.945968 0.0574655
0.954192 0.907835 0.0566415
0.954192 0.841871 0.0565652
0.954192 0.762798 0.057847
0.954192 0.721004 0.0587472
0.954192 0.728405 0.0585794
0.954192 0.736477 0.0583963
0.954192 0.744915 0.0581979
0.0664988 0.954192 0.0664988
0.0664988 0.954192 0.0664988
0.0664988 0.954192 0.0664988
0.0664988 0.954192 0.0664988
0.0664988 0.954192 0.0664988
0.0664988 0.954192 0.0664988
0.0664988 0.954192 0.0664988
0.0664988 0.954192 0.0664988
0.0664988 0.954192 0.0664988
0.0664988 0.954192 0.0664988
