lut.cube
TITLE "Generated by Resolve"
LUT_3D_SIZE 5
0 0 0
0.142153 0.000350958 0.000350958
0.504082 0.00595102 0.00595102
0.954162 0.018967 0.018967
0.954162 0.018967 0.018967
0.0113985 0.128771 0.0113985
0.148302 0.141588 0.0170443
0.74818 0.0336309 0.0120699
0.954162 0.018967 0.018967
0.954162 0.018967 0.018967
0.0431983 0.656535 0.0431983
0.0430457 0.654124 0.0430457
0.63563 0.616968 0.0532998
0.954162 0.0345006 0.0212711
0.954162 0.018967 0.018967
0.0664988 0.954192 0.0664988
0.0664988 0.954192 0.0664988
0.0664988 0.954192 0.0664988
0.937392 0.93901 0.0570535
0.954192 0.558785 0.0613413
0.0668498 0.954192 0.254276
0.0668498 0.954192 0.254368
0.0666209 0.954192 0.107027
0.0821393 0.954192 0.0665904
0.95404 0.954192 0.0581216
0 0 0.0644846
0.138186 0.00170901 0.0887617
0.535302 0.00743114 0.107424
0.954162 0.0189975 0.0205386
0.954162 0.018967 0.018967
0.0137942 0.139834 0.127581
0.150286 0.150423 0.150362
0.759609 0.0351873 0.145907
0.954162 0.018967 0.0190433
0.954162 0.018967 0.018967
0.0441291 0.660365 0.0941939
0.0440223 0.6589 0.0911269
0.639017 0.622904 0.0788434
0.954162 0.0408331 0.0222019
0.954162 0.018967 0.018967
0.0664988 0.954192 0.0664988
0.0664988 0.954192 0.0664988
0.0664988 0.954192 0.0664988
0.932143 0.936202 0.0569467
0.954192 0.562097 0.0610513
0.0668345 0.954192 0.263188
0.0668345 0.954192 0.253239
0.0664988 0.954192 0.0664988
0.094728 0.954192 0.0666667
0.950713 0.95375 0.0579538
0 0 0.280552
0.122042 0.00331121 0.317891
0.595285 0.00991836 0.478264
0.954192 0.0234684 0.430503
0.954192 0.0203861 0.103334
0.0166934 0.151965 0.536294
0.0998245 0.157107 0.621103
0.75256 0.0303502 0.639261
0.954192 0.0235752 0.446571
0.954192 0.0211185 0.151568
0.0476081 0.660365 0.628489
0.0476234 0.660334 0.632074
0.621332 0.622889 0.622812
0.954192 0.0448768 0.393683
0.954192 0.0211795 0.156298
0.0666361 0.954192 0.107378
0.0666361 0.954192 0.108232
0.0665599 0.954192 0.0861067
0.929641 0.93109 0.0577554
0.954192 0.582956 0.0608988
0.0666667 0.954192 0.315892
0.0668345 0.954192 0.248417
0.0665141 0.954192 0.0673381
0.0988022 0.954192 0.066453
0.951232 0.95375 0.0579538
0.00251774 0.00251774 0.903029
0.00343328 0.00343328 0.945632
0.51136 0.0135958 0.951293
0.954192 0.0299535 0.954192
0.954192 0.0268711 0.831754
0.0136568 0.0916915 0.951324
0.0112001 0.0702068 0.949996
0.537179 0.0139315 0.951476
0.954192 0.0299535 0.954192
0.954192 0.0284276 0.906645
0.0491188 0.595926 0.954192
0.0491035 0.595728 0.954192
0.311559 0.555032 0.954192
0.954192 0.0343633 0.954192
0.954192 0.0293584 0.938811
0.0640574 0.954192 0.951995
0.0640574 0.954192 0.952346
0.0640574 0.954192 0.9505
0.910399 0.910246 0.910628
0.954192 0.594507 0.739498
0.0643931 0.954192 0.697398
0.0645457 0.954192 0.672587
0.0648203 0.954192 0.628061
0.156237 0.954192 0.633417
0.953704 0.95404 0.630014
0.00343328 0.00343328 0.945739
0.00343328 0.00343328 0.945739
0.00343328 0.00343328 0.945739
0.954192 0.0299535 0.954192
0.954192 0.0299535 0.954192
0.00343328 0.00343328 0.945739
0.00343328 0.00343328 0.945739
0.00343328 0.00343328 0.945739
0.954192 0.0299535 0.954192
0.954192 0.0299535 0.954192
0.0425727 0.442741 0.954192
0.0429999 0.452247 0.954192
0.0412604 0.414374 0.954192
0.954192 0.0299535 0.954192
0.954192 0.0299535 0.954192
0.0640269 0.954192 0.954192
0.0640574 0.954192 0.954192
0.0636759 0.952895 0.954192
0.756298 0.857038 0.954192
0.954192 0.587625 0.954192
0.0640726 0.954192 0.954192
0.0640726 0.954192 0.954192
0.0640726 0.954192 0.954192
0.147646 0.954192 0.954192
0.947738 0.948745 0.948287
