lut2.cube
TITLE "Generated by Resolve"
LUT_3D_SIZE 9
0 0 0
0.0614939 0 0
0.209171 0 0
0.395422 0 0.00485237
0.592096 0 0.0183261
0.777966 0 0.0341955
0.953582 0 0.0517433
1 0 0.0715343
1 0 0.0937362
0 0.0434577 0
0.0624247 0.0453193 0
0.226886 0.0256199 0
0.423758 0 0.0133059
0.626596 0 0.0310979
0.819516 0 0.0521706
1 0 0.0750134
1 0 0.0991989
1 0 0.124224
0 0.162951 0
0.0425727 0.170382 0
0.213611 0.157076 0
0.416434 0.135592 0
0.624369 0.113466 0
0.821042 0.0962692 0.0148623
1 0.0828107 0.0397345
1 0.0713054 0.0654459
1 0.0612192 0.0915694
0 0.312505 0
0.0177005 0.324285 0
0.193896 0.313191 0
0.39913 0.294133 0
0.608438 0.273732 0
0.806058 0.257557 0
0.992462 0.244846 0
1 0.233387 0.0037995
1 0.222797 0.0290837
0 0.473442 0
0 0.486381 0
0.174807 0.475502 0
0.381811 0.456657 0
0.591623 0.436606 0
0.788586 0.419898 0
0.973816 0.406134 0
1 0.392981 0
1 0.380133 0
0 0.63418 0
0 0.64651 0
0.163729 0.63418 0
0.370916 0.613382 0
0.579614 0.591546 0
0.774334 0.572457 0
0.957259 0.55639 0
1 0.541146 0
1 0.526543 0
0 0.78819 0
0 0.798352 0
0.154147 0.78352 0
0.360418 0.759899 0
0.567849 0.735576 0
0.761425 0.714916 0
0.943252 0.697536 0
1 0.681193 0
1 0.665568 0
0 0.933593 0
0 0.941878 0
0.140734 0.925399 0
0.347066 0.900114 0
0.554406 0.87425 0
0.747677 0.852628 0
0.929015 0.834409 0
1 0.817365 0
1 0.80119 0
0 1 0
0 1 0
0.126406 1 0
0.33312 1 0
0.540902 1 0
0.734447 0.987182 0
0.915785 0.968505 0
1 0.950988 0
1 0.934768 0
0 0 0.0635843
0.0464637 0 0.0620127
0.195834 0 0.0631876
0.385733 0 0.0737011
0.583215 0 0.0879225
0.76965 0 0.104326
0.945861 0 0.122454
1 0 0.142916
1 0 0.165911
0 0.0494545 0.0324102
0.0531472 0.0512703 0.0509957
0.218601 0.0317693 0.0675669
0.416373 0.00486763 0.083711
0.619852 0 0.101579
0.813169 0 0.122576
0.996185 0 0.145296
1 0 0.169329
1 0 0.194186
0 0.171466 0
0.0344549 0.179294 0
0.20737 0.166003 0.0198672
0.410834 0.144869 0.0418708
0.619028 0.122683 0.0641184
0.815488 0.105104 0.0878767
1 0.0920577 0.113313
1 0.0806134 0.139223
1 0.0705119 0.165484
0 0.322866 0
0.0102083 0.334615 0
0.188525 0.323247 0
0.394095 0.304295 0
0.603387 0.283696 0.00263981
0.800549 0.266896 0.026627
0.987228 0.254261 0.0520485
1 0.242679 0.0774548
1 0.231861 0.102708
0 0.484184 0
0 0.496925 0
0.168978 0.485786 0
0.376593 0.466758 0
0.586053 0.446281 0
0.782544 0.429023 0
0.967727 0.415091 0
1 0.401694 0.00749218
1 0.388357 0.0299229
0 0.644755 0
0 0.656626 0
0.156649 0.643809 0
0.364324 0.6224 0
0.572824 0.600153 0
0.767437 0.580896 0
0.950256 0.56466 0
1 0.549264 0
1 0.534401 0
0 0.798154 0
0 0.807813 0
0.145861 0.792401 0
0.352865 0.768292 0
0.560403 0.743664 0
0.753964 0.722942 0
0.935729 0.705455 0
1 0.688975 0
1 0.673259 0
0 0.942779 0
0 0.950851 0
0.131746 0.933944 0
0.338888 0.908248 0
0.546487 0.882048 0
0.739849 0.86038 0
0.921172 0.842084 0
1 0.824887 0
1 0.808743 0
0 1 0
0 1 0
0.116945 1 0
0.324453 1 0
0.532677 1 0
0.726375 0.994812 0
0.907759 0.976089 0
1 0.958511 0
1 0.942336 0
0 0 0.21268
0.00854505 0 0.213016
0.163714 0 0.214374
0.356054 0 0.22475
0.554009 0 0.238849
0.740719 0 0.25536
0.917769 0 0.274266
1 0 0.295521
1 0 0.319097
0 0.053254 0.188525
0.0200046 0.0555734 0.207355
0.190249 0.0356451 0.222416
0.389303 0.00936904 0.239368
0.594018 0 0.259709
0.787793 0 0.282521
0.971756 0 0.307469
1 0 0.333364
1 0 0.359869
0 0.178622 0.122469
0 0.187442 0.148058
0.179812 0.17351 0.172625
0.384802 0.152605 0.195727
0.593454 0.130388 0.218494
0.789685 0.112337 0.24213
0.975799 0.0993668 0.267308
1 0.0880446 0.293034
1 0.0777295 0.318761
0 0.333059 0.0448768
0 0.345006 0.0744335
0.160327 0.332815 0.106538
0.368292 0.313695 0.134646
0.577707 0.292882 0.157946
0.774334 0.275074 0.181323
0.960708 0.261799 0.206485
1 0.250004 0.232059
1 0.238682 0.257069
0 0.49514 0
0 0.507729 0.0039826
0.139513 0.495995 0.0377203
0.350698 0.476371 0.0691234
0.559701 0.455329 0.0927901
0.755337 0.437064 0.115282
0.939849 0.422202 0.138338
1 0.408438 0.161517
1 0.394858 0.183948
0 0.655344 0
0 0.666804 0
0.125032 0.652949 0
0.336202 0.630716 0.00872816
0.54464 0.607553 0.0325628
0.738659 0.587686 0.0536812
0.921218 0.57113 0.0749218
1 0.555581 0.096025
1 0.540566 0.116732
0 0.807965 0
0 0.817166 0
0.112673 0.800687 0
0.322438 0.775326 0
0.530785 0.749966 0
0.724453 0.729168 0
0.906126 0.711589 0.0171817
1 0.694789 0.0370184
1 0.679194 0.0569772
0 0.951782 0
0 0.95967 0
0.0977188 0.941878 0
0.307424 0.915129 0
0.516335 0.888304 0
0.709941 0.866377 0
0.891188 0.84802 0
1 0.83061 0
1 0.814572 0
0 1 0
0 1 0
0.0823224 1 0
0.292149 1 0
0.50193 1 0
0.696117 1 0
0.877562 0.981949 0
1 0.964294 0
1 0.948165 0
0 0 0.393866
0 0 0.396139
0.122301 0 0.401633
0.318334 0 0.411215
0.51751 0 0.423758
0.704616 0 0.439567
0.882338 0 0.458656
1 0 0.480522
1 0 0.504387
0 0.0564736 0.376562
0 0.0590982 0.395727
0.15053 0.0393072 0.412161
0.353582 0.0131228 0.427741
0.559655 0 0.446647
0.753857 0 0.468971
0.937972 0 0.493797
1 0 0.519722
1 0 0.546227
0 0.183719 0.313466
0 0.19295 0.339544
0.140398 0.179538 0.364172
0.351125 0.158175 0.385519
0.560479 0.136324 0.407874
0.756985 0.118364 0.432425
0.94316 0.104936 0.458915
1 0.0934157 0.48629
1 0.0828412 0.513588
0 0.340505 0.236484
0 0.352941 0.26566
0.116716 0.342245 0.293553
0.333761 0.322026 0.320409
0.544427 0.30106 0.344533
0.741344 0.282994 0.368292
0.926802 0.268544 0.392721
1 0.256229 0.418143
1 0.244785 0.443366
0 0.504524 0.161486
0 0.51783 0.191623
0.0946365 0.507118 0.220951
0.314992 0.486168 0.253773
0.526268 0.465019 0.28072
0.721569 0.446067 0.302785
0.904692 0.429358 0.324407
1 0.41413 0.346563
1 0.400443 0.369299
0 0.665202 0.101717
0 0.676997 0.130938
0.0796063 0.663462 0.159731
0.29807 0.640269 0.191989
0.510246 0.616571 0.220111
0.703746 0.596124 0.241123
0.884703 0.577813 0.260807
1 0.560876 0.280797
1 0.545937 0.3019
0 0.817411 0.0497597
0 0.826764 0.0770886
0.0661021 0.809781 0.10396
0.281056 0.782986 0.13312
0.493782 0.757183 0.161059
0.687602 0.735851 0.183032
0.868345 0.717357 0.202701
1 0.70013 0.222278
1 0.684428 0.242344
0 0.961074 0
0 0.968856 0.0215915
0.0508888 0.950515 0.0479896
0.264439 0.922118 0.0757305
0.476905 0.894194 0.102541
0.671473 0.871733 0.125505
0.852735 0.853269 0.145769
1 0.835813 0.16524
1 0.81973 0.184863
0 1 0
0 1 0
0.0352941 1 0
0.248508 1 0.0199893
0.461585 1 0.0465858
0.657145 1 0.0702068
0.838605 0.986877 0.090959
1 0.969467 0.110674
1 0.953353 0.130297
0 0 0.579293
0 0 0.583352
0.0788434 0 0.592767
0.277714 0 0.603357
0.479408 0 0.615305
0.667918 0 0.630304
0.846494 0 0.649012
1 0 0.670985
1 0 0.69482
0 0.0596933 0.568261
0 0.0626688 0.587884
0.108522 0.0433814 0.605432
0.314656 0.01738 0.622293
0.523598 0 0.640543
0.719158 0 0.661936
0.903685 0 0.685969
1 0 0.711482
1 0 0.737758
0 0.188815 0.507897
0 0.198352 0.534386
0.0991836 0.185031 0.559045
0.312367 0.163409 0.581521
0.525231 0.141451 0.60235
0.722911 0.124147 0.625513
0.909102 0.110933 0.651072
1 0.0994583 0.677897
1 0.0889906 0.705013
0 0.346532 0.432853
0 0.358968 0.462242
0.0757763 0.348135 0.49012
0.293751 0.328313 0.516793
0.510262 0.307103 0.539284
0.707942 0.289509 0.562829
0.893172 0.274693 0.587579
1 0.261509 0.61323
1 0.249805 0.639414
0 0.512016 0.358694
0 0.525261 0.388693
0.05066 0.51487 0.416999
0.269947 0.495506 0.444816
0.490776 0.473457 0.471046
0.687419 0.454551 0.494072
0.870283 0.437049 0.515557
1 0.42005 0.5364
1 0.405661 0.55877
0 0.673762 0.297597
0 0.685588 0.326101
0.032166 0.672557 0.352102
0.251057 0.650523 0.37879
0.473442 0.625879 0.409186
0.668986 0.6056 0.433265
0.849531 0.586557 0.452461
1 0.567605 0.470863
1 0.55108 0.490806
0 0.82594 0.243046
0 0.835309 0.269322
0.0164797 0.818799 0.292958
0.233661 0.792859 0.318349
0.45478 0.766506 0.348806
0.652293 0.745022 0.375219
0.832486 0.725917 0.39469
1 0.706859 0.412604
1 0.689555 0.431342
0 0.969589 0.186603
0 0.977493 0.211765
0.000457771 0.959487 0.235187
0.216037 0.930694 0.259678
0.434958 0.902007 0.288334
0.633707 0.879225 0.315343
0.814878 0.860029 0.336446
0.990356 0.841642 0.355215
1 0.824796 0.374228
0 1 0.130907
0 1 0.15552
0 1 0.178912
0.200046 1 0.204013
0.417685 1 0.231373
0.616526 1 0.257649
0.799008 0.992172 0.280278
0.975753 0.974578 0.300404
1 0.958389 0.32018
0 0 0.751827
0 0 0.758556
0.0390326 0 0.770275
0.239551 0 0.78201
0.443214 0 0.794308
0.633936 0 0.809567
0.814023 0 0.828214
0.991455 0 0.849973
1 0 0.87361
0 0.0635996 0.74667
0 0.0669871 0.766857
0.0703899 0.0481575 0.785199
0.278355 0.0227054 0.80351
0.48954 0 0.822324
0.687053 0 0.843519
0.87248 0 0.866835
1 0 0.891432
1 0 0.917571
0 0.194507 0.688807
0 0.204578 0.715923
0.0619974 0.191089 0.740475
0.275746 0.169284 0.763516
0.491142 0.147112 0.785077
0.691112 0.129976 0.807721
0.87837 0.117052 0.832395
1 0.105409 0.858076
1 0.0951858 0.884749
0 0.353277 0.615717
0 0.365637 0.645182
0.0384527 0.354116 0.672404
0.25597 0.333944 0.698634
0.475166 0.312581 0.722316
0.676127 0.295171 0.744686
0.862181 0.280751 0.768032
1 0.267369 0.792386
1 0.25565 0.81799
0 0.519402 0.542977
0 0.532341 0.572885
0.0130465 0.520943 0.600381
0.231739 0.500877 0.627619
0.453941 0.479347 0.653758
0.655909 0.46038 0.675334
0.839323 0.443229 0.69662
1 0.425803 0.717754
1 0.410346 0.740139
0 0.681346 0.481956
0 0.693034 0.510414
0 0.679316 0.535515
0.209689 0.657206 0.560754
0.431495 0.634485 0.586419
0.636133 0.613581 0.610437
0.818082 0.594736 0.630655
0.993469 0.575219 0.649088
1 0.557061 0.667781
0 0.833371 0.426154
0 0.842649 0.452125
0 0.826307 0.474723
0.189456 0.801083 0.497292
0.411734 0.776516 0.522744
0.618967 0.754269 0.551904
0.800946 0.7355 0.574105
0.975631 0.715938 0.591775
1 0.696681 0.608927
0 0.977111 0.368246
0 0.985046 0.39295
0 0.967269 0.414649
0.170214 0.939345 0.435798
0.391806 0.911833 0.461082
0.598566 0.888762 0.490913
0.783215 0.869673 0.516213
0.958434 0.850996 0.535042
1 0.832212 0.5523
0 1 0.311208
0 1 0.335241
0 1 0.356725
0.153552 1 0.37847
0.373465 1 0.402823
0.578653 1 0.431388
0.765225 1 0.458045
0.942229 0.982498 0.47924
1 0.964553 0.49749
0 0 0.912276
0 0 0.92285
0.00288396 0 0.935744
0.204456 0 0.948379
0.409644 0 0.961471
0.602197 0 0.97731
0.784146 0 0.996475
0.962432 0 1
1 0 1
0 0.0677958 0.912749
0 0.0719768 0.933852
0.0360876 0.053727 0.953063
0.24506 0.0286412 0.972335
0.45803 0.00456245 0.992264
0.657084 0 1
0.843702 0 1
1 0 1
1 0 1
0 0.201068 0.857847
0 0.21149 0.885451
0.0289616 0.198138 0.910246
0.242573 0.17586 0.933272
0.459419 0.153796 0.955825
0.661326 0.136614 0.978882
0.849882 0.123583 1
1 0.111833 1
1 0.101549 1
0 0.360693 0.786404
0 0.37319 0.816144
0.00535592 0.361212 0.842924
0.221714 0.33994 0.868101
0.441581 0.31841 0.892409
0.644923 0.300832 0.915404
0.832761 0.286351 0.938003
1 0.273411 0.9617
1 0.261479 0.986145
0 0.527108 0.714748
0 0.539971 0.744762
0 0.527687 0.771466
0.19675 0.506218 0.79733
0.418402 0.48423 0.822873
0.62295 0.46508 0.845518
0.809064 0.447883 0.865354
0.987366 0.431205 0.885466
1 0.415717 0.906798
0 0.688701 0.653986
0 0.700145 0.682383
0 0.685863 0.707118
0.173938 0.662181 0.730953
0.395331 0.638941 0.756207
0.601617 0.618555 0.780102
0.788495 0.599954 0.799161
0.964874 0.581247 0.817975
1 0.562768 0.837125
0 0.840238 0.597757
0 0.849378 0.623713
0 0.832731 0.646021
0.152087 0.806958 0.66775
0.373053 0.782742 0.692058
0.580285 0.762554 0.716884
0.770932 0.743481 0.739651
0.947127 0.72433 0.758511
1 0.704494 0.775631
0 0.983978 0.539239
0 0.991867 0.563897
0 0.97406 0.585092
0.130877 0.946532 0.605219
0.35082 0.919951 0.627695
0.559274 0.898665 0.653178
0.753185 0.879118 0.681743
0.930251 0.861082 0.703288
1 0.841764 0.720226
0 1 0.481437
0 1 0.505302
0 1 0.526009
0.112428 1 0.546029
0.331334 1 0.56701
0.539422 1 0.592782
0.73373 1 0.62266
0.914076 0.992782 0.647959
1 0.973892 0.665583
0 0 1
0 0 1
0 0 1
0.170611 0 1
0.377157 0 1
0.571252 0 1
0.754849 0 1
0.934356 0 1
1 0 1
0 0.0724041 1
0 0.0773022 1
0.00357061 0.0598306 1
0.213275 0.0350805 1
0.427375 0.0111849 1
0.627619 0 1
0.815274 0 1
0.997879 0 1
1 0 1
0 0.20795 1
0 0.218662 1
0 0.205493 1
0.211368 0.183337 1
0.428977 0.161212 1
0.632013 0.143801 1
0.821454 0.130251 1
1 0.118486 1
1 0.108034 1
0 0.368292 0.952209
0 0.380911 0.982177
0 0.368856 1
0.190173 0.347402 1
0.409689 0.32517 1
0.614023 0.307195 1
0.803601 0.292622 1
0.986816 0.279606 1
1 0.267338 1
0 0.534905 0.881483
0 0.547707 0.911574
0 0.535012 0.937972
0.163867 0.512489 0.962753
0.384161 0.489204 0.98703
0.589075 0.469566 1
0.777584 0.452277 1
0.958038 0.435935 1
1 0.420829 1
0 0.696101 0.820966
0 0.707271 0.849271
0 0.692393 0.873549
0.139956 0.667491 0.896284
0.359838 0.64271 0.919951
0.565545 0.621881 0.943267
0.755566 0.603586 0.963821
0.935271 0.585565 0.981811
1 0.567834 0.999969
0 0.846845 0.764462
0 0.855833 0.790463
0 0.839048 0.812787
0.117906 0.812482 0.833906
0.337407 0.786709 0.856825
0.544213 0.766018 0.881224
0.73724 0.747951 0.904295
0.918532 0.729564 0.922499
1 0.710536 0.940108
0 0.990402 0.705913
0 0.998245 0.730617
0 0.980377 0.751827
0.0956436 0.952834 0.771923
0.314 0.925338 0.793088
0.521126 0.904479 0.817365
0.715801 0.887327 0.8421
0.901503 0.869261 0.86479
1 0.850263 0.88278
0 1 0.647868
0 1 0.67155
0 1 0.692332
0.0752575 1 0.711925
0.292882 1 0.731579
0.499672 1 0.754726
0.696208 1 0.78085
0.885695 1 0.809857
1 0.983505 0.829053
0 0 1
0 0 1
0 0 1
0.137987 0 1
0.345861 0 1
0.541451 0 1
0.726253 0 1
0.906905 0 1
1 0 1
0 0.0772564 1
0 0.0828107 1
0 0.0662547 1
0.182925 0.0419013 1
0.397757 0.0181582 1
0.598901 0 1
0.787305 0 1
0.971008 0 1
1 0 1
0 0.215 1
0 0.225986 1
0 0.21294 1
0.181491 0.190997 1
0.399558 0.168841 1
0.603326 0.151263 1
0.793591 0.137392 1
0.978332 0.125414 1
1 0.114672 1
0 0.376059 1
0 0.388769 1
0 0.376684 1
0.16022 0.355291 1
0.379843 0.332921 1
0.584497 0.314534 1
0.77496 0.299535 1
0.95903 0.285985 1
1 0.27332 1
0 0.542779 1
0 0.555489 1
0 0.542626 1
0.133318 0.519936 1
0.352499 0.495567 1
0.556527 0.474708 1
0.746166 0.457221 1
0.928573 0.440986 1
1 0.426139 1
0 0.703517 0.9832
0 0.714366 1
0 0.699245 1
0.108354 0.674022 1
0.326329 0.647349 1
0.530755 0.625284 1
0.721447 0.606836 1
0.903868 0.589059 1
1 0.571893 1
0 0.853498 0.926482
0 0.862119 0.9523
0 0.845365 0.974792
0.0857404 0.818677 0.995911
0.303319 0.790906 1
0.508736 0.768826 1
0.701595 0.750652 1
0.886168 0.732662 1
1 0.714427 1
0 0.996674 0.867994
0 1 0.8925
0 0.986465 0.914046
0.0629129 0.958846 0.934234
0.279942 0.929946 0.954177
0.485924 0.907866 0.977356
0.680644 0.890669 1
0.86891 0.873564 1
1 0.855604 1
0 1 0.810086
0 1 0.833844
0 1 0.854719
0.0412757 1 0.874357
0.258228 1 0.893614
0.463645 1 0.915679
0.659297 1 0.940963
0.849454 1 0.965759
1 0.991241 0.986099
