lut2.cube
TITLE "Generated by Resolve"
LUT_3D_SIZE 65
0 0 0
0 0 0
0.000335698 0 0
0.00401312 0 0
0.00941482 0 0
0.0198367 0 0
0.0327764 0 0
0.0468147 0 0
0.0614939 0 0
0.076936 0 0
0.0930648 0 0
0.110155 0 0
0.128054 0 0
0.147097 0 0
0.167132 0 0
0.187839 0 0
0.209171 0 0
0.230793 0 0
0.252995 0 0
0.275532 0 0
0.298726 0 0
0.322637 0 0.000762951
0.346578 0 0.00192264
0.370962 0 0.00341802
0.395422 0 0.00485237
0.420142 0 0.00650034
0.44477 0 0.00802625
0.469505 0 0.0096437
0.494255 0 0.0113375
0.518791 0 0.0129244
0.543404 0 0.014725
0.567803 0 0.0164492
0.592096 0 0.0183261
0.616312 0 0.0202945
0.639994 0 0.0220951
0.663691 0 0.0241245
0.686992 0 0.0259403
0.710079 0 0.0280003
0.732891 0 0.0299992
0.755444 0 0.0320287
0.777966 0 0.0341955
0.800183 0 0.0362249
0.822477 0 0.038468
0.844572 0 0.0406348
0.86656 0 0.0428473
0.888533 0 0.0451362
0.910201 0 0.0472267
0.932021 0 0.0495766
0.953582 0 0.0517433
0.975341 0 0.0541848
0.997116 0 0.0566567
1 0 0.0589761
1 0 0.0615396
1 0 0.06392
1 0 0.0665141
1 0 0.0690623
1 0 0.0715343
1 0 0.0741894
1 0 0.0766918
1 0 0.0794537
1 0 0.0822766
1 0 0.0849622
1 0 0.0879377
1 0 0.0906691
1 0 0.0937362
0 0 0
0 0 0
0 0 0
0.00363165 0 0
0.00906386 0 0
0.0195926 0 0
0.0327001 0 0
0.0470436 0 0
0.0621042 0 0
0.0779126 0 0
0.0944228 0 0
0.111727 0 0
0.12987 0 0
0.148959 0 0
0.169177 0 0
0.190143 0 0
0.211826 0 0
0.23418 0 0
0.257008 0 0.000366217
0.280461 0 0.00154116
0.304372 0 0.00283818
0.328634 0 0.0040589
0.353033 0 0.00546273
0.37734 0 0.00668345
0.402014 0 0.0081178
0.426612 0 0.00943008
0.451392 0 0.0108797
0.47628 0 0.0124514
0.500954 0 0.0138705
0.525795 0 0.0155184
0.550332 0 0.0170748
0.574914 0 0.0187533
0.599252 0 0.0204929
0.623255 0 0.0220493
0.647135 0 0.0238346
0.670619 0 0.0254826
0.694179 0 0.0273594
0.717342 0 0.0292973
0.740124 0 0.0310674
0.76286 0 0.0330968
0.785214 0 0.0349432
0.807675 0 0.0370184
0.829862 0 0.0389868
0.851942 0 0.0409705
0.874052 0 0.0431067
0.895827 0 0.0450599
0.91783 0 0.047303
0.939666 0 0.049485
0.961456 0 0.0516976
0.983322 0 0.054078
1 0 0.0562448
1 0 0.0586404
1 0 0.0608072
1 0 0.0632639
1 0 0.0656901
1 0 0.06804
1 0 0.0706493
1 0 0.0730755
1 0 0.0757916
1 0 0.0785077
1 0 0.0810864
1 0 0.0838788
1 0 0.0864271
1 0 0.0892958
1 0 0.0919509
0 0 0
0 0 0
0 0 0
0.00370794 0 0
0.00950637 0 0
0.0204013 0 0
0.0339513 0 0
0.048661 0 0
0.0639506 0 0
0.0800031 0 0
0.0965744 0 0
0.114137 0 0
0.13254 0 0
0.15227 0 0.000686656
0.173281 0 0.00166323
0.194949 0 0.00271611
0.217594 0 0.00408942
0.240513 0 0.00540169
0.264027 0 0.00694286
0.2878 0 0.00848402
0.311681 0 0.00985733
0.336233 0 0.0113985
0.360555 0 0.0128023
0.385214 0 0.014435
0.410086 0 0.0161135
0.434836 0 0.0176547
0.459861 0 0.0194095
0.484703 0 0.0209964
0.509667 0 0.0227054
0.534417 0 0.0242466
0.559121 0 0.0259403
0.58378 0 0.0276951
0.607996 0 0.0292973
0.632303 0 0.0311589
0.656153 0 0.0329137
0.679957 0 0.0348363
0.703624 0 0.0368353
0.726665 0 0.0386358
0.749737 0 0.0406806
0.77229 0 0.0425269
0.794919 0 0.0446174
0.817319 0 0.0466316
0.839628 0 0.0487068
0.861982 0 0.0509499
0.884016 0 0.0530098
0.906218 0 0.0553445
0.928237 0 0.0576028
0.950164 0 0.0598764
0.972168 0 0.0622873
0.993835 0 0.0644541
1 0 0.0669108
1 0 0.0691691
1 0 0.0717174
1 0 0.074342
1 0 0.0767834
1 0 0.07953
1 0 0.0820478
1 0 0.0848402
1 0 0.0875715
1 0 0.0901656
1 0 0.0930037
1 0 0.0955825
1 0 0.0984817
1 0 0.101411
1 0 0.104234
0 0.00155642 0
0 0.00178531 0
0 0.00209049 0
0.00334173 0.00183108 0
0.0093843 0.00108339 0
0.0205539 0 0
0.0342412 0 0
0.0490425 0 0
0.0646372 0 0
0.0810254 0 0
0.0983139 0 0
0.116701 0 0.00103761
0.135927 0 0.00228885
0.156481 0 0.0037995
0.177951 0 0.00521859
0.200198 0 0.00682078
0.222904 0 0.00823987
0.246098 0 0.00981155
0.269688 0 0.011429
0.29337 0 0.0128786
0.317601 0 0.0145418
0.342123 0 0.0160678
0.366812 0 0.0178225
0.391653 0 0.0196078
0.416419 0 0.0211948
0.441459 0 0.0229801
0.466316 0 0.0245823
0.491402 0 0.0263981
0.516289 0 0.0280766
0.541253 0 0.0299077
0.56614 0 0.0318456
0.590738 0 0.0336004
0.615335 0 0.0356298
0.639612 0 0.0375067
0.663691 0 0.0395666
0.687617 0 0.0416571
0.711131 0 0.043534
0.734462 0 0.045716
0.757412 0 0.0476997
0.780346 0 0.0499428
0.803159 0 0.0522469
0.82562 0 0.0543832
0.848249 0 0.0568093
0.870497 0 0.0590066
0.892897 0 0.0614633
0.915053 0 0.0638132
0.937148 0 0.0661784
0.959304 0 0.0687114
0.98117 0 0.071046
1 0 0.0736858
1 0 0.0762798
1 0 0.0789197
1 0 0.0817426
1 0 0.0843214
1 0 0.0871595
1 0 0.0897841
1 0 0.0926528
1 0 0.095491
1 0 0.0982223
1 0 0.101198
1 0 0.103944
1 0 0.10695
1 0 0.109972
1 0 0.112871
1 0 0.116014
0 0.00547799 0
0 0.00593576 0
0 0.00648508 0
0.00242618 0.00627146 0
0.00868238 0.00573739 0
0.0201114 0.00390631 0
0.034226 0.00148013 0
0.0498054 0 0
0.0660868 0 0
0.0834363 0 0
0.101472 0 0.00155642
0.120272 0 0.0031281
0.140002 0 0.00483711
0.16054 0 0.00633249
0.182269 0 0.00799573
0.20441 0 0.00949111
0.22742 0 0.0111849
0.250782 0 0.0129244
0.274342 0 0.0145113
0.298405 0 0.0162966
0.322576 0 0.0179141
0.347417 0 0.0197147
0.372183 0 0.0215305
0.396826 0 0.0231327
0.421851 0 0.0249485
0.446738 0 0.0265965
0.471916 0 0.0284733
0.497124 0 0.030396
0.522087 0 0.032166
0.547234 0 0.0341497
0.571984 0 0.0359503
0.596887 0 0.0379797
0.621332 0 0.0398718
0.645792 0 0.0419165
0.669978 0 0.0440528
0.693782 0 0.0460212
0.717662 0 0.048249
0.740963 0 0.0503853
0.764263 0 0.0526894
0.787366 0 0.0550851
0.810056 0 0.0572976
0.832868 0 0.0597238
0.855268 0 0.0619364
0.877821 0 0.0644236
0.900175 0 0.0668345
0.922499 0 0.0693065
0.944915 0 0.0719768
0.96701 0 0.0744488
0.98938 0 0.0772259
1 0 0.0799115
1 0 0.0826276
1 0 0.085481
1 0 0.0880598
1 0 0.090959
1 0 0.0935988
1 0 0.0965438
1 0 0.0995346
1 0 0.102266
1 0 0.105333
1 0 0.108095
1 0 0.111177
1 0 0.114183
1 0 0.117067
1 0 0.120211
1 0 0.123125
0 0.0115816 0
0 0.0122988 0
0 0.0131075 0
0 0.0135195 0
0.00622568 0.0137179 0
0.0183261 0.0125887 0
0.0333104 0.0110781 0
0.0493629 0.00918593 0
0.0662699 0.00735485 0
0.0838636 0.00531014 0
0.101884 0.00297551 0
0.120912 0.000579843 0.00112917
0.140536 0 0.00274662
0.16141 0 0.00454719
0.183291 0 0.00633249
0.205631 0 0.00801099
0.228809 0 0.00985733
0.252094 0 0.0115206
0.275959 0 0.0133669
0.299855 0 0.0150149
0.324254 0 0.016846
0.349142 0 0.0186923
0.373754 0 0.0203555
0.398733 0 0.0222477
0.423667 0 0.0239719
0.44889 0 0.0259403
0.474189 0 0.027924
0.49926 0 0.0297093
0.524498 0 0.0317235
0.549447 0 0.0335241
0.574487 0 0.0355688
0.599268 0 0.0374914
0.623972 0 0.0395972
0.648615 0 0.041825
0.67274 0 0.0438849
0.696941 0 0.0462196
0.72076 0 0.0484016
0.744335 0 0.0507668
0.767758 0 0.0531777
0.790661 0 0.0553902
0.813672 0 0.0578622
0.836301 0 0.0601511
0.859144 0 0.0627604
0.88191 0 0.0654154
0.904356 0 0.0679179
0.927001 0 0.0706951
0.949325 0 0.0732433
0.971832 0 0.076112
0.99411 0 0.0787976
1 0 0.081529
1 0 0.0844129
1 0 0.0870527
1 0 0.0899977
1 0 0.0928664
1 0 0.0957504
1 0 0.0988022
1 0 0.10161
1 0 0.104677
1 0 0.107469
1 0 0.110536
1 0 0.113558
1 0 0.116503
1 0 0.119615
1 0 0.122576
1 0 0.125795
0 0.0198978 0
0 0.0213626 0
0 0.0230106 0
0 0.0242008 0
0.00425727 0.0247959 0
0.0169833 0.0241703 0
0.0319677 0.0227054 0
0.048249 0.021088 0
0.065156 0.0193179 0
0.0827039 0.017258 0
0.101015 0.0152285 0
0.120012 0.0128176 0
0.139986 0.0104372 0
0.160983 0.00775158 0.000869764
0.182818 0.004654 0.00262455
0.205417 0.00155642 0.00453193
0.228412 0 0.00621042
0.251942 0 0.00808728
0.275639 0 0.00978103
0.29984 0 0.0116884
0.324361 0 0.0136263
0.349157 0 0.0153658
0.374121 0 0.0173495
0.398962 0 0.0191348
0.424201 0 0.0211337
0.44947 0 0.0231327
0.474571 0 0.024918
0.499916 0 0.0269474
0.525002 0 0.028809
0.550317 0 0.0309453
0.575509 0 0.0331426
0.600397 0 0.0351568
0.625299 0 0.0374456
0.649836 0 0.0395514
0.674296 0 0.0419165
0.698344 0 0.0441138
0.722393 0 0.0464942
0.746075 0 0.0489509
0.769375 0 0.0512398
0.792721 0 0.0538491
0.815717 0 0.0563058
0.838804 0 0.0589914
0.86183 0 0.0617838
0.884474 0 0.064332
0.907301 0 0.067155
0.929732 0 0.0697337
0.952361 0 0.0725719
0.974762 0 0.0753033
0.997177 0 0.0781262
1 0 0.0810864
1 0 0.0838026
1 0 0.0868391
1 0 0.0897231
1 0 0.092668
1 0 0.0957351
1 0 0.0985275
1 0 0.10164
1 0 0.104448
1 0 0.107546
1 0 0.110719
1 0 0.113588
1 0 0.116747
1 0 0.119646
1 0 0.122881
1 0 0.126085
0 0.0310979 0
0 0.033051 0
0 0.035111 0
0 0.0362554 0
0.00234989 0.0370947 0
0.0150607 0.0363317 0
0.0303807 0.0351415 0
0.0467994 0.0336919 0
0.0636759 0.0319524 0
0.081529 0.0302129 0
0.099733 0.0281529 0
0.11902 0.0260319 0
0.13901 0.0236667 0
0.159869 0.0208896 0
0.181933 0.0179904 0
0.204364 0.0147555 0
0.227665 0.0115663 0.00192264
0.251286 0.00830091 0.00389105
0.275135 0.00480659 0.00572213
0.299458 0.00143435 0.00773632
0.323842 0 0.00953689
0.348913 0 0.0115358
0.373693 0 0.0133364
0.398795 0 0.0153658
0.424079 0 0.0173953
0.44921 0 0.0192569
0.474693 0 0.0213779
0.499947 0 0.023331
0.525444 0 0.0255589
0.550896 0 0.0278172
0.575952 0 0.0298619
0.60116 0 0.0321813
0.625864 0 0.0342718
0.650706 0 0.0366674
0.675044 0 0.0388952
0.699413 0 0.0413672
0.72369 0 0.0439612
0.747326 0 0.0463722
0.771099 0 0.0491035
0.7944 0 0.0516518
0.817716 0 0.0544137
0.84094 0 0.0572213
0.863737 0 0.0597848
0.886717 0 0.0626383
0.909331 0 0.0652476
0.932128 0 0.0681773
0.954894 0 0.0711223
0.977295 0 0.0738689
0.999954 0 0.0768902
1 0 0.0796674
1 0 0.0827192
1 0 0.0856184
1 0 0.0885634
1 0 0.0916609
1 0 0.0944686
1 0 0.097612
1 0 0.100572
1 0 0.103624
1 0 0.106798
1 0 0.109697
1 0 0.112902
1 0 0.115801
1 0 0.11899
1 0 0.122148
1 0 0.125246
0 0.0434577 0
0 0.0455787 0
0 0.0475471 0
0 0.049012 0
0.000320439 0.0499275 0
0.0133822 0.0493782 0
0.0289311 0.0483101 0
0.0452735 0.0467994 0
0.0624247 0.0453193 0
0.0800793 0.0434424 0
0.098497 0.0416114 0
0.117769 0.0395361 0
0.137682 0.0371252 0
0.158816 0.0346075 0
0.180743 0.031632 0
0.203525 0.0287175 0
0.226886 0.0256199 0
0.250431 0.0222782 0
0.27451 0.0189975 0.00138857
0.298634 0.0154421 0.00320439
0.323278 0.0120394 0.00526436
0.34818 0.00830091 0.00709544
0.373297 0.00485237 0.00918593
0.39855 0.00140383 0.0113375
0.423758 0 0.0133059
0.449302 0 0.0155184
0.474647 0 0.0175326
0.500252 0 0.0198062
0.525795 0 0.0220645
0.551049 0 0.0241245
0.57641 0 0.0264591
0.60148 0 0.0286259
0.626596 0 0.0310979
0.651637 0 0.0336614
0.676127 0 0.0360571
0.700755 0 0.0387579
0.724941 0 0.0412299
0.748974 0 0.044007
0.772564 0 0.0465553
0.796109 0 0.0493324
0.819516 0 0.0521706
0.842527 0 0.0547799
0.865736 0 0.0576944
0.888579 0 0.0604105
0.911559 0 0.063386
0.934493 0 0.0664073
0.957061 0 0.0691691
0.979812 0 0.0722057
1 0 0.0750134
1 0 0.0780652
1 0 0.0809796
1 0 0.0839551
1 0 0.0870985
1 0 0.0899672
1 0 0.0931106
1 0 0.0961318
1 0 0.0991989
1 0 0.102388
1 0 0.105287
1 0 0.108492
1 0 0.111406
1 0 0.114641
1 0 0.117876
1 0 0.120897
1 0 0.124224
0 0.0564889 0
0 0.0585794 0
0 0.060914 0
0 0.0624399 0
0 0.0634318 0
0.0115511 0.0630503 0
0.0270085 0.0617838 0
0.0436408 0.0604868 0
0.0606394 0.058854 0
0.0785534 0.0572671 0
0.0970932 0.0555734 0
0.116274 0.0534371 0
0.136446 0.0513161 0
0.157443 0.0487068 0
0.17966 0.0460059 0
0.202411 0.0431067 0
0.225666 0.0398871 0
0.249424 0.0367742 0
0.27335 0.0333715 0
0.29781 0.0301518 0
0.322576 0.0268406 0.000656138
0.347662 0.0233005 0.00265507
0.37293 0.0199893 0.00491341
0.398077 0.016434 0.0069276
0.423606 0.013077 0.00918593
0.44892 0.00946059 0.0112001
0.474571 0.00610361 0.0134737
0.500237 0.0027924 0.0157931
0.525658 0 0.0179294
0.551339 0 0.0203708
0.576654 0 0.0226596
0.602167 0 0.0252384
0.627497 0 0.0279088
0.652399 0 0.0303349
0.677272 0 0.033051
0.701656 0 0.035523
0.726162 0 0.0383001
0.750011 0 0.0408942
0.773907 0 0.0437171
0.797604 0 0.0466316
0.820859 0 0.0493172
0.844282 0 0.0522774
0.867338 0 0.0550546
0.890486 0 0.0580453
0.913573 0 0.0610971
0.936233 0 0.063859
0.959121 0 0.0669108
0.981613 0 0.0697185
1 0 0.0728161
1 0 0.0759442
1 0 0.0788128
1 0 0.0819715
1 0 0.0848554
1 0 0.0880293
1 0 0.0910201
1 0 0.0941176
1 0 0.0973068
1 0 0.100221
1 0 0.103471
1 0 0.106523
1 0 0.109667
1 0 0.112947
1 0 0.115953
1 0 0.119265
1 0 0.122316
0 0.0700236 0
0 0.0724041 0
0 0.0746929 0
0 0.0762341 0
0 0.0773632 0
0.00924697 0.0768444 0
0.0251011 0.0758526 0
0.0418097 0.0745403 0
0.0590372 0.0731212 0
0.0770886 0.0716564 0
0.0954604 0.0698253 0
0.1149 0.0679789 0
0.134874 0.0656901 0
0.1561 0.0633249 0
0.178302 0.0606546 0
0.201007 0.0577096 0
0.224567 0.0548104 0
0.248234 0.0516213 0
0.272557 0.0486 0
0.297108 0.0454566 0
0.321813 0.0421149 0
0.347173 0.038819 0
0.372229 0.0353094 0.000137331
0.39765 0.0320287 0.00242618
0.423011 0.0285191 0.00450141
0.448722 0.0252689 0.00689708
0.474556 0.0220951 0.00933852
0.50016 0.0187228 0.0115816
0.526055 0.015671 0.0141604
0.551629 0.0124056 0.0165103
0.57734 0.00950637 0.0191348
0.602945 0.00662242 0.0217899
0.628016 0.00357061 0.0242008
0.653254 0.000869764 0.0269169
0.677882 0 0.0294194
0.702663 0 0.0322576
0.727291 0 0.0351415
0.751217 0 0.0377966
0.77528 0 0.0407721
0.798779 0 0.0434882
0.8224 0 0.0464942
0.845609 0 0.0492714
0.86891 0 0.0522621
0.892134 0 0.0552987
0.914961 0 0.0581064
0.937987 0 0.0611887
0.960678 0 0.0640726
0.98352 0 0.067155
1 0 0.0703288
1 0 0.0732128
1 0 0.0763714
1 0 0.0792554
1 0 0.0824292
1 0 0.0854353
1 0 0.0885634
1 0 0.091783
1 0 0.0947433
1 0 0.0980087
1 0 0.101106
1 0 0.104265
1 0 0.10753
1 0 0.110536
1 0 0.113802
1 0 0.116869
1 0 0.120211
0 0.0841993 0
0 0.0865187 0
0 0.0888991 0
0 0.0906539 0
0 0.0916915 0
0.00691234 0.0914778 0
0.0228275 0.0904707 0
0.0396735 0.0892042 0
0.0571298 0.0879377 0
0.0749828 0.0862745 0
0.0936141 0.0847028 0
0.112886 0.0827039 0
0.133181 0.0807355 0
0.154543 0.0785382 0
0.176699 0.0758526 0
0.199725 0.0732433 0
0.223148 0.0702373 0
0.247135 0.0673686 0
0.271443 0.0643473 0
0.295888 0.0611124 0
0.320836 0.0580148 0
0.346044 0.0545815 0
0.371496 0.0514534 0
0.39707 0.0483253 0
0.422675 0.0450446 0
0.4486 0.0419928 0.00241093
0.474296 0.0386969 0.00474556
0.500298 0.0356756 0.00733959
0.525948 0.0324102 0.00968948
0.551843 0.0294499 0.012314
0.577585 0.0265507 0.0149844
0.602975 0.0234836 0.0174258
0.628443 0.0207828 0.0201877
0.653513 0.0179294 0.0227359
0.678553 0.0154726 0.0256199
0.703456 0.0131228 0.0285496
0.727871 0.0105745 0.03122
0.752148 0.00842298 0.0342107
0.775967 0.00607309 0.0369268
0.799771 0.00407416 0.0399176
0.823148 0.00190738 0.04271
0.846647 1.5259e-05 0.0457313
0.870054 0 0.0488289
0.89305 0 0.0516518
0.916243 0 0.0547799
0.939071 0 0.0576638
0.962036 0 0.0607767
0.984939 0 0.0639353
1 0 0.0668345
1 0 0.0700084
1 0 0.0729076
1 0 0.0761273
1 0 0.0793469
1 0 0.0822919
1 0 0.0855421
1 0 0.0885328
1 0 0.091783
1 0 0.0948806
1 0 0.0980545
1 0 0.101335
1 0 0.104356
1 0 0.107668
1 0 0.11078
1 0 0.114061
1 0 0.117449
0 0.0988785 0
0 0.101228 0
0 0.103822 0
0 0.105455 0
0 0.106783 0
0.00415045 0.106477 0
0.0201419 0.105486 0
0.037232 0.104356 0
0.0545968 0.102922 0
0.0728466 0.101595 0
0.0915236 0.100069 0
0.11107 0.0983291 0
0.131518 0.0965286 0
0.152728 0.0941939 0
0.175189 0.0918135 0
0.197986 0.0890364 0
0.221668 0.0863203 0
0.24567 0.0834669 0
0.269947 0.0804303 0
0.294743 0.0775769 0
0.319646 0.0744182 0
0.345296 0.0714275 0
0.370871 0.0684367 0
0.396414 0.0652781 0
0.422324 0.0622721 0
0.448005 0.0589914 0
0.474006 0.0560006 0
0.499779 0.0527504 0.00228885
0.525795 0.0498207 0.00495918
0.551781 0.046952 0.00767529
0.577356 0.0439155 0.0101778
0.603159 0.0411994 0.0129854
0.628428 0.0383307 0.0155642
0.653864 0.0357977 0.0184482
0.67895 0.0333867 0.0213626
0.703563 0.0307774 0.0240177
0.728313 0.0285191 0.0269932
0.752331 0.0261234 0.0297246
0.776486 0.024094 0.0327459
0.800381 0.0221714 0.0358129
0.823804 0.0200198 0.0386358
0.847395 0.0182193 0.0417334
0.870558 0.0161898 0.0445869
0.893889 0.0144656 0.0476997
0.916838 0.0125429 0.0505837
0.939925 0.0108797 0.0537423
0.962966 0.00927749 0.0569009
0.98558 0.0074464 0.0597848
1 0.00593576 0.0629892
1 0.00419623 0.0659648
1 0.00271611 0.0691539
1 0.00129702 0.0724193
1 0 0.0753796
1 0 0.078645
1 0 0.0816358
1 0 0.0848859
1 0 0.0879988
1 0 0.0911727
1 0 0.0944991
1 0 0.0975052
1 0 0.100847
1 0 0.10399
1 0 0.10721
1 0 0.110597
1 0 0.11371
0 0.114031 0
0 0.11664 0
0 0.119051 0
0 0.120928 0
0 0.122194 0
0.000839246 0.122011 0
0.0171511 0.121248 0
0.0342107 0.120027 0
0.0520333 0.118944 0
0.0703441 0.117617 0
0.0891432 0.116167 0
0.108888 0.114611 0
0.129107 0.112612 0
0.150622 0.110582 0
0.172915 0.108064 0
0.196078 0.105653 0
0.219974 0.103136 0
0.243946 0.100298 0
0.268605 0.097673 0
0.293294 0.0946975 0
0.318547 0.0919203 0
0.344198 0.0889296 0
0.369665 0.085832 0
0.395453 0.0829023 0
0.421118 0.0796979 0
0.447166 0.0767834 0
0.473228 0.0738231 0
0.499153 0.0707408 0
0.525292 0.0679332 0
0.551095 0.0648661 0.00216678
0.577005 0.06215 0.00497444
0.602548 0.0591897 0.00753796
0.628122 0.0565957 0.0103914
0.653574 0.0540932 0.0132753
0.678401 0.0514229 0.0159304
0.70338 0.049134 0.0189059
0.727886 0.0466621 0.0216526
0.75227 0.0446174 0.0247196
0.776501 0.042649 0.0278019
0.800137 0.0404669 0.0306249
0.823896 0.0386358 0.033753
0.847211 0.0365606 0.0365759
0.870695 0.0348211 0.0397192
0.893767 0.0328679 0.0426032
0.917006 0.0312047 0.0457618
0.940185 0.0296178 0.0489509
0.962966 0.0277867 0.0518807
0.985977 0.026276 0.0551156
1 0.0245365 0.0580911
1 0.0230716 0.0613107
1 0.0216373 0.0645609
1 0.0199435 0.0675364
1 0.0184634 0.0708019
1 0.0168154 0.0737774
1 0.0154726 0.0770886
