lut2.cube
TITLE "Generated by Resolve"
LUT_3D_SIZE 5
0 0 0
0.209171 0 0
0.592096 0 0.0183261
0.953582 0 0.0517433
1 0 0.0937362
0 0.162951 0
0.213611 0.157076 0
0.624369 0.113466 0
1 0.0828107 0.0397345
1 0.0612192 0.0915694
0 0.473442 0
0.174807 0.475502 0
0.591623 0.436606 0
0.973816 0.406134 0
1 0.380133 0
0 0.78819 0
0.154147 0.78352 0
0.567849 0.735576 0
0.943252 0.697536 0
1 0.665568 0
0 1 0
0.126406 1 0
0.540902 1 0
0.915785 0.968505 0
1 0.934768 0
0 0 0.21268
0.163714 0 0.214374
0.554009 0 0.238849
0.917769 0 0.274266
1 0 0.319097
0 0.178622 0.122469
0.179812 0.17351 0.172625
0.593454 0.130388 0.218494
0.975799 0.0993668 0.267308
1 0.0777295 0.318761
0 0.49514 0
0.139513 0.495995 0.0377203
0.559701 0.455329 0.0927901
0.939849 0.422202 0.138338
1 0.394858 0.183948
0 0.807965 0
0.112673 0.800687 0
0.530785 0.749966 0
0.906126 0.711589 0.0171817
1 0.679194 0.0569772
0 1 0
0.0823224 1 0
0.50193 1 0
0.877562 0.981949 0
1 0.948165 0
0 0 0.579293
0.0788434 0 0.592767
0.479408 0 0.615305
0.846494 0 0.649012
1 0 0.69482
0 0.188815 0.507897
0.0991836 0.185031 0.559045
0.525231 0.141451 0.60235
0.909102 0.110933 0.651072
1 0.0889906 0.705013
0 0.512016 0.358694
0.05066 0.51487 0.416999
0.490776 0.473457 0.471046
0.870283 0.437049 0.515557
1 0.405661 0.55877
0 0.82594 0.243046
0.0164797 0.818799 0.292958
0.45478 0.766506 0.348806
0.832486 0.725917 0.39469
1 0.689555 0.431342
0 1 0.130907
0 1 0.178912
0.417685 1 0.231373
0.799008 0.992172 0.280278
1 0.958389 0.32018
0 0 0.912276
0.00288396 0 0.935744
0.409644 0 0.961471
0.784146 0 0.996475
1 0 1
0 0.201068 0.857847
0.0289616 0.198138 0.910246
0.459419 0.153796 0.955825
0.849882 0.123583 1
1 0.101549 1
0 0.527108 0.714748
0 0.527687 0.771466
0.418402 0.48423 0.822873
0.809064 0.447883 0.865354
1 0.415717 0.906798
0 0.840238 0.597757
0 0.832731 0.646021
0.373053 0.782742 0.692058
0.770932 0.743481 0.739651
1 0.704494 0.775631
0 1 0.481437
0 1 0.526009
0.331334 1 0.56701
0.73373 1 0.62266
1 0.973892 0.665583
0 0 1
0 0 1
0.345861 0 1
0.726253 0 1
1 0 1
0 0.215 1
0 0.21294 1
0.399558 0.168841 1
0.793591 0.137392 1
1 0.114672 1
0 0.542779 1
0 0.542626 1
0.352499 0.495567 1
0.746166 0.457221 1
1 0.426139 1
0 0.853498 0.926482
0 0.845365 0.974792
0.303319 0.790906 1
0.701595 0.750652 1
1 0.714427 1
0 1 0.810086
0 1 0.854719
0.258228 1 0.893614
0.659297 1 0.940963
1 0.991241 0.986099
