lut_sm_orig.cube
TITLE "Samsung Log to Rec709 3DLUT v1.0"
LUT_3D_SIZE 5
0.000000000000 	0.000000000000 	0.000000000000
0.182712000000 	0.002502480000 	0.002502480000
0.553597000000 	0.006866560000 	0.006866560000
0.999924000000 	0.019592600000 	0.019592600000
0.999924000000 	0.019592600000 	0.019592600000
0.009094380000 	0.102251000000 	0.009094380000
0.093110600000 	0.079057000000 	0.009369040000
0.510582000000 	0.009765770000 	0.006988630000
0.999924000000 	0.019592600000 	0.019592600000
0.999924000000 	0.019592600000 	0.019592600000
0.033188400000 	0.441627000000 	0.033188400000
0.033005300000 	0.438224000000 	0.033005300000
0.430610000000 	0.412543000000 	0.043854400000
0.999924000000 	0.019592600000 	0.019592600000
0.999924000000 	0.019592600000 	0.019592600000
0.066025800000 	0.998169000000 	0.066025800000
0.065827400000 	0.997681000000 	0.065827400000
0.065125500000 	0.990662000000 	0.065125500000
0.894484000000 	0.871733000000 	0.056305800000
0.999924000000 	0.019592600000 	0.019592600000
0.067536400000 	1.000000000000 	0.241428000000
0.067536400000 	1.000000000000 	0.242878000000
0.067536400000 	1.000000000000 	0.244068000000
0.067246500000 	1.000000000000 	0.091508400000
0.996826000000 	1.000000000000 	0.058716700000
0.000000000000 	0.000000000000 	0.078248300000
0.171771000000 	0.003585870000 	0.092973200000
0.539864000000 	0.007812620000 	0.087968300000
0.999924000000 	0.019592600000 	0.019592600000
0.999924000000 	0.019592600000 	0.019592600000
0.009872590000 	0.102098000000 	0.076539300000
0.079682600000 	0.079713100000 	0.079713100000
0.509331000000 	0.009506370000 	0.066590400000
0.999924000000 	0.019592600000 	0.019592600000
0.999924000000 	0.019592600000 	0.019592600000
0.033585100000 	0.443915000000 	0.049393500000
0.033249400000 	0.438514000000 	0.045807600000
0.423667000000 	0.410193000000 	0.046051700000
0.999924000000 	0.019592600000 	0.019592600000
0.999924000000 	0.019592600000 	0.019592600000
0.065964800000 	0.997818000000 	0.065964800000
0.065796900000 	0.997757000000 	0.065796900000
0.065033900000 	0.989029000000 	0.065033900000
0.891600000000 	0.869413000000 	0.056260000000
0.999924000000 	0.019592600000 	0.019592600000
0.067521200000 	1.000000000000 	0.256184000000
0.067521200000 	1.000000000000 	0.257221000000
0.067521200000 	1.000000000000 	0.249058000000
0.067170200000 	1.000000000000 	0.067170200000
0.999802000000 	0.999969000000 	0.058777800000
0.000000000000 	0.000000000000 	0.371298000000
0.145647000000 	0.005111770000 	0.422339000000
0.514961000000 	0.009552150000 	0.392950000000
1.000000000000 	0.023239500000 	0.290410000000
0.999924000000 	0.019592600000 	0.019592600000
0.011566300000 	0.100587000000 	0.398123000000
0.038193300000 	0.075272800000 	0.415442000000
0.499672000000 	0.010040400000 	0.408377000000
1.000000000000 	0.023346300000 	0.306981000000
0.999924000000 	0.019592600000 	0.019592600000
0.037628700000 	0.446021000000 	0.416571000000
0.037216800000 	0.438071000000 	0.415778000000
0.408026000000 	0.408133000000 	0.408148000000
1.000000000000 	0.023086900000 	0.271275000000
0.999924000000 	0.019592600000 	0.019592600000
0.065934200000 	0.997208000000 	0.081101700000
0.065705400000 	0.996063000000 	0.079163800000
0.064896600000 	0.985046000000 	0.076661300000
0.885206000000 	0.865339000000 	0.056199000000
0.999924000000 	0.019592600000 	0.019592600000
0.067490700000 	1.000000000000 	0.269978000000
0.067490700000 	1.000000000000 	0.269673000000
0.067490700000 	1.000000000000 	0.199680000000
0.067170200000 	1.000000000000 	0.067170200000
0.993805000000 	0.999176000000 	0.058609900000
0.004043640000 	0.004043640000 	0.985031000000
0.004043640000 	0.004043640000 	0.985031000000
0.351629000000 	0.012573400000 	0.993179000000
1.000000000000 	0.030579100000 	1.000000000000
1.000000000000 	0.024994300000 	0.581521000000
0.008972300000 	0.045883900000 	0.989746000000
0.005600060000 	0.016083000000 	0.986511000000
0.318013000000 	0.012237700000 	0.992889000000
1.000000000000 	0.030579100000 	1.000000000000
1.000000000000 	0.025268900000 	0.621851000000
0.041657100000 	0.408972000000 	1.000000000000
0.041123100000 	0.397757000000 	1.000000000000
0.175006000000 	0.364736000000 	1.000000000000
1.000000000000 	0.030579100000 	1.000000000000
1.000000000000 	0.025040100000 	0.588129000000
0.063386000000 	0.983597000000 	0.944381000000
0.063187600000 	0.976837000000 	0.939300000000
0.062668800000 	0.960693000000 	0.926970000000
0.841489000000 	0.842649000000 	0.842725000000
1.000000000000 	0.023910900000 	0.398474000000
0.066956600000 	1.000000000000 	0.392676000000
0.067048100000 	1.000000000000 	0.376577000000
0.067490700000 	1.000000000000 	0.259617000000
0.067170200000 	1.000000000000 	0.067170200000
0.994598000000 	0.999146000000 	0.058609900000
0.004043640000 	0.004043640000 	0.985031000000
0.004043640000 	0.004043640000 	0.985031000000
0.004043640000 	0.004043640000 	0.985031000000
0.892470000000 	0.024551800000 	1.000000000000
1.000000000000 	0.030579100000 	1.000000000000
0.004043640000 	0.004043640000 	0.985031000000
0.004043640000 	0.004043640000 	0.985031000000
0.004043640000 	0.004043640000 	0.985031000000
0.963561000000 	0.028336000000 	1.000000000000
1.000000000000 	0.030579100000 	1.000000000000
0.023880400000 	0.176974000000 	1.000000000000
0.022308700000 	0.162631000000 	1.000000000000
0.017502100000 	0.120378000000 	0.997482000000
0.900816000000 	0.024963800000 	1.000000000000
1.000000000000 	0.030579100000 	1.000000000000
0.058625200000 	0.841199000000 	1.000000000000
0.058289500000 	0.832654000000 	1.000000000000
0.057602800000 	0.814725000000 	1.000000000000
0.392325000000 	0.711910000000 	1.000000000000
1.000000000000 	0.030579100000 	1.000000000000
0.064744000000 	1.000000000000 	1.000000000000
0.064744000000 	1.000000000000 	1.000000000000
0.064744000000 	1.000000000000 	1.000000000000
0.064744000000 	1.000000000000 	1.000000000000
0.988495000000 	0.990250000000 	0.989441000000
