lut_old.cube
TITLE "Samsung Log 2 Rec709 by Lohk"
LUT_3D_SIZE 9
0 0 0
0.0970626 0.00216678 0.00222782
0.165393 0.00714122 0.00726329
0.271702 0.0140688 0.0143282
0.50544 0.028397 0.0290837
0.815412 0.0590372 0.0607309
0.913878 0.0733043 0.0754253
0.913878 0.0733043 0.0754253
0.913878 0.0733043 0.0754253
0.00129702 0.0276036 0.00129702
0.015671 0.00790417 0.00115969
0.104967 0.00424201 0.00306706
0.218845 0.0107576 0.0109407
0.452537 0.0246738 0.0252537
0.809354 0.0581979 0.0598611
0.913878 0.0733043 0.0754253
0.913878 0.0733043 0.0754253
0.913878 0.0733043 0.0754253
0.0146639 0.0983291 0.0146639
0.0107424 0.077821 0.0107424
0.0872206 0.0754864 0.0256199
0.222507 0.0720684 0.0260777
0.466255 0.0288701 0.0270237
0.818128 0.0594186 0.0611276
0.913878 0.0733043 0.0754253
0.913878 0.0733043 0.0754253
0.913878 0.0733043 0.0754253
0.0328069 0.212909 0.0328069
0.0316625 0.204685 0.0316625
0.0379187 0.200473 0.0315099
0.210483 0.199237 0.0755932
0.487053 0.178241 0.0661936
0.829816 0.0611124 0.0628672
0.913878 0.0733043 0.0754253
0.913878 0.0733043 0.0754253
0.913878 0.0733043 0.0754253
0.0607614 0.427909 0.0607614
0.0607919 0.428229 0.0607919
0.0601663 0.424567 0.0601663
0.0595102 0.418509 0.0595102
0.418753 0.402945 0.147509
0.81355 0.342153 0.131701
0.913878 0.0733043 0.0754253
0.913878 0.0733043 0.0754253
0.913878 0.0733043 0.0754253
0.0959793 0.721111 0.0959793
0.0959029 0.718959 0.0959029
0.0946517 0.710521 0.0946517
0.0940414 0.705364 0.0940414
0.0964065 0.685069 0.0918288
0.666758 0.648234 0.219806
0.938064 0.51223 0.183215
0.913878 0.0733043 0.0754253
0.913878 0.0733043 0.0754253
0.130068 0.958709 0.130068
0.130159 0.959823 0.130159
0.129854 0.958343 0.129839
0.129793 0.958465 0.129778
0.128756 0.953109 0.128756
0.125109 0.928786 0.125109
0.864027 0.845975 0.360967
0.938125 0.516426 0.184207
0.913878 0.0733043 0.0754253
0.130968 0.960235 0.130968
0.130968 0.960235 0.130968
0.130968 0.960235 0.130968
0.130968 0.960235 0.130968
0.130968 0.960235 0.130968
0.130968 0.960235 0.130968
0.130968 0.960235 0.130968
0.940917 0.935561 0.55816
0.941375 0.609339 0.211765
0.132876 0.96141 0.289128
0.13286 0.96141 0.289601
0.13286 0.961395 0.290455
0.132845 0.961395 0.290761
0.132845 0.961395 0.291539
0.132342 0.961074 0.239384
0.131319 0.960449 0.15314
0.130968 0.960235 0.130968
0.946181 0.94342 0.567971
0 0 0.000991836
0.0859236 0.00202945 0.0118715
0.157427 0.00724804 0.0223697
0.269703 0.0150149 0.0322576
0.499062 0.0286412 0.0373846
0.80557 0.0577554 0.0594034
0.913878 0.0733043 0.0754253
0.913878 0.0733043 0.0754253
0.913878 0.0733043 0.0754253
0.00149538 0.0276188 0.0141146
0.00448615 0.00425727 0.00410468
0.093843 0.00239567 0.00291447
0.213321 0.0104067 0.0105745
0.455161 0.024918 0.0255741
0.815686 0.0590982 0.0607919
0.913878 0.0733043 0.0754253
0.913878 0.0733043 0.0754253
0.913878 0.0733043 0.0754253
0.014374 0.0974899 0.014374
0.0108034 0.078172 0.0114595
0.0779278 0.0742046 0.028336
0.218585 0.0710307 0.0263981
0.465705 0.0280003 0.0267796
0.820676 0.0597696 0.0614786
0.913878 0.0733043 0.0754253
0.913878 0.0733043 0.0754253
0.913878 0.0733043 0.0754253
0.0328374 0.213092 0.0328374
0.0316625 0.205066 0.031693
0.0339361 0.201236 0.0314183
0.206867 0.199588 0.0776226
0.487022 0.178546 0.0662852
0.831373 0.0620279 0.0632944
0.913878 0.0733043 0.0754253
0.913878 0.0733043 0.0754253
0.913878 0.0733043 0.0754253
0.0610361 0.430076 0.0610361
0.0610513 0.430274 0.0610513
0.0603799 0.425956 0.0603799
0.0595865 0.418952 0.0595865
0.415457 0.40238 0.148394
0.812665 0.341756 0.131548
0.913878 0.0733043 0.0754253
0.913878 0.0733043 0.0754253
0.913878 0.0733043 0.0754253
0.0960708 0.721736 0.0960708
0.0959029 0.718929 0.0959029
0.094667 0.710613 0.094667
0.0940414 0.70547 0.0940414
0.095552 0.685496 0.0918441
0.666194 0.648844 0.220401
0.938048 0.512078 0.183185
0.913878 0.0733043 0.0754253
0.913878 0.0733043 0.0754253
0.130068 0.958831 0.130068
0.1299 0.960204 0.129885
0.129931 0.958984 0.129931
0.129839 0.958831 0.129839
0.128786 0.953429 0.128786
0.125078 0.928481 0.125078
0.863081 0.845808 0.360143
0.938003 0.515724 0.183932
0.913878 0.0733043 0.0754253
0.130968 0.960235 0.130968
0.130968 0.960235 0.130968
0.130968 0.960235 0.130968
0.130968 0.960235 0.130968
0.130968 0.960235 0.130968
0.130968 0.960235 0.130968
0.130968 0.960235 0.130968
0.937209 0.932174 0.553674
0.940703 0.588159 0.205234
0.132845 0.961395 0.293873
0.13286 0.961395 0.29424
0.13286 0.961395 0.294209
0.132845 0.961395 0.293553
0.132845 0.961395 0.292256
0.13196 0.9608 0.211994
0.130983 0.960235 0.131243
0.130968 0.960235 0.130968
0.946273 0.94342 0.567971
0.00462348 0.00271611 0.0630045
0.0852216 0.00202945 0.0795148
0.155474 0.00958267 0.0869612
0.269398 0.0170748 0.0957351
0.492943 0.0308385 0.100099
0.794339 0.0601053 0.104112
0.913878 0.0733043 0.0754253
0.913878 0.0733043 0.0754253
0.913878 0.0733043 0.0754253
0.0131075 0.0277562 0.0738689
0.00749218 0.0068513 0.061265
0.0912947 0.00238041 0.065156
0.212253 0.0129091 0.0723888
0.460151 0.0280613 0.0827497
0.819272 0.0624247 0.0948043
0.913878 0.0733043 0.0754253
0.913878 0.0733043 0.0754253
0.913878 0.0733043 0.0754253
0.0158846 0.0986954 0.0758831
0.0124971 0.0803082 0.0744335
0.0784924 0.0784924 0.0785077
0.215686 0.0740063 0.0859388
0.464942 0.030518 0.080766
0.821683 0.0623178 0.0903792
0.913878 0.0733043 0.0754253
0.913878 0.0733043 0.0754253
0.913878 0.0733043 0.0754253
0.0340124 0.213993 0.089662
0.0330663 0.206424 0.0877546
0.0334173 0.202502 0.0866255
0.205249 0.200427 0.126314
0.486183 0.180621 0.10959
0.830335 0.0630045 0.0816663
0.913878 0.0733043 0.0754253
0.913878 0.0733043 0.0754253
0.913878 0.0733043 0.0754253
0.0612345 0.430137 0.0754406
0.0611887 0.43006 0.0734417
0.0605783 0.425025 0.0717632
0.0596017 0.417685 0.0689097
0.412329 0.400092 0.150027
0.809674 0.33994 0.130846
0.913878 0.0733043 0.0754253
0.913878 0.0733043 0.0754253
0.913878 0.0733043 0.0754253
0.0958724 0.719402 0.0958724
0.0956436 0.716854 0.0956436
0.0945907 0.70869 0.0945907
0.0937362 0.703044 0.0937362
0.0953689 0.684062 0.0915236
0.664118 0.647334 0.220172
0.938003 0.510597 0.182773
0.913878 0.0733043 0.0754253
0.913878 0.0733043 0.0754253
0.129992 0.95845 0.129992
0.130175 0.960052 0.130175
0.129824 0.958389 0.129824
0.129595 0.957534 0.129595
0.128557 0.951827 0.128557
0.124834 0.926787 0.124834
0.862058 0.844266 0.354177
0.938094 0.514809 0.18381
0.913878 0.0733043 0.0754253
0.130968 0.960235 0.130968
0.130968 0.960235 0.130968
0.130968 0.960235 0.130968
0.130968 0.960235 0.130968
0.130968 0.960235 0.130968
0.130968 0.960235 0.130968
0.130968 0.960235 0.130968
0.937499 0.929595 0.54905
0.939895 0.563546 0.197681
0.132937 0.961471 0.302434
0.132952 0.961486 0.302815
0.132952 0.961486 0.30341
0.132952 0.961486 0.303395
0.13286 0.96141 0.295964
0.131823 0.960708 0.199725
0.130968 0.960235 0.130968
0.130968 0.960235 0.130968
0.947784 0.943511 0.568124
0.0128176 0.00820935 0.141848
0.0817884 0.0100099 0.162814
0.154025 0.00869764 0.18204
0.267155 0.0183719 0.189227
0.486427 0.0335241 0.186694
0.787915 0.0630045 0.181918
0.914458 0.0793927 0.139055
0.913878 0.0733043 0.0754253
0.913878 0.0733043 0.0754253
0.023331 0.0330968 0.169039
0.0147707 0.0115816 0.151904
0.0875868 0.00828565 0.153903
0.213169 0.0130159 0.167224
0.464927 0.0316014 0.178424
0.824735 0.0681926 0.187762
0.914427 0.078706 0.133013
0.913878 0.0733043 0.0754253
0.913878 0.0733043 0.0754253
0.0500496 0.0970932 0.163577
0.0428473 0.0811017 0.167056
0.084184 0.0847334 0.16875
0.217411 0.0715343 0.184817
0.465705 0.0332952 0.179675
0.825177 0.0682078 0.185855
0.914412 0.0783856 0.130098
0.913878 0.0733043 0.0754253
0.913878 0.0733043 0.0754253
0.0366064 0.216312 0.196948
0.0357061 0.209262 0.19791
0.0350652 0.205447 0.197391
0.207996 0.207996 0.208057
0.484825 0.186511 0.212528
0.83183 0.0697948 0.183459
0.914366 0.0776226 0.123049
0.913878 0.0733043 0.0754253
0.913878 0.0733043 0.0754253
0.0647593 0.434348 0.194369
0.0647135 0.433951 0.19472
0.0640116 0.427924 0.192172
0.0628061 0.419776 0.188708
0.408942 0.399359 0.25481
0.808759 0.342901 0.210254
0.914366 0.0750896 0.0962539
0.913878 0.0733043 0.0754253
0.913878 0.0733043 0.0754253
0.0960861 0.718746 0.11162
0.0959182 0.716152 0.110079
0.0946212 0.707988 0.107057
0.0939956 0.702831 0.104829
0.094728 0.683986 0.098024
0.662608 0.646876 0.220645
0.937987 0.510079 0.182635
0.913878 0.0733043 0.0754253
0.913878 0.0733043 0.0754253
0.129992 0.958541 0.129992
0.129854 0.960204 0.129854
0.129793 0.958282 0.129793
0.129503 0.95729 0.129503
0.12842 0.95137 0.12842
0.124712 0.925994 0.124712
0.860975 0.843229 0.350164
0.938125 0.514153 0.183719
0.913878 0.0733043 0.0754253
0.130968 0.960235 0.130968
0.130968 0.960235 0.130968
0.130968 0.960235 0.130968
0.130968 0.960235 0.130968
0.130968 0.960235 0.130968
0.130968 0.960235 0.130968
0.130968 0.960235 0.130968
0.942336 0.929473 0.546639
0.939712 0.556664 0.195651
0.132952 0.961501 0.30576
0.132967 0.961501 0.306096
0.132967 0.961501 0.306569
0.132967 0.961501 0.306508
0.132799 0.961395 0.272801
0.131579 0.960571 0.178149
0.130968 0.960235 0.130968
0.130968 0.960235 0.130968
0.945327 0.942779 0.56733
0.0436866 0.0281376 0.317388
0.088365 0.0400092 0.345632
0.151965 0.0490425 0.364889
0.25803 0.0325933 0.379034
0.47396 0.0317082 0.366857
0.78175 0.0684672 0.347555
0.915694 0.0858778 0.297154
0.914244 0.0760967 0.109133
0.913878 0.0733043 0.0754253
0.060441 0.0534524 0.361517
0.0482643 0.0313878 0.335775
0.0910964 0.0389868 0.327916
0.207095 0.0364691 0.352285
0.463905 0.0282444 0.376593
0.824384 0.0757916 0.377905
0.915816 0.0864424 0.31136
0.91429 0.0756695 0.103914
0.913878 0.0733043 0.0754253
0.0800336 0.111269 0.350637
0.0769055 0.0988937 0.360662
0.0952468 0.097322 0.363165
0.209903 0.0968795 0.372229
0.461311 0.0276951 0.38056
0.823697 0.075639 0.377584
0.915816 0.0864271 0.311437
0.914321 0.0755322 0.101823
0.913878 0.0733043 0.0754253
0.133333 0.214237 0.390234
0.131212 0.208438 0.395224
0.129747 0.205142 0.395926
0.216739 0.21735 0.402258
0.483391 0.178866 0.418921
0.827649 0.0767987 0.381003
0.915801 0.0863355 0.308766
0.914397 0.0753033 0.0982986
0.913878 0.0733043 0.0754253
0.0684215 0.435767 0.40914
0.0683604 0.434714 0.412558
0.0673991 0.427893 0.407706
0.0663462 0.418891 0.403433
0.4065 0.4065 0.406561
0.801221 0.349187 0.396445
0.915541 0.0852522 0.280659
0.913985 0.0744488 0.0886244
0.913878 0.0733043 0.0754253
0.100526 0.719234 0.345312
0.100191 0.716655 0.343984
0.0990311 0.708736 0.339529
0.0987106 0.704631 0.337316
0.0976272 0.685405 0.327138
0.654521 0.641276 0.41532
0.937224 0.512337 0.31249
0.913878 0.0733196 0.0755169
0.913878 0.0733043 0.0754253
0.130083 0.958099 0.143694
0.13022 0.959701 0.140536
0.129686 0.957229 0.141711
0.12932 0.956008 0.141192
0.128099 0.948791 0.138781
0.124208 0.923461 0.126604
0.857511 0.841337 0.342763
0.938064 0.512139 0.1832
0.913878 0.0733043 0.0754253
0.130968 0.960235 0.130968
0.130968 0.960235 0.130968
0.130968 0.960235 0.130968
0.130968 0.960235 0.130968
0.130968 0.960235 0.130968
0.130968 0.960235 0.130968
0.130968 0.960235 0.130968
0.933684 0.924498 0.540673
0.93959 0.554559 0.195071
0.133059 0.961578 0.315145
0.133059 0.961578 0.315206
0.133059 0.961578 0.314855
0.133043 0.961578 0.313985
0.132525 0.961181 0.25124
0.131197 0.960372 0.14609
0.130968 0.960235 0.130968
0.130968 0.960235 0.130968
0.944701 0.942565 0.567056
0.140108 0.0966964 0.634791
0.1523 0.106722 0.671916
0.178851 0.116167 0.682445
0.254292 0.137667 0.669749
0.447608 0.0810864 0.658457
0.773968 0.0521248 0.649256
0.916106 0.108415 0.58793
0.915953 0.0879835 0.353353
0.915068 0.0830701 0.213504
0.152697 0.111467 0.668238
0.142 0.0982528 0.640528
0.140551 0.0970626 0.636164
0.217868 0.123598 0.658869
0.445045 0.0982528 0.689021
0.817777 0.052781 0.701564
0.916503 0.108995 0.618372
0.915984 0.0882277 0.358129
0.915343 0.0839857 0.23917
0.164889 0.155901 0.663935
0.165621 0.148074 0.677363
0.164157 0.143435 0.67715
0.220081 0.149111 0.681865
0.439704 0.102281 0.692744
0.817319 0.0519417 0.70367
0.916579 0.108507 0.620798
0.915984 0.0882277 0.358053
0.915328 0.0839399 0.238376
0.202457 0.242252 0.709941
0.203006 0.238254 0.717998
0.202335 0.235416 0.718944
0.228977 0.236103 0.72433
0.459617 0.219806 0.728908
0.818463 0.0502632 0.710399
0.916548 0.108721 0.619806
0.915953 0.0881056 0.355642
0.915297 0.0838331 0.234836
0.276234 0.426825 0.72314
0.276051 0.425284 0.727031
0.272145 0.418494 0.720913
0.267689 0.410101 0.715969
0.411475 0.415457 0.705669
0.797467 0.329641 0.712566
0.916121 0.108125 0.586023
0.915953 0.0875868 0.342336
0.915084 0.0831311 0.215885
0.103868 0.714244 0.681651
0.103365 0.711376 0.680888
0.102449 0.703655 0.67422
0.102007 0.700084 0.672587
0.0996567 0.681407 0.660197
0.648386 0.648432 0.64892
0.935302 0.518288 0.589151
0.915801 0.0863203 0.308461
0.914733 0.0817578 0.175296
0.133898 0.959213 0.498939
0.134829 0.961028 0.499672
0.133059 0.957549 0.495094
0.132555 0.956237 0.492897
0.130831 0.946792 0.484596
0.127245 0.921141 0.465583
0.844572 0.832792 0.596551
0.937148 0.513787 0.314275
0.913924 0.0735637 0.0780499
0.130968 0.960235 0.130968
0.130968 0.960235 0.130968
0.130968 0.960235 0.130968
0.130968 0.960235 0.130968
0.130968 0.960235 0.130968
0.130968 0.960235 0.130968
0.130968 0.960235 0.130968
0.928695 0.919768 0.532998
0.939391 0.551461 0.19408
0.133318 0.961837 0.343252
0.133318 0.961837 0.342229
0.133288 0.961822 0.339391
0.133211 0.961746 0.331716
0.132509 0.961151 0.248142
0.130983 0.960235 0.131258
0.130968 0.960235 0.130968
0.130968 0.960235 0.130968
0.94519 0.942702 0.567224
0.211124 0.154925 0.851926
0.211124 0.154925 0.851926
0.211124 0.154925 0.851926
0.211124 0.154925 0.851926
0.375418 0.194339 0.861952
0.72697 0.0780652 0.916182
0.927855 0.0583658 0.927855
0.921447 0.0849622 0.732647
0.916228 0.103319 0.55169
0.211124 0.154925 0.851926
0.211124 0.154925 0.851926
0.211124 0.154925 0.851926
0.211124 0.154925 0.851926
0.360418 0.196475 0.860014
0.762158 0.0560311 0.922255
0.927855 0.0583658 0.927855
0.921996 0.0822614 0.743206
0.916091 0.108873 0.59086
0.218967 0.176928 0.859281
0.215045 0.166018 0.855711
0.213519 0.161578 0.854307
0.211139 0.154986 0.851942
0.352087 0.197803 0.859159
0.761547 0.0564584 0.922164
0.927855 0.0583658 0.927855
0.922011 0.0822309 0.743328
0.916106 0.108324 0.587304
0.243961 0.247745 0.879362
0.242252 0.242283 0.878645
0.241199 0.239216 0.87805
0.239078 0.23238 0.877119
0.355764 0.238331 0.873579
0.758053 0.0584726 0.921248
0.927855 0.0583658 0.927855
0.921859 0.0829023 0.740627
0.916121 0.107637 0.582757
0.301595 0.416709 0.901732
0.300343 0.413657 0.901213
0.29807 0.40763 0.900557
0.295506 0.400793 0.899779
0.335485 0.388617 0.89807
0.7355 0.320851 0.928618
0.927855 0.0583658 0.927855
0.921096 0.0867018 0.725521
0.916228 0.104067 0.557504
0.423774 0.675715 0.925475
0.422202 0.67303 0.925155
0.41854 0.666468 0.924758
0.416907 0.663539 0.924529
0.407874 0.647013 0.923415
0.628885 0.6421 0.919509
0.953704 0.488518 0.952483
0.919493 0.0954452 0.688045
0.916472 0.0984512 0.50663
0.156786 0.949126 0.920165
0.156435 0.948913 0.920668
0.148821 0.945235 0.916838
0.145907 0.943191 0.915251
0.136568 0.93463 0.907591
0.128679 0.909773 0.886824
0.840406 0.840482 0.841093
0.935973 0.520668 0.657694
0.916213 0.0899214 0.390875
0.135424 0.962478 0.472984
0.135393 0.962478 0.472358
0.135332 0.962463 0.470115
0.135271 0.962463 0.468482
0.135134 0.962448 0.46334
0.134859 0.962402 0.45391
0.134356 0.96231 0.433051
0.930205 0.919921 0.658183
0.939055 0.547906 0.244846
0.134234 0.962295 0.426703
0.134142 0.962264 0.422171
0.133944 0.962203 0.411948
0.1337 0.962158 0.380499
0.132952 0.961501 0.305653
0.131533 0.960571 0.166751
0.130968 0.960235 0.130968
0.130968 0.960235 0.130968
0.945113 0.942611 0.567102
0.211124 0.154925 0.851926
0.211124 0.154925 0.851926
0.211124 0.154925 0.851926
0.211124 0.154925 0.851926
0.211124 0.154925 0.851926
0.395697 0.190921 0.864378
0.927855 0.0583658 0.927855
0.927855 0.0583658 0.927855
0.927855 0.0583658 0.927855
0.211124 0.154925 0.851926
0.211124 0.154925 0.851926
0.211124 0.154925 0.851926
0.211124 0.154925 0.851926
0.211124 0.154925 0.851926
0.390814 0.191669 0.863676
0.927855 0.0583658 0.927855
0.927855 0.0583658 0.927855
0.927855 0.0583658 0.927855
0.211124 0.154925 0.851926
0.211124 0.154925 0.851926
0.211124 0.154925 0.851926
0.211124 0.154925 0.851926
0.211124 0.154925 0.851926
0.38497 0.192599 0.862928
0.927855 0.0583658 0.927855
0.927855 0.0583658 0.927855
0.927855 0.0583658 0.927855
0.211124 0.154925 0.851926
0.211124 0.154925 0.851926
0.211124 0.154925 0.851926
0.211124 0.154925 0.851926
0.211124 0.154925 0.851926
0.369177 0.195163 0.861051
0.927855 0.0583658 0.927855
0.927855 0.0583658 0.927855
0.927855 0.0583658 0.927855
0.261082 0.301854 0.886763
0.259709 0.29752 0.886229
0.258412 0.293507 0.885679
0.256703 0.288106 0.884993
0.251041 0.270207 0.882506
0.336049 0.240742 0.876234
0.927855 0.0583658 0.927855
0.927855 0.0583658 0.927855
0.927855 0.0583658 0.927855
0.367788 0.569024 0.917098
0.366339 0.566171 0.916686
0.364279 0.561791 0.916411
0.363043 0.559258 0.916121
0.356237 0.545007 0.914748
0.340597 0.504646 0.911101
0.930053 0.399786 0.94818
0.927855 0.0583658 0.927855
0.927855 0.0583658 0.927855
0.308797 0.884123 0.951736
0.310185 0.882567 0.951461
0.315251 0.877195 0.950652
0.318318 0.874357 0.950423
0.328527 0.863035 0.948745
0.35082 0.835615 0.944854
0.744701 0.784482 0.932189
0.952453 0.46714 0.952453
0.927611 0.0575875 0.908492
0.214969 0.955139 0.954314
0.214969 0.955139 0.954314
0.214969 0.955139 0.954314
0.214969 0.955139 0.954314
0.214969 0.955139 0.954314
0.214969 0.955139 0.954314
0.213703 0.9552 0.953979
0.925872 0.925887 0.92636
0.937163 0.553994 0.699092
0.148089 0.961379 0.694514
0.146868 0.961501 0.681544
0.144625 0.961746 0.655085
0.142733 0.961898 0.630884
0.140291 0.962081 0.594202
0.137484 0.962371 0.53489
0.135592 0.962493 0.477928
0.134829 0.962402 0.452766
0.951308 0.950256 0.701534
0.211124 0.154925 0.851926
0.211124 0.154925 0.851926
0.211124 0.154925 0.851926
0.211124 0.154925 0.851926
0.211124 0.154925 0.851926
0.211124 0.154925 0.851926
0.830579 0.050309 0.925475
0.927855 0.0583658 0.927855
0.927855 0.0583658 0.927855
0.211124 0.154925 0.851926
0.211124 0.154925 0.851926
0.211124 0.154925 0.851926
0.211124 0.154925 0.851926
0.211124 0.154925 0.851926
0.211124 0.154925 0.851926
0.889204 0.0549935 0.926848
0.927855 0.0583658 0.927855
0.927855 0.0583658 0.927855
0.211124 0.154925 0.851926
0.211124 0.154925 0.851926
0.211124 0.154925 0.851926
0.211124 0.154925 0.851926
0.211124 0.154925 0.851926
0.211124 0.154925 0.851926
0.896315 0.0554818 0.927047
0.927855 0.0583658 0.927855
0.927855 0.0583658 0.927855
0.211124 0.154925 0.851926
0.211124 0.154925 0.851926
0.211124 0.154925 0.851926
0.211124 0.154925 0.851926
0.211124 0.154925 0.851926
0.211124 0.154925 0.851926
0.893721 0.0551461 0.926925
0.927855 0.0583658 0.927855
0.927855 0.0583658 0.927855
0.24387 0.247486 0.879332
0.242924 0.244816 0.878798
0.241047 0.238727 0.877989
0.239307 0.233463 0.876799
0.232746 0.214298 0.871809
0.213046 0.160342 0.853864
0.838346 0.0509346 0.925704
0.927855 0.0583658 0.927855
0.927855 0.0583658 0.927855
0.335073 0.498238 0.910414
0.334295 0.496605 0.910124
0.332067 0.491295 0.909773
0.331151 0.489326 0.909438
0.324544 0.473686 0.907927
0.307927 0.433021 0.903532
0.765713 0.326009 0.933867
0.927855 0.0583658 0.927855
0.927855 0.0583658 0.927855
0.366079 0.813703 0.941833
0.366735 0.81268 0.941695
0.37171 0.80499 0.940703
0.373968 0.801297 0.940215
0.382452 0.786419 0.938186
0.397894 0.755886 0.93431
0.55668 0.696925 0.927642
0.948714 0.401236 0.948714
0.927855 0.0583658 0.927855
0.214969 0.955139 0.954314
0.214969 0.955139 0.954314
0.214969 0.955139 0.954314
0.214969 0.955139 0.954314
0.214969 0.955139 0.954314
0.214801 0.955154 0.95433
0.222858 0.947799 0.956237
0.810468 0.848798 0.926162
0.954009 0.495125 0.954009
0.214969 0.955139 0.954314
0.214969 0.955139 0.954314
0.214969 0.955139 0.954314
0.214969 0.955139 0.954314
0.214969 0.955139 0.954314
0.214969 0.955139 0.954314
0.214969 0.955139 0.954314
0.214969 0.955139 0.954314
0.97293 0.973037 0.973449
