lut_smv1.cube
TITLE "Generated by Resolve"
LUT_3D_SIZE 9
0 0 0
0.0855116 0.00637827 0.00669871
0.168185 0.0161746 0.0168917
0.291783 0.0320897 0.0316472
0.528054 0.0703288 0.0716259
0.877012 0.138537 0.144121
0.974456 0.163684 0.174929
0.974456 0.163684 0.174929
0.974456 0.163684 0.174929
0.00337224 0.0300908 0.00329595
0.022385 0.0122683 0.00357061
0.119966 0.0112154 0.0100862
0.270665 0.0293126 0.0288243
0.588556 0.0803693 0.0826886
0.973968 0.163561 0.174807
0.974456 0.163684 0.174929
0.974456 0.163684 0.174929
0.974456 0.163684 0.174929
0.0222629 0.125948 0.0217441
0.0226291 0.125704 0.0216983
0.143038 0.122942 0.0349126
0.341772 0.111421 0.051133
0.646036 0.0969253 0.0935378
0.974426 0.163668 0.174929
0.974456 0.163684 0.174929
0.974456 0.163684 0.174929
0.974456 0.163684 0.174929
0.0262455 0.325765 0.0260014
0.0264134 0.328573 0.0261692
0.0357671 0.324346 0.0262608
0.350179 0.310536 0.0601358
0.731228 0.259998 0.172763
0.973861 0.189502 0.175784
0.974456 0.163684 0.174929
0.974456 0.163684 0.174929
0.974456 0.163684 0.174929
0.042649 0.628565 0.0433051
0.0419776 0.616175 0.0425727
0.0411231 0.599283 0.0416571
0.0719463 0.583139 0.0419928
0.600336 0.539315 0.110674
1 0.435645 0.286305
0.975036 0.211948 0.17908
0.974456 0.163684 0.174929
0.974456 0.163684 0.174929
0.10927 0.888243 0.109804
0.10724 0.875654 0.107744
0.105043 0.862547 0.105531
0.103197 0.851911 0.103655
0.164553 0.831449 0.102983
0.838254 0.76318 0.186404
1 0.592126 0.261997
0.972747 0.167422 0.171725
0.974456 0.163684 0.174929
0.12256 0.978531 0.123339
0.12256 0.978531 0.123339
0.12256 0.978531 0.123339
0.12256 0.978531 0.123339
0.12256 0.978531 0.123339
0.183948 0.979507 0.124422
0.983444 0.908248 0.22089
1 0.616907 0.269184
0.989029 0.329107 0.195712
0.12253 0.978546 0.124666
0.12256 0.978531 0.123339
0.12256 0.978531 0.123339
0.12256 0.978531 0.123339
0.12256 0.978531 0.123339
0.12256 0.978531 0.123339
0.124071 0.978561 0.123384
1 0.959258 0.227787
1 0.757427 0.26772
0.11664 0.980316 0.283101
0.11664 0.980316 0.282567
0.116716 0.980285 0.279866
0.116716 0.980285 0.280064
0.119081 0.979568 0.212573
0.121782 0.97879 0.144991
0.12256 0.978531 0.123339
0.392264 0.982757 0.125963
1 0.968246 0.240055
9.15541e-05 9.15541e-05 0.00154116
0.0762951 0.00555428 0.0140993
0.162188 0.0165103 0.0251469
0.291905 0.035935 0.047303
0.525093 0.072343 0.0820935
0.8748 0.138735 0.148928
0.974456 0.163684 0.174929
0.974456 0.163684 0.174929
0.974456 0.163684 0.174929
0.00375372 0.0304723 0.0180972
0.0120699 0.0108339 0.0108492
0.11162 0.0106966 0.0163577
0.27689 0.0333104 0.0468757
0.605417 0.087953 0.102922
0.970779 0.162036 0.168704
0.974456 0.163684 0.174929
0.974456 0.163684 0.174929
0.974456 0.163684 0.174929
0.02327 0.130205 0.0336614
0.0234073 0.128557 0.0411078
0.138476 0.125551 0.0518959
0.34258 0.115831 0.0661326
0.651576 0.0993668 0.101061
0.974456 0.163684 0.174929
0.974456 0.163684 0.174929
0.974456 0.163684 0.174929
0.974456 0.163684 0.174929
0.0263676 0.329122 0.0299229
0.0265049 0.330953 0.0282597
0.0324712 0.325658 0.0282902
0.346624 0.309957 0.0593576
0.727367 0.258503 0.171572
0.973846 0.189502 0.175769
0.974456 0.163684 0.174929
0.974456 0.163684 0.174929
0.974456 0.163684 0.174929
0.0425269 0.626108 0.0431678
0.0418097 0.61268 0.0423896
0.0409552 0.595911 0.0414588
0.0694133 0.579232 0.0417029
0.595621 0.536553 0.108217
1 0.433677 0.285817
0.974945 0.210254 0.17882
0.974456 0.163684 0.174929
0.974456 0.163684 0.174929
0.108721 0.884749 0.109255
0.106706 0.872465 0.10721
0.10454 0.859586 0.105013
0.102586 0.848539 0.103044
0.160388 0.827588 0.10219
0.833738 0.760052 0.185168
1 0.589578 0.261402
0.972671 0.165972 0.171481
0.974456 0.163684 0.174929
0.12256 0.978531 0.123339
0.12256 0.978531 0.123339
0.12256 0.978531 0.123339
0.12256 0.978531 0.123339
0.12256 0.978531 0.123339
0.179629 0.979477 0.124407
0.97792 0.904494 0.218799
1 0.613748 0.268132
0.98172 0.300282 0.188113
0.12253 0.978546 0.124269
0.12256 0.978531 0.123339
0.12256 0.978531 0.123339
0.12256 0.978531 0.123339
0.12256 0.978531 0.123339
0.12256 0.978531 0.123339
0.130404 0.978668 0.123537
1 0.956741 0.227481
1 0.744823 0.269352
0.116411 0.980392 0.291386
0.116396 0.980407 0.291844
0.116411 0.980392 0.291447
0.116701 0.980285 0.279622
0.119799 0.97937 0.195438
0.122545 0.978546 0.123873
0.12256 0.978531 0.123339
0.332006 0.981826 0.126314
1 0.968109 0.241672
0.00407416 0.00424201 0.0745708
0.0771191 0.00392157 0.092607
0.168124 0.0106813 0.100618
0.294011 0.0285649 0.116442
0.519905 0.0730907 0.143755
0.873487 0.153857 0.192905
0.974227 0.165026 0.179171
0.974456 0.163684 0.174929
0.974456 0.163684 0.174929
0.00808728 0.0320134 0.0938735
0.0104219 0.0122072 0.0796979
0.117571 0.00807202 0.0912032
0.291478 0.0279545 0.117327
0.626093 0.0931411 0.166735
0.970932 0.177447 0.216251
0.974411 0.163928 0.175708
0.974456 0.163684 0.174929
0.974456 0.163684 0.174929
0.0260929 0.134432 0.119219
0.0256352 0.130861 0.124895
0.131441 0.131487 0.13164
0.343267 0.126818 0.145388
0.661784 0.110582 0.174777
0.971633 0.176989 0.21474
0.974441 0.16376 0.175204
0.974456 0.163684 0.174929
0.974456 0.163684 0.174929
0.028336 0.332677 0.135668
0.0284123 0.333501 0.136675
0.0322881 0.326406 0.134813
0.337881 0.311833 0.154452
0.683055 0.270695 0.182727
0.972244 0.196155 0.201465
0.974456 0.163684 0.174929
0.974456 0.163684 0.174929
0.974456 0.163684 0.174929
0.0414893 0.62356 0.0750744
0.0408179 0.609628 0.071931
0.0400244 0.59266 0.0689403
0.0636149 0.575814 0.0643015
0.590738 0.534142 0.117189
1 0.430915 0.284031
0.975067 0.212436 0.179248
0.974456 0.163684 0.174929
0.974456 0.163684 0.174929
0.108156 0.881239 0.108675
0.106157 0.869169 0.106661
0.104067 0.856901 0.10454
0.102052 0.845579 0.10251
0.15285 0.823377 0.101152
0.829801 0.756527 0.184329
1 0.588235 0.261112
0.972686 0.166018 0.171481
0.974456 0.163684 0.174929
0.12256 0.978531 0.123339
0.12256 0.978531 0.123339
0.12256 0.978531 0.123339
0.12256 0.978531 0.123339
0.12256 0.978531 0.123339
0.180163 0.979492 0.124422
0.972915 0.899794 0.217212
1 0.611872 0.26746
0.978607 0.26482 0.185138
0.12256 0.978531 0.123339
0.12256 0.978531 0.123339
0.12256 0.978531 0.123339
0.12256 0.978531 0.123339
0.12256 0.978531 0.123339
0.12256 0.978531 0.123339
0.12755 0.978622 0.123461
1 0.958694 0.235721
1 0.724102 0.271962
0.116304 0.980438 0.295705
0.116304 0.980438 0.295979
0.11632 0.980438 0.29543
0.117449 0.980041 0.255238
0.120623 0.979141 0.174975
0.12256 0.978531 0.123339
0.12256 0.978531 0.123339
0.267857 0.980865 0.125704
1 0.967666 0.238941
0.00985733 0.0103609 0.164294
0.074052 0.014435 0.186816
0.164981 0.0127108 0.206699
0.299321 0.0188296 0.215488
0.526696 0.0545968 0.229297
0.894774 0.151324 0.277684
0.971344 0.178317 0.265873
0.974456 0.163684 0.174929
0.974456 0.163684 0.174929
0.0171511 0.039704 0.202548
0.0126192 0.018265 0.185321
0.117617 0.0224918 0.206149
0.306676 0.0195163 0.246326
0.651637 0.065095 0.291356
0.97322 0.167742 0.325872
0.971481 0.177661 0.270207
0.974441 0.163684 0.174945
0.974456 0.163684 0.174929
0.0378882 0.141924 0.248966
0.0384222 0.137331 0.257725
0.130007 0.140932 0.266514
0.355337 0.115633 0.300282
0.679026 0.0795911 0.30724
0.973831 0.167468 0.328099
0.971466 0.177783 0.269444
0.974441 0.163699 0.17499
0.974456 0.163684 0.174929
0.0306554 0.337758 0.315541
0.0306096 0.336492 0.318608
0.0314794 0.327932 0.314885
0.31902 0.319203 0.319585
0.672633 0.287846 0.32311
0.972152 0.203616 0.321035
0.971069 0.179477 0.257755
0.974456 0.163684 0.174929
0.974456 0.163684 0.174929
0.0437324 0.62417 0.287404
0.0430457 0.609491 0.280003
0.0422675 0.592325 0.270893
0.0580453 0.575982 0.264027
0.577798 0.537911 0.288441
0.963302 0.46006 0.337285
0.972763 0.228046 0.239322
0.974456 0.163684 0.174929
0.974456 0.163684 0.174929
0.105516 0.881086 0.190051
0.10367 0.868833 0.185245
0.101686 0.856458 0.181659
0.099794 0.844572 0.175021
0.142931 0.82179 0.162387
0.825162 0.754726 0.212741
1 0.585946 0.262089
0.972412 0.164172 0.170809
0.974456 0.163684 0.174929
0.12256 0.978531 0.123339
0.12256 0.978531 0.123339
0.12256 0.978531 0.123339
0.12256 0.978531 0.123339
0.12256 0.978531 0.123339
0.178592 0.979461 0.1243
0.969146 0.895628 0.21622
1 0.609064 0.266575
0.976532 0.2365 0.182528
0.12256 0.978531 0.123339
0.12256 0.978531 0.123339
0.12256 0.978531 0.123339
0.12256 0.978531 0.123339
0.12256 0.978531 0.123339
0.12256 0.978531 0.123339
0.128847 0.978637 0.123491
1 0.955352 0.23505
1 0.715648 0.273014
0.116075 0.980529 0.30721
0.116091 0.980529 0.306157
0.116136 0.980499 0.303609
0.118196 0.979828 0.23537
0.121706 0.978805 0.147082
0.12256 0.978531 0.123339
0.12256 0.978531 0.123339
0.252186 0.980621 0.125536
1 0.967575 0.238392
0.0283665 0.0303197 0.34078
0.0691844 0.0400702 0.375738
0.162966 0.0490272 0.386847
0.289601 0.0324102 0.40473
0.543145 0.016907 0.423026
0.927611 0.100511 0.474159
0.981735 0.132311 0.456733
0.972519 0.173205 0.297581
0.970611 0.181399 0.243488
0.0404212 0.0612802 0.395834
0.0349584 0.0424201 0.382162
0.119387 0.0604562 0.4159
0.303853 0.0499275 0.477852
0.671321 0.0120089 0.553658
0.990143 0.0871138 0.555856
0.9832 0.125536 0.474998
0.971954 0.175616 0.283268
0.971099 0.179309 0.259007
0.0683604 0.164263 0.488777
0.0707103 0.160464 0.500206
0.119966 0.161654 0.516762
0.344533 0.147601 0.566812
0.687846 0.0192569 0.576669
0.991363 0.083711 0.562173
0.983078 0.126131 0.473442
0.972396 0.173724 0.294575
0.970275 0.182818 0.231937
0.0820935 0.345953 0.598688
0.0827497 0.343389 0.60116
0.0813611 0.333394 0.593317
0.307561 0.330907 0.586328
0.676204 0.262287 0.591272
0.98909 0.137728 0.548012
0.981659 0.132738 0.455558
0.972152 0.174762 0.288472
0.971298 0.178439 0.218814
0.0452125 0.621302 0.589746
0.0445563 0.606043 0.577096
0.0437934 0.588754 0.562585
0.0509346 0.572366 0.553628
0.546181 0.546487 0.547326
0.93785 0.485756 0.535515
0.977737 0.210559 0.435264
0.971435 0.177874 0.268711
0.972488 0.173144 0.203723
0.110155 0.879515 0.487297
0.108629 0.86807 0.478676
0.106798 0.854948 0.470726
0.104952 0.842573 0.462104
0.130892 0.819059 0.447486
0.805478 0.758144 0.454475
1 0.591623 0.481651
0.970352 0.182437 0.229862
0.974334 0.164233 0.176715
0.118532 0.979721 0.226429
0.118624 0.979706 0.223926
0.118425 0.979767 0.229847
0.118456 0.979751 0.228687
0.1187 0.979675 0.221958
0.170489 0.979507 0.206577
0.963821 0.891737 0.248737
1 0.606485 0.266148
0.974929 0.210208 0.179034
0.12256 0.978531 0.123339
0.12256 0.978531 0.123339
0.12256 0.978531 0.123339
0.12256 0.978531 0.123339
0.12256 0.978531 0.123339
0.12256 0.978531 0.123339
0.128099 0.978622 0.123476
1 0.948745 0.232609
1 0.71046 0.273625
0.11577 0.980743 0.335576
0.115785 0.980713 0.331289
0.115923 0.980606 0.31545
0.118364 0.979782 0.23154
0.12256 0.978531 0.12343
0.12256 0.978531 0.123339
0.12256 0.978531 0.123339
0.230823 0.980301 0.125185
1 0.967605 0.238804
0.0805829 0.08748 0.623011
0.0906844 0.0977951 0.663188
0.15111 0.106493 0.660945
0.277821 0.119005 0.660777
0.539742 0.0546883 0.744518
0.958709 0.024155 0.818387
1 0.026276 0.789319
0.990524 0.0883955 0.554162
0.983825 0.122606 0.482414
0.0930037 0.108248 0.663417
0.092668 0.101183 0.669352
0.105043 0.112306 0.716808
0.296681 0.153765 0.782055
0.649836 0.0827039 0.904753
1 0.0281529 0.914809
1 0.026627 0.81648
0.989044 0.0964523 0.539422
0.986175 0.111208 0.509209
0.137087 0.209873 0.836698
0.140444 0.207691 0.849149
0.140566 0.202914 0.846265
0.323354 0.2159 0.906874
0.659831 0.090013 0.925032
1 0.0281376 0.91606
1 0.0265202 0.80795
0.990326 0.0894789 0.552224
0.981384 0.133944 0.45211
0.163043 0.373983 0.950454
0.162005 0.369604 0.945617
0.160754 0.359106 0.939651
0.271672 0.352056 0.93434
0.642832 0.292073 0.928557
0.99649 0.0672618 0.894301
1 0.026215 0.784756
0.989364 0.0947127 0.542687
0.979934 0.140566 0.43238
0.147021 0.61735 0.947097
0.143938 0.603021 0.932799
0.140826 0.586618 0.914534
0.139696 0.571267 0.904067
0.523201 0.555856 0.86247
0.946197 0.45977 0.857191
1 0.118166 0.758297
0.986831 0.107912 0.51635
0.978439 0.147234 0.41059
0.111635 0.872251 0.840223
0.110369 0.861189 0.829969
0.108766 0.848173 0.817807
0.107057 0.834684 0.807218
0.116686 0.811185 0.791119
0.763546 0.764065 0.765133
0.964218 0.626581 0.693782
0.982345 0.129534 0.464378
0.975311 0.161013 0.357839
0.123201 0.981353 0.606439
0.123186 0.981338 0.600504
0.123171 0.981323 0.598978
0.12314 0.981292 0.593759
0.123033 0.981247 0.582559
0.156161 0.978317 0.560662
0.940185 0.891783 0.543984
1 0.608423 0.485405
0.97026 0.212879 0.250202
0.118471 0.979736 0.227863
0.120928 0.979034 0.166567
0.12192 0.978744 0.141482
0.121599 0.978836 0.149874
0.121508 0.978866 0.15227
0.121569 0.978851 0.150271
0.125582 0.978805 0.141146
1 0.943938 0.238087
1 0.704601 0.274342
0.117784 0.980941 0.408545
0.117037 0.980957 0.39527
0.115801 0.980819 0.350545
0.117037 0.980163 0.267689
0.121004 0.979019 0.165087
0.12256 0.978531 0.123339
0.12256 0.978531 0.123339
0.218036 0.980102 0.124987
1 0.967529 0.238834
0.13193 0.140978 0.831952
0.13193 0.140978 0.831952
0.13193 0.140978 0.831952
0.20209 0.15314 0.84361
0.494331 0.167865 0.953201
0.939452 0.0261082 1
1 0.0298009 1
1 0.0285954 0.939467
1 0.0276646 0.884245
0.131975 0.141131 0.832029
0.13193 0.140978 0.831952
0.13193 0.140978 0.831952
0.150561 0.143984 0.834638
0.551171 0.15465 0.963897
0.990234 0.0288853 1
1 0.0298009 1
1 0.0286107 0.941558
1 0.028336 0.924926
0.150149 0.19736 0.88368
0.146944 0.188739 0.868711
0.144503 0.182193 0.859464
0.145113 0.162463 0.844404
0.553658 0.153979 0.964202
0.983886 0.0285191 1
1 0.0298009 1
1 0.0285344 0.934798
1 0.0267033 0.821988
0.168048 0.347646 0.96968
0.168002 0.34287 0.969497
0.167941 0.333822 0.969177
0.167666 0.3178 0.968612
0.528572 0.291051 0.96376
0.955139 0.0428779 1
1 0.0298009 1
1 0.028336 0.923445
1 0.0263066 0.792844
0.158648 0.587152 0.982818
0.159533 0.574594 0.981933
0.160357 0.562112 0.981079
0.161257 0.548318 0.980163
0.392767 0.53051 0.971725
0.890257 0.430198 0.971222
1 0.0988022 1
1 0.0279088 0.900038
1 0.0260471 0.768521
0.155871 0.847501 0.972686
0.157366 0.836606 0.971756
0.158831 0.825055 0.970779
0.160327 0.812192 0.969772
0.162661 0.788891 0.968048
0.712001 0.752132 0.958419
0.977081 0.602029 0.976364
1 0.0270695 0.845808
1 0.0253452 0.696071
0.130846 0.982986 0.981689
0.129946 0.982971 0.979492
0.126864 0.982925 0.969238
0.126787 0.982925 0.967605
0.126574 0.982818 0.964538
0.136995 0.970382 0.944091
0.888853 0.892409 0.893217
0.970153 0.637644 0.741466
0.986984 0.117479 0.520104
0.123278 0.98143 0.621378
0.123156 0.981292 0.593683
0.12314 0.981277 0.590036
0.123125 0.981262 0.58526
0.123079 0.981216 0.576455
0.123018 0.981155 0.562432
0.125994 0.981079 0.535912
0.991318 0.942565 0.51986
1 0.70489 0.442649
0.123125 0.981277 0.5879
0.123003 0.981125 0.556634
0.122759 0.980804 0.490944
0.118654 0.980911 0.420233
0.115785 0.980697 0.329534
0.120912 0.979049 0.167346
0.121324 0.978927 0.156756
0.224598 0.980514 0.150713
1 0.967483 0.244617
0.13193 0.140978 0.831952
0.13193 0.140978 0.831952
0.13193 0.140978 0.831952
0.13193 0.140978 0.831952
0.177523 0.148623 0.83917
0.749172 0.074876 0.988937
1 0.0298009 1
1 0.0298009 1
1 0.0298009 1
0.13193 0.140978 0.831952
0.13193 0.140978 0.831952
0.13193 0.140978 0.831952
0.13193 0.140978 0.831952
0.13698 0.141756 0.832624
0.74226 0.0788586 0.987884
1 0.0298009 1
1 0.0298009 1
1 0.0298009 1
0.131945 0.140978 0.831952
0.13193 0.140978 0.831952
0.13193 0.140978 0.831952
0.13193 0.140978 0.831952
0.143908 0.142824 0.83357
0.755276 0.0714275 0.989593
1 0.0298009 1
1 0.0298009 1
1 0.0298009 1
0.164675 0.25359 0.965759
0.163989 0.247288 0.963363
0.163531 0.243793 0.961273
0.160235 0.227359 0.942809
0.145754 0.175631 0.853056
0.718959 0.0915999 0.984741
1 0.0298009 1
1 0.0298009 1
1 0.0298009 1
0.164904 0.478584 0.975845
0.165331 0.469001 0.975311
0.165469 0.465248 0.975097
0.165927 0.454032 0.974502
0.166949 0.42475 0.972992
0.656703 0.355642 0.974594
1 0.0454414 1
1 0.0298009 1
1 0.0298009 1
0.165469 0.753185 0.965835
0.166064 0.743923 0.965347
0.166476 0.737118 0.965011
0.167071 0.726696 0.964538
0.167971 0.705058 0.963516
0.422827 0.667964 0.954864
0.973831 0.535927 0.972976
1 0.0334173 1
1 0.0298009 1
0.13193 0.980758 0.983963
0.13196 0.980011 0.983902
0.133349 0.972946 0.983352
0.134432 0.967163 0.982879
0.137041 0.953887 0.981811
0.143404 0.921157 0.979141
0.790463 0.849424 0.971695
0.977096 0.602136 0.976364
1 0.0293584 0.980377
0.131762 0.982986 0.983993
0.131823 0.982986 0.984161
0.131502 0.982986 0.983352
0.131701 0.982986 0.983841
0.13167 0.982986 0.983749
0.130831 0.982986 0.981674
0.129152 0.982971 0.977325
0.940215 0.940398 0.941314
0.977279 0.728725 0.804822
0.126101 0.982727 0.921477
0.125566 0.982574 0.88455
0.124727 0.9823 0.820722
0.124285 0.982116 0.776654
0.123934 0.981933 0.733684
0.123674 0.98175 0.692805
0.123552 0.981674 0.675074
0.210712 0.982818 0.649989
1 0.980529 0.658244
0.13193 0.140978 0.831952
0.13193 0.140978 0.831952
0.13193 0.140978 0.831952
0.13193 0.140978 0.831952
0.13193 0.140978 0.831952
0.488716 0.168994 0.951858
1 0.0298009 1
1 0.0298009 1
1 0.0298009 1
0.13193 0.140978 0.831952
0.13193 0.140978 0.831952
0.13193 0.140978 0.831952
0.13193 0.140978 0.831952
0.13193 0.140978 0.831952
0.618616 0.133806 0.971862
1 0.0298009 1
1 0.0298009 1
1 0.0298009 1
0.13193 0.140978 0.831952
0.13193 0.140978 0.831952
0.13193 0.140978 0.831952
0.13193 0.140978 0.831952
0.13193 0.140978 0.831952
0.567727 0.149996 0.96585
1 0.0298009 1
1 0.0298009 1
1 0.0298009 1
0.145861 0.185962 0.864408
0.142535 0.176349 0.853315
0.138872 0.164446 0.845075
0.135348 0.152682 0.838071
0.132036 0.14136 0.832135
0.496559 0.167452 0.953765
1 0.0298009 1
1 0.0298009 1
1 0.0298009 1
0.166705 0.431815 0.973342
0.167178 0.416342 0.97258
0.167544 0.402152 0.971923
0.167758 0.390524 0.971405
0.168032 0.36495 0.970336
0.432654 0.321752 0.957336
1 0.0311894 1
1 0.0298009 1
1 0.0298009 1
0.167391 0.720134 0.964248
0.167971 0.705318 0.963546
0.16791 0.686732 0.961975
0.167758 0.672831 0.96112
0.165103 0.652811 0.965057
0.18967 0.610269 0.980407
0.943969 0.48191 0.971191
1 0.0298009 1
1 0.0298009 1
0.133333 0.972732 0.983322
0.135256 0.962921 0.982544
0.139055 0.943694 0.980987
0.142412 0.926314 0.979553
0.146319 0.905516 0.977798
0.153262 0.864988 0.974227
0.614832 0.788342 0.968612
0.974227 0.545861 0.973404
1 0.0301518 1
0.131823 0.982986 0.984161
0.131823 0.982986 0.984161
0.131823 0.982986 0.984161
0.131823 0.982986 0.984161
0.131823 0.982986 0.984161
0.131823 0.982986 0.984161
0.131716 0.98175 0.984054
0.858701 0.90016 0.978714
0.982223 0.700298 0.981689
0.131823 0.982986 0.984161
0.131823 0.982986 0.984161
0.131823 0.982986 0.984161
0.131823 0.982986 0.984161
0.131823 0.982986 0.984161
0.131823 0.982986 0.984161
0.131823 0.982986 0.984161
0.185107 0.983764 0.984817
0.989197 0.989639 0.990387
