lut_old.cube
TITLE "Samsung Log 2 Rec709 by Lohk"
LUT_3D_SIZE 5
0 0 0
0.165393 0.00714122 0.00726329
0.50544 0.028397 0.0290837
0.913878 0.0733043 0.0754253
0.913878 0.0733043 0.0754253
0.0146639 0.0983291 0.0146639
0.0872206 0.0754864 0.0256199
0.466255 0.0288701 0.0270237
0.913878 0.0733043 0.0754253
0.913878 0.0733043 0.0754253
0.0607614 0.427909 0.0607614
0.0601663 0.424567 0.0601663
0.418753 0.402945 0.147509
0.913878 0.0733043 0.0754253
0.913878 0.0733043 0.0754253
0.130068 0.958709 0.130068
0.129854 0.958343 0.129839
0.128756 0.953109 0.128756
0.864027 0.845975 0.360967
0.913878 0.0733043 0.0754253
0.132876 0.96141 0.289128
0.13286 0.961395 0.290455
0.132845 0.961395 0.291539
0.131319 0.960449 0.15314
0.946181 0.94342 0.567971
0.00462348 0.00271611 0.0630045
0.155474 0.00958267 0.0869612
0.492943 0.0308385 0.100099
0.913878 0.0733043 0.0754253
0.913878 0.0733043 0.0754253
0.0158846 0.0986954 0.0758831
0.0784924 0.0784924 0.0785077
0.464942 0.030518 0.080766
0.913878 0.0733043 0.0754253
0.913878 0.0733043 0.0754253
0.0612345 0.430137 0.0754406
0.0605783 0.425025 0.0717632
0.412329 0.400092 0.150027
0.913878 0.0733043 0.0754253
0.913878 0.0733043 0.0754253
0.129992 0.95845 0.129992
0.129824 0.958389 0.129824
0.128557 0.951827 0.128557
0.862058 0.844266 0.354177
0.913878 0.0733043 0.0754253
0.132937 0.961471 0.302434
0.132952 0.961486 0.30341
0.13286 0.96141 0.295964
0.130968 0.960235 0.130968
0.947784 0.943511 0.568124
0.0436866 0.0281376 0.317388
0.151965 0.0490425 0.364889
0.47396 0.0317082 0.366857
0.915694 0.0858778 0.297154
0.913878 0.0733043 0.0754253
0.0800336 0.111269 0.350637
0.0952468 0.097322 0.363165
0.461311 0.0276951 0.38056
0.915816 0.0864271 0.311437
0.913878 0.0733043 0.0754253
0.0684215 0.435767 0.40914
0.0673991 0.427893 0.407706
0.4065 0.4065 0.406561
0.915541 0.0852522 0.280659
0.913878 0.0733043 0.0754253
0.130083 0.958099 0.143694
0.129686 0.957229 0.141711
0.128099 0.948791 0.138781
0.857511 0.841337 0.342763
0.913878 0.0733043 0.0754253
0.133059 0.961578 0.315145
0.133059 0.961578 0.314855
0.132525 0.961181 0.25124
0.130968 0.960235 0.130968
0.944701 0.942565 0.567056
0.211124 0.154925 0.851926
0.211124 0.154925 0.851926
0.375418 0.194339 0.861952
0.927855 0.0583658 0.927855
0.916228 0.103319 0.55169
0.218967 0.176928 0.859281
0.213519 0.161578 0.854307
0.352087 0.197803 0.859159
0.927855 0.0583658 0.927855
0.916106 0.108324 0.587304
0.301595 0.416709 0.901732
0.29807 0.40763 0.900557
0.335485 0.388617 0.89807
0.927855 0.0583658 0.927855
0.916228 0.104067 0.557504
0.156786 0.949126 0.920165
0.148821 0.945235 0.916838
0.136568 0.93463 0.907591
0.840406 0.840482 0.841093
0.916213 0.0899214 0.390875
0.134234 0.962295 0.426703
0.133944 0.962203 0.411948
0.132952 0.961501 0.305653
0.130968 0.960235 0.130968
0.945113 0.942611 0.567102
0.211124 0.154925 0.851926
0.211124 0.154925 0.851926
0.211124 0.154925 0.851926
0.830579 0.050309 0.925475
0.927855 0.0583658 0.927855
0.211124 0.154925 0.851926
0.211124 0.154925 0.851926
0.211124 0.154925 0.851926
0.896315 0.0554818 0.927047
0.927855 0.0583658 0.927855
0.24387 0.247486 0.879332
0.241047 0.238727 0.877989
0.232746 0.214298 0.871809
0.838346 0.0509346 0.925704
0.927855 0.0583658 0.927855
0.366079 0.813703 0.941833
0.37171 0.80499 0.940703
0.382452 0.786419 0.938186
0.55668 0.696925 0.927642
0.927855 0.0583658 0.927855
0.214969 0.955139 0.954314
0.214969 0.955139 0.954314
0.214969 0.955139 0.954314
0.214969 0.955139 0.954314
0.97293 0.973037 0.973449
