lut_smv1.cube
TITLE "Generated by Resolve"
LUT_3D_SIZE 5
0 0 0
0.168185 0.0161746 0.0168917
0.528054 0.0703288 0.0716259
0.974456 0.163684 0.174929
0.974456 0.163684 0.174929
0.0222629 0.125948 0.0217441
0.143038 0.122942 0.0349126
0.646036 0.0969253 0.0935378
0.974456 0.163684 0.174929
0.974456 0.163684 0.174929
0.042649 0.628565 0.0433051
0.0411231 0.599283 0.0416571
0.600336 0.539315 0.110674
0.975036 0.211948 0.17908
0.974456 0.163684 0.174929
0.12256 0.978531 0.123339
0.12256 0.978531 0.123339
0.12256 0.978531 0.123339
0.983444 0.908248 0.22089
0.989029 0.329107 0.195712
0.11664 0.980316 0.283101
0.116716 0.980285 0.279866
0.119081 0.979568 0.212573
0.12256 0.978531 0.123339
1 0.968246 0.240055
0.00407416 0.00424201 0.0745708
0.168124 0.0106813 0.100618
0.519905 0.0730907 0.143755
0.974227 0.165026 0.179171
0.974456 0.163684 0.174929
0.0260929 0.134432 0.119219
0.131441 0.131487 0.13164
0.661784 0.110582 0.174777
0.974441 0.16376 0.175204
0.974456 0.163684 0.174929
0.0414893 0.62356 0.0750744
0.0400244 0.59266 0.0689403
0.590738 0.534142 0.117189
0.975067 0.212436 0.179248
0.974456 0.163684 0.174929
0.12256 0.978531 0.123339
0.12256 0.978531 0.123339
0.12256 0.978531 0.123339
0.972915 0.899794 0.217212
0.978607 0.26482 0.185138
0.116304 0.980438 0.295705
0.11632 0.980438 0.29543
0.120623 0.979141 0.174975
0.12256 0.978531 0.123339
1 0.967666 0.238941
0.0283665 0.0303197 0.34078
0.162966 0.0490272 0.386847
0.543145 0.016907 0.423026
0.981735 0.132311 0.456733
0.970611 0.181399 0.243488
0.0683604 0.164263 0.488777
0.119966 0.161654 0.516762
0.687846 0.0192569 0.576669
0.983078 0.126131 0.473442
0.970275 0.182818 0.231937
0.0452125 0.621302 0.589746
0.0437934 0.588754 0.562585
0.546181 0.546487 0.547326
0.977737 0.210559 0.435264
0.972488 0.173144 0.203723
0.118532 0.979721 0.226429
0.118425 0.979767 0.229847
0.1187 0.979675 0.221958
0.963821 0.891737 0.248737
0.974929 0.210208 0.179034
0.11577 0.980743 0.335576
0.115923 0.980606 0.31545
0.12256 0.978531 0.12343
0.12256 0.978531 0.123339
1 0.967605 0.238804
0.13193 0.140978 0.831952
0.13193 0.140978 0.831952
0.494331 0.167865 0.953201
1 0.0298009 1
1 0.0276646 0.884245
0.150149 0.19736 0.88368
0.144503 0.182193 0.859464
0.553658 0.153979 0.964202
1 0.0298009 1
1 0.0267033 0.821988
0.158648 0.587152 0.982818
0.160357 0.562112 0.981079
0.392767 0.53051 0.971725
1 0.0988022 1
1 0.0260471 0.768521
0.130846 0.982986 0.981689
0.126864 0.982925 0.969238
0.126574 0.982818 0.964538
0.888853 0.892409 0.893217
0.986984 0.117479 0.520104
0.123125 0.981277 0.5879
0.122759 0.980804 0.490944
0.115785 0.980697 0.329534
0.121324 0.978927 0.156756
1 0.967483 0.244617
0.13193 0.140978 0.831952
0.13193 0.140978 0.831952
0.13193 0.140978 0.831952
1 0.0298009 1
1 0.0298009 1
0.13193 0.140978 0.831952
0.13193 0.140978 0.831952
0.13193 0.140978 0.831952
1 0.0298009 1
1 0.0298009 1
0.166705 0.431815 0.973342
0.167544 0.402152 0.971923
0.168032 0.36495 0.970336
1 0.0311894 1
1 0.0298009 1
0.133333 0.972732 0.983322
0.139055 0.943694 0.980987
0.146319 0.905516 0.977798
0.614832 0.788342 0.968612
1 0.0301518 1
0.131823 0.982986 0.984161
0.131823 0.982986 0.984161
0.131823 0.982986 0.984161
0.131823 0.982986 0.984161
0.989197 0.989639 0.990387
