lut_smv1.cube
TITLE "Generated by Resolve"
LUT_3D_SIZE 65
0 0 0
0 0 0
0 0 0
0 0 0
0.00192264 0.000137331 0.000137331
0.00833143 0.000610361 0.000579843
0.0276188 0.00204471 0.00192264
0.056733 0.00416571 0.00393683
0.0855116 0.00637827 0.00669871
0.109453 0.00860609 0.00900282
0.127947 0.0107881 0.0102998
0.138048 0.012253 0.0127871
0.142779 0.0127108 0.012192
0.146731 0.0132143 0.0126955
0.1523 0.0141146 0.0147402
0.159106 0.0148165 0.0142672
0.168185 0.0161746 0.0168917
0.179004 0.0175631 0.0183413
0.190616 0.0188296 0.0182498
0.203998 0.0205386 0.0199588
0.218708 0.0224308 0.0218662
0.23447 0.0244602 0.0239109
0.251911 0.0267338 0.0261997
0.271 0.0292668 0.0287785
0.291783 0.0320897 0.0316472
0.315938 0.0358434 0.0378729
0.340505 0.0390631 0.0388037
0.368826 0.0438087 0.0464942
0.39675 0.0478523 0.0479286
0.42623 0.0528115 0.0531014
0.457496 0.0582284 0.058793
0.4925 0.0648966 0.0695354
0.528054 0.0703288 0.0716259
0.568933 0.0771344 0.0789502
0.613535 0.0847028 0.0870832
0.663127 0.0937972 0.101335
0.710979 0.102312 0.110536
0.753567 0.10985 0.11397
0.799466 0.120592 0.129946
0.837888 0.12874 0.133883
0.877012 0.138537 0.144121
0.917739 0.148775 0.154833
0.954086 0.158602 0.16965
0.971939 0.163058 0.174273
0.974456 0.163684 0.174929
0.974456 0.163684 0.174929
0.974456 0.163684 0.174929
0.974456 0.163684 0.174929
0.974456 0.163684 0.174929
0.974456 0.163684 0.174929
0.974456 0.163684 0.174929
0.974456 0.163684 0.174929
0.974456 0.163684 0.174929
0.974456 0.163684 0.174929
0.974456 0.163684 0.174929
0.974456 0.163684 0.174929
0.974456 0.163684 0.174929
0.974456 0.163684 0.174929
0.974456 0.163684 0.174929
0.974456 0.163684 0.174929
0.974456 0.163684 0.174929
0.974456 0.163684 0.174929
0.974456 0.163684 0.174929
0.974456 0.163684 0.174929
0.974456 0.163684 0.174929
0 0 0
0 0 0
0 0 0
0 0 0
0 0 0
0.00259403 0.000198367 0.000183108
0.0127718 0.000946059 0.000885023
0.0408789 0.00300603 0.00283818
0.0710002 0.00520333 0.00491341
0.0944228 0.00694286 0.00654612
0.11252 0.00880446 0.00836194
0.123171 0.0101625 0.00968948
0.129946 0.0112001 0.0116884
0.135607 0.0119478 0.0124666
0.14258 0.0128481 0.0134127
0.150912 0.0139315 0.0145418
0.16112 0.0152438 0.0159152
0.172732 0.0165408 0.0159762
0.185595 0.0181888 0.0176242
0.199847 0.0200046 0.01944
0.215228 0.0219883 0.0214084
0.231922 0.0241245 0.0235752
0.250309 0.0265202 0.0259861
0.270069 0.0294499 0.0309911
0.291798 0.0324407 0.0341955
0.314183 0.0352331 0.0348669
0.338674 0.0387884 0.038529
0.365499 0.0433051 0.0459297
0.392645 0.0476539 0.05066
0.421836 0.0525521 0.0560006
0.453147 0.0580148 0.0619669
0.486702 0.0638895 0.0684215
0.523644 0.0702678 0.0754864
0.563989 0.0771038 0.0833906
0.6065 0.0835584 0.0858473
0.653208 0.0912337 0.0941024
0.699931 0.099382 0.102831
0.748104 0.109575 0.118288
0.792264 0.118975 0.128237
0.835264 0.128893 0.138674
0.87541 0.138125 0.143694
0.922286 0.14992 0.156024
0.9608 0.159548 0.166094
0.973816 0.163516 0.174762
0.974456 0.163684 0.174929
0.974456 0.163684 0.174929
0.974456 0.163684 0.174929
0.974456 0.163684 0.174929
0.974456 0.163684 0.174929
0.974456 0.163684 0.174929
0.974456 0.163684 0.174929
0.974456 0.163684 0.174929
0.974456 0.163684 0.174929
0.974456 0.163684 0.174929
0.974456 0.163684 0.174929
0.974456 0.163684 0.174929
0.974456 0.163684 0.174929
0.974456 0.163684 0.174929
0.974456 0.163684 0.174929
0.974456 0.163684 0.174929
0.974456 0.163684 0.174929
0.974456 0.163684 0.174929
0.974456 0.163684 0.174929
0.974456 0.163684 0.174929
0.974456 0.163684 0.174929
0 0 0
0 0 0
0 0 0
0 0 0
0 0 0
6.10361e-05 0 0
0.00643931 0.00047303 0.000442512
0.0289769 0.00213626 0.00201419
0.0583963 0.00428778 0.00404364
0.0808728 0.00602731 0.00631724
0.0991531 0.00746166 0.00781262
0.109865 0.00856031 0.00895705
0.117067 0.00936904 0.00889601
0.124208 0.0104524 0.0109255
0.132357 0.011368 0.0108644
0.141863 0.0127565 0.0133059
0.153094 0.014023 0.013489
0.165911 0.015671 0.0151217
0.180117 0.0176852 0.0184787
0.195438 0.0196689 0.0205692
0.211597 0.0217594 0.0227665
0.229038 0.0240177 0.0251774
0.247257 0.0263981 0.0277256
0.266255 0.0286259 0.0281224
0.28719 0.0314488 0.0310063
0.309163 0.0345159 0.0341344
0.334295 0.038529 0.0407721
0.35938 0.0419165 0.0417639
0.386862 0.0462501 0.0462501
0.41648 0.0511482 0.0513619
0.448463 0.0572061 0.0610666
0.481224 0.0623331 0.0631266
0.518868 0.0694438 0.0745708
0.557031 0.0751812 0.0768444
0.601419 0.0827192 0.0849622
0.65069 0.0916915 0.0990463
0.701534 0.100572 0.108659
0.750301 0.109178 0.113252
0.802518 0.121279 0.130678
0.853956 0.133501 0.143481
0.902022 0.144823 0.150698
0.948135 0.15639 0.162799
0.974456 0.163684 0.174929
0.974456 0.163684 0.174929
0.974456 0.163684 0.174929
0.974456 0.163684 0.174929
0.974456 0.163684 0.174929
0.974456 0.163684 0.174929
0.974456 0.163684 0.174929
0.974456 0.163684 0.174929
0.974456 0.163684 0.174929
0.974456 0.163684 0.174929
0.974456 0.163684 0.174929
0.974456 0.163684 0.174929
0.974456 0.163684 0.174929
0.974456 0.163684 0.174929
0.974456 0.163684 0.174929
0.974456 0.163684 0.174929
0.974456 0.163684 0.174929
0.974456 0.163684 0.174929
0.974456 0.163684 0.174929
0.974456 0.163684 0.174929
0.974456 0.163684 0.174929
0.974456 0.163684 0.174929
0.974456 0.163684 0.174929
0 0 0
0 0 0
0 0 0
0 0 0
1.5259e-05 0 0
0.000167849 1.5259e-05 1.5259e-05
0.00225834 0.000167849 0.00015259
0.0238651 0.00175479 0.00166323
0.0502937 0.00369268 0.00349432
0.0726635 0.0053254 0.00502022
0.0894331 0.00665293 0.00697337
0.100298 0.00749218 0.0078584
0.108644 0.00840772 0.00881971
0.116838 0.00932326 0.00886549
0.126085 0.010544 0.0100557
0.136584 0.011902 0.0113985
0.148989 0.0135042 0.0129854
0.163043 0.0154879 0.0161746
0.177707 0.0171817 0.0166171
0.193515 0.0194247 0.0203098
0.209827 0.0212863 0.0207065
0.226825 0.0234684 0.0229038
0.245808 0.026215 0.0275273
0.264714 0.0284276 0.0279088
0.285512 0.0312352 0.0307774
0.308888 0.0348516 0.0367895
0.332921 0.0379492 0.0376593
0.359747 0.0424048 0.0449531
0.386862 0.0462501 0.0462654
0.415976 0.0510567 0.0512856
0.448554 0.0572213 0.0610971
0.48307 0.0632486 0.0677043
0.519097 0.0688029 0.0699931
0.563897 0.0770733 0.08336
0.614511 0.0857099 0.0925307
0.668956 0.094789 0.102403
0.72578 0.10428 0.108049
0.780987 0.115663 0.120119
0.838026 0.129564 0.139361
0.888624 0.141466 0.147189
0.941985 0.155581 0.166491
0.970245 0.162631 0.173846
0.974456 0.163684 0.174929
0.974456 0.163684 0.174929
0.974456 0.163684 0.174929
0.974456 0.163684 0.174929
0.974456 0.163684 0.174929
0.974456 0.163684 0.174929
0.974456 0.163684 0.174929
0.974456 0.163684 0.174929
0.974456 0.163684 0.174929
0.974456 0.163684 0.174929
0.974456 0.163684 0.174929
0.974456 0.163684 0.174929
0.974456 0.163684 0.174929
0.974456 0.163684 0.174929
0.974456 0.163684 0.174929
0.974456 0.163684 0.174929
0.974456 0.163684 0.174929
0.974456 0.163684 0.174929
0.974456 0.163684 0.174929
0.974456 0.163684 0.174929
0.974456 0.163684 0.174929
0.974456 0.163684 0.174929
0.974456 0.163684 0.174929
0 0 0
0 0 0
0 0 0
0 0 0
0 0 0
0.000228885 1.5259e-05 1.5259e-05
0.00395209 0.000289921 0.000274662
0.0208438 0.00154116 0.00144961
0.0453651 0.00334173 0.00314336
0.0660258 0.00483711 0.00456245
0.0820478 0.0059968 0.00564584
0.0933547 0.00682078 0.00643931
0.102754 0.00759899 0.007187
0.112139 0.00886549 0.00927749
0.122423 0.0100557 0.00958267
0.133852 0.0117189 0.0122377
0.146929 0.0132448 0.012726
0.161425 0.0152895 0.0159762
0.176181 0.0171969 0.0179599
0.192035 0.0190127 0.0184482
0.209079 0.0214389 0.0224308
0.22649 0.023682 0.0248264
0.24477 0.025803 0.0252537
0.264591 0.0287175 0.0301976
0.28574 0.0316014 0.0332952
0.307942 0.0343481 0.0339666
0.332815 0.0383154 0.0405432
0.359136 0.042298 0.0448615
0.386496 0.0461891 0.0462043
0.417029 0.0512398 0.0514687
0.452201 0.057847 0.0617838
0.488624 0.0635996 0.0644694
0.534417 0.0720836 0.0775311
0.586526 0.0808423 0.0875105
0.643778 0.090547 0.0977951
0.705318 0.101274 0.109407
0.761379 0.111482 0.115694
0.821134 0.125582 0.135195
0.876402 0.139132 0.14934
0.927382 0.151186 0.157351
0.97116 0.16286 0.174075
0.974456 0.163684 0.174929
0.974456 0.163684 0.174929
0.974456 0.163684 0.174929
0.974456 0.163684 0.174929
0.974456 0.163684 0.174929
0.974456 0.163684 0.174929
0.974456 0.163684 0.174929
0.974456 0.163684 0.174929
0.974456 0.163684 0.174929
0.974456 0.163684 0.174929
0.974456 0.163684 0.174929
0.974456 0.163684 0.174929
0.974456 0.163684 0.174929
0.974456 0.163684 0.174929
0.974456 0.163684 0.174929
0.974456 0.163684 0.174929
0.974456 0.163684 0.174929
0.974456 0.163684 0.174929
0.974456 0.163684 0.174929
0.974456 0.163684 0.174929
0.974456 0.163684 0.174929
0.974456 0.163684 0.174929
0.974456 0.163684 0.174929
0.974456 0.163684 0.174929
0 0 0
0 0 0
0 0 0
0 0 0
0 0 0
3.0518e-05 0 0
0.00280766 0.000213626 0.000198367
0.0177615 0.00131228 0.00123598
0.0403143 0.00297551 0.0027924
0.0599527 0.0043946 0.00415045
0.0755474 0.00553903 0.00521859
0.0876631 0.00639353 0.00602731
0.0977035 0.00715648 0.00674449
0.107668 0.00816358 0.00772107
0.118517 0.00970474 0.0101472
0.13019 0.0110781 0.0105898
0.143908 0.0130312 0.0135958
0.158206 0.0146944 0.0141451
0.173449 0.0168307 0.0175784
0.189471 0.0189059 0.0197604
0.205783 0.0207675 0.0201877
0.223514 0.0233005 0.0243992
0.241566 0.0253758 0.0248264
0.26067 0.0278935 0.0273747
0.282383 0.0311284 0.0327916
0.305318 0.0343328 0.0362402
0.33051 0.037583 0.0372931
0.35938 0.0419165 0.0417639
0.39147 0.0474556 0.0504463
0.427222 0.0534981 0.057023
0.465888 0.0602579 0.0644236
0.508034 0.0669261 0.0680095
0.556649 0.0751202 0.0767834
0.613199 0.0855116 0.0923171
0.673121 0.0946517 0.0977646
0.733791 0.105882 0.109743
0.794995 0.119615 0.128923
0.849989 0.13254 0.142458
0.901595 0.145464 0.155947
0.95404 0.158587 0.169635
0.970947 0.162081 0.168734
0.974456 0.163684 0.174929
0.974456 0.163684 0.174929
0.974456 0.163684 0.174929
0.974456 0.163684 0.174929
0.974456 0.163684 0.174929
0.974456 0.163684 0.174929
0.974456 0.163684 0.174929
0.974456 0.163684 0.174929
0.974456 0.163684 0.174929
0.974456 0.163684 0.174929
0.974456 0.163684 0.174929
0.974456 0.163684 0.174929
0.974456 0.163684 0.174929
0.974456 0.163684 0.174929
0.974456 0.163684 0.174929
0.974456 0.163684 0.174929
0.974456 0.163684 0.174929
0.974456 0.163684 0.174929
0.974456 0.163684 0.174929
0.974456 0.163684 0.174929
0.974456 0.163684 0.174929
0.974456 0.163684 0.174929
0.974456 0.163684 0.174929
0.974456 0.163684 0.174929
7.62951e-05 0.000762951 7.62951e-05
6.10361e-05 0.000549325 6.10361e-05
3.0518e-05 0.000289921 3.0518e-05
4.57771e-05 0.000381476 4.57771e-05
6.10361e-05 0.000595102 6.10361e-05
0.000244144 0.000747692 7.62951e-05
0.0027924 0.000701915 0.000274662
0.0137942 0.00135805 0.00103761
0.0343938 0.00268559 0.00250248
0.0534066 0.00392157 0.00370794
0.0692454 0.00508125 0.00479133
0.0817578 0.00596628 0.00563058
0.0921035 0.00672923 0.00634775
0.102373 0.00776684 0.00813306
0.113405 0.00901808 0.00944533
0.125444 0.010605 0.0110781
0.138994 0.0123751 0.0129244
0.153292 0.0142367 0.0148623
0.168078 0.0159457 0.0153964
0.183734 0.018143 0.018967
0.199466 0.0199435 0.019379
0.216892 0.0224308 0.0234989
0.23505 0.0247959 0.0260166
0.254643 0.0270848 0.026566
0.27747 0.030457 0.0320592
0.302205 0.0335393 0.0331273
0.330877 0.0376287 0.0373388
0.362997 0.0429084 0.0455024
0.397086 0.0483864 0.0514687
0.433265 0.0540322 0.0543832
0.474769 0.061799 0.0661173
0.520027 0.0689555 0.0701762
0.57113 0.0775006 0.0793469
0.631052 0.0875715 0.0901656
0.692866 0.0981155 0.101472
0.753964 0.11078 0.11957
0.809476 0.122866 0.132342
0.857969 0.133745 0.139116
0.909133 0.146609 0.152575
0.96434 0.161151 0.172305
0.97377 0.1635 0.174762
0.974456 0.163684 0.174929
0.974456 0.163684 0.174929
0.974456 0.163684 0.174929
0.974456 0.163684 0.174929
0.974456 0.163684 0.174929
0.974456 0.163684 0.174929
0.974456 0.163684 0.174929
0.974456 0.163684 0.174929
0.974456 0.163684 0.174929
0.974456 0.163684 0.174929
0.974456 0.163684 0.174929
0.974456 0.163684 0.174929
0.974456 0.163684 0.174929
0.974456 0.163684 0.174929
0.974456 0.163684 0.174929
0.974456 0.163684 0.174929
0.974456 0.163684 0.174929
0.974456 0.163684 0.174929
0.974456 0.163684 0.174929
0.974456 0.163684 0.174929
0.974456 0.163684 0.174929
0.974456 0.163684 0.174929
0.974456 0.163684 0.174929
0.974456 0.163684 0.174929
0.00108339 0.0102998 0.00105287
0.000793469 0.00753796 0.000762951
0.00062562 0.00595102 0.000610361
0.000640879 0.00619516 0.00062562
0.000717174 0.00694286 0.000701915
0.000686656 0.00654612 0.000671397
0.00140383 0.00576791 0.000579843
0.0100404 0.00399786 0.00218204
0.0273442 0.00422675 0.00225834
0.0462348 0.00488289 0.00350958
0.0621195 0.00560006 0.00459297
0.0741588 0.00608835 0.00541695
0.084184 0.00665293 0.00610361
0.0942855 0.00729381 0.0068513
0.105226 0.00816358 0.00773632
0.117006 0.00953689 0.00907912
0.130053 0.0111086 0.0106203
0.143832 0.0128328 0.012314
0.158404 0.0148928 0.0155489
0.173388 0.0166171 0.0160678
0.189792 0.0189364 0.019791
0.207233 0.0209506 0.0203708
0.227237 0.0237888 0.0249332
0.249165 0.0266575 0.0280003
0.273732 0.0299535 0.0315251
0.300587 0.0333104 0.0329137
0.330571 0.0375982 0.0373083
0.364111 0.042649 0.0425269
0.40174 0.0491646 0.0523079
0.440299 0.0557717 0.0595102
0.482612 0.062562 0.0633707
0.531151 0.0715343 0.0769207
0.582223 0.0793317 0.0815747
0.642344 0.0903182 0.0975509
0.700175 0.0994583 0.102907
0.757641 0.110704 0.11487
0.810468 0.122301 0.127108
0.863828 0.135988 0.146075
0.911955 0.147326 0.153307
0.956664 0.159243 0.170321
0.974227 0.163622 0.174884
0.974456 0.163684 0.174929
0.974456 0.163684 0.174929
0.974456 0.163684 0.174929
0.974456 0.163684 0.174929
0.974456 0.163684 0.174929
0.974456 0.163684 0.174929
0.974456 0.163684 0.174929
0.974456 0.163684 0.174929
0.974456 0.163684 0.174929
0.974456 0.163684 0.174929
0.974456 0.163684 0.174929
0.974456 0.163684 0.174929
0.974456 0.163684 0.174929
0.974456 0.163684 0.174929
0.974456 0.163684 0.174929
0.974456 0.163684 0.174929
0.974456 0.163684 0.174929
0.974456 0.163684 0.174929
0.974456 0.163684 0.174929
0.974456 0.163684 0.174929
0.974456 0.163684 0.174929
0.974456 0.163684 0.174929
0.974456 0.163684 0.174929
0.974456 0.163684 0.174929
0.00337224 0.0300908 0.00329595
0.00297551 0.0272679 0.00291447
0.00260929 0.0246128 0.00254826
0.0024567 0.0233921 0.00241093
0.00233463 0.0221256 0.00227359
0.002121 0.0202945 0.00207523
0.00187686 0.0180819 0.00183108
0.00569161 0.0152743 0.00149538
0.022385 0.0122683 0.00357061
0.0413672 0.0111391 0.00419623
0.0568856 0.010193 0.00494392
0.0679026 0.00981155 0.00556954
0.0769055 0.00968948 0.00611887
0.0862135 0.00972 0.00674449
0.0964981 0.00987259 0.00758373
0.107515 0.0103151 0.00865187
0.119966 0.0112154 0.0100862
0.133318 0.012253 0.0116274
0.147631 0.0134737 0.0129397
0.163653 0.0155795 0.0162661
0.180957 0.017792 0.0186007
0.200122 0.0201724 0.0196078
0.221439 0.0230869 0.0225223
0.244373 0.0260319 0.0254978
0.270665 0.0293126 0.0288243
0.299626 0.0331731 0.0327611
0.332845 0.0383154 0.0405432
0.367956 0.0436866 0.0463569
0.404669 0.0496529 0.0528267
0.444083 0.0558938 0.0563363
0.487373 0.063386 0.0642405
0.536385 0.0724346 0.0779126
0.588556 0.0803693 0.0826886
0.648417 0.0913252 0.0986343
0.709361 0.102022 0.110216
0.763561 0.11194 0.116182
0.819715 0.125246 0.134844
0.870466 0.137652 0.147814
0.919524 0.149966 0.160632
0.955642 0.158267 0.164752
0.973968 0.163561 0.174807
0.974456 0.163684 0.174929
0.974456 0.163684 0.174929
0.974456 0.163684 0.174929
0.974456 0.163684 0.174929
0.974456 0.163684 0.174929
0.974456 0.163684 0.174929
0.974456 0.163684 0.174929
0.974456 0.163684 0.174929
0.974456 0.163684 0.174929
0.974456 0.163684 0.174929
0.974456 0.163684 0.174929
0.974456 0.163684 0.174929
0.974456 0.163684 0.174929
0.974456 0.163684 0.174929
0.974456 0.163684 0.174929
0.974456 0.163684 0.174929
0.974456 0.163684 0.174929
0.974456 0.163684 0.174929
0.974456 0.163684 0.174929
0.974456 0.163684 0.174929
0.974456 0.163684 0.174929
0.974456 0.163684 0.174929
0.974456 0.163684 0.174929
0.974456 0.163684 0.174929
0.00640879 0.0463722 0.0062562
0.0055848 0.0427405 0.00544747
0.00495918 0.0398108 0.00485237
0.004654 0.038117 0.00456245
0.00434882 0.0363622 0.00425727
0.00399786 0.0345922 0.00392157
0.00350958 0.0320134 0.00343328
0.00390631 0.0284276 0.00289921
0.0134279 0.0252079 0.0028687
0.0346227 0.0212558 0.00563058
0.0543984 0.0184329 0.0110933
0.0635996 0.0180819 0.00721752
0.0720836 0.0177768 0.00775158
0.0808728 0.0181125 0.00854505
0.0913863 0.0186313 0.00958267
0.1028 0.0195926 0.0108797
0.11574 0.0209354 0.0124361
0.129549 0.0221866 0.0140383
0.144961 0.0234073 0.0157778
0.161791 0.0247501 0.0176852
0.180072 0.0260319 0.0197299
0.200778 0.0273442 0.0220493
0.223209 0.0288701 0.0245975
0.248188 0.0304265 0.027512
0.276036 0.0320134 0.0307774
0.305989 0.0344854 0.0340887
0.340017 0.0390326 0.0387732
0.376379 0.0450294 0.0478065
0.414038 0.0507362 0.0509346
0.45623 0.0585641 0.062562
0.500648 0.0663005 0.0710918
0.551034 0.0749218 0.080705
0.604517 0.084062 0.0907454
0.662623 0.0928359 0.0958114
0.722866 0.104601 0.112978
0.777493 0.11577 0.124849
0.826932 0.126146 0.131151
0.87744 0.139406 0.14963
0.927504 0.151965 0.162722
0.959106 0.159121 0.165652
0.971054 0.162112 0.16878
0.974456 0.163684 0.174929
0.974456 0.163684 0.174929
0.974456 0.163684 0.174929
0.974456 0.163684 0.174929
0.974456 0.163684 0.174929
0.974456 0.163684 0.174929
0.974456 0.163684 0.174929
0.974456 0.163684 0.174929
0.974456 0.163684 0.174929
0.974456 0.163684 0.174929
0.974456 0.163684 0.174929
0.974456 0.163684 0.174929
0.974456 0.163684 0.174929
0.974456 0.163684 0.174929
0.974456 0.163684 0.174929
0.974456 0.163684 0.174929
0.974456 0.163684 0.174929
0.974456 0.163684 0.174929
0.974456 0.163684 0.174929
0.974456 0.163684 0.174929
0.974456 0.163684 0.174929
0.974456 0.163684 0.174929
0.974456 0.163684 0.174929
0.974456 0.163684 0.174929
0.00959792 0.0604105 0.0093843
0.00868238 0.0562295 0.00846876
0.00788891 0.052781 0.00772107
0.00737011 0.0504616 0.00720226
0.0069276 0.0485695 0.00677501
0.00640879 0.0463417 0.00627146
0.00573739 0.0434272 0.00560006
0.00488289 0.0397345 0.00477607
0.00767529 0.0359503 0.00404364
0.0251621 0.0330205 0.00477607
0.0469673 0.0300908 0.00880446
0.0629587 0.0281834 0.0146181
0.0732586 0.0287785 0.0181735
0.083238 0.0300145 0.0192721
0.0926986 0.0314183 0.0160525
0.104509 0.0326848 0.0150454
0.118212 0.0335699 0.0162203
0.133501 0.0347295 0.0178378
0.150225 0.0359197 0.0196536
0.168063 0.03682 0.0214694
0.187961 0.0377966 0.0234989
0.209079 0.0383459 0.0256046
0.232792 0.0388647 0.0280003
0.258427 0.0390784 0.0306249
0.285817 0.0389715 0.0335088
0.316304 0.0392309 0.0369879
0.348882 0.0409857 0.0407874
0.385519 0.046067 0.046067
0.425498 0.053193 0.0567025
0.465309 0.0595865 0.0602274
0.512001 0.0682689 0.0732738
0.55877 0.0754711 0.0771496
0.614572 0.0857252 0.0925612
0.670283 0.0941634 0.0972305
0.728725 0.105745 0.114199
0.783597 0.117098 0.126268
0.833921 0.128603 0.138354
0.883452 0.140917 0.151202
0.929915 0.151827 0.158022
0.966964 0.161822 0.172992
0.971359 0.162188 0.168856
0.974456 0.163684 0.174929
0.974456 0.163684 0.174929
0.974456 0.163684 0.174929
0.974456 0.163684 0.174929
0.974456 0.163684 0.174929
0.974456 0.163684 0.174929
0.974456 0.163684 0.174929
0.974456 0.163684 0.174929
0.974456 0.163684 0.174929
0.974456 0.163684 0.174929
0.974456 0.163684 0.174929
0.974456 0.163684 0.174929
0.974456 0.163684 0.174929
0.974456 0.163684 0.174929
0.974456 0.163684 0.174929
0.974456 0.163684 0.174929
0.974456 0.163684 0.174929
0.974456 0.163684 0.174929
0.974456 0.163684 0.174929
0.974456 0.163684 0.174929
0.974456 0.163684 0.174929
0.974456 0.163684 0.174929
0.974456 0.163684 0.174929
0.974456 0.163684 0.174929
0.0119478 0.0712291 0.0116732
0.010956 0.0665904 0.0106966
0.010071 0.062501 0.00984207
0.00950637 0.0599069 0.00927749
0.00903334 0.0577859 0.00881971
0.00846876 0.055314 0.00827039
0.0078584 0.0526131 0.00767529
0.00708019 0.0491951 0.00691234
0.0081178 0.0459144 0.00622568
0.0222019 0.043946 0.0065156
0.0454261 0.0416724 0.00976577
0.0594339 0.0413062 0.0126497
0.0697185 0.0416571 0.014786
0.0844282 0.0409094 0.0204471
0.0998245 0.0413214 0.0262303
0.113558 0.0424201 0.0281376
0.126146 0.0441138 0.0235904
0.141314 0.0454414 0.0217746
0.158404 0.0460975 0.0230869
0.177249 0.0469062 0.0249638
0.197269 0.047425 0.0268406
0.219379 0.0477455 0.0289006
0.243565 0.0479896 0.0312505
0.268849 0.0479438 0.0337682
0.297551 0.0478065 0.0367895
0.327367 0.0471962 0.0400549
0.360128 0.0467994 0.0440223
0.394903 0.0484932 0.0485542
0.431235 0.0537575 0.0541085
0.472679 0.0614481 0.0657206
0.515419 0.0688487 0.07393
0.562722 0.0761273 0.0778668
0.617884 0.0862745 0.0931563
0.675166 0.0958877 0.103593
0.730556 0.105226 0.109056
0.783459 0.116228 0.120714
0.837156 0.129366 0.139162
0.882521 0.139925 0.145586
0.931792 0.1523 0.158526
0.971191 0.162875 0.17409
0.974456 0.163684 0.174929
0.974456 0.163684 0.174929
0.974456 0.163684 0.174929
0.974456 0.163684 0.174929
0.974456 0.163684 0.174929
0.974456 0.163684 0.174929
0.974456 0.163684 0.174929
0.974456 0.163684 0.174929
0.974456 0.163684 0.174929
0.974456 0.163684 0.174929
0.974456 0.163684 0.174929
0.974456 0.163684 0.174929
0.974456 0.163684 0.174929
0.974456 0.163684 0.174929
0.974456 0.163684 0.174929
0.974456 0.163684 0.174929
0.974456 0.163684 0.174929
0.974456 0.163684 0.174929
0.974456 0.163684 0.174929
0.974456 0.163684 0.174929
0.974456 0.163684 0.174929
0.974456 0.163684 0.174929
0.974456 0.163684 0.174929
0.974456 0.163684 0.174929
0.974456 0.163684 0.174929
0.0136721 0.0795148 0.0133516
0.0126345 0.074464 0.0123293
0.0117189 0.0700999 0.0114443
0.0111849 0.0676585 0.0109255
0.0107576 0.0656596 0.0104982
0.0103151 0.0636301 0.010071
0.00982681 0.0613718 0.00959792
0.00915541 0.058381 0.00894179
0.00987259 0.0556191 0.00839246
0.0251774 0.0543526 0.00854505
0.0470741 0.0533455 0.010544
0.060853 0.0530251 0.0140841
0.0718242 0.0538491 0.0164034
0.0859083 0.0545205 0.0192874
0.103014 0.0539559 0.0249638
0.122576 0.0535744 0.0328374
0.139757 0.0545052 0.0368963
0.153628 0.0558175 0.0332647
0.168551 0.057023 0.0281987
0.186969 0.0576181 0.0285649
0.207538 0.0580301 0.0304723
0.230411 0.0583047 0.0325475
0.254017 0.0581369 0.0346838
0.279896 0.0580758 0.037232
0.307362 0.0576028 0.0400397
0.336233 0.0568551 0.0431983
0.367285 0.0558328 0.0468452
0.399222 0.0549783 0.0509499
0.434623 0.0565347 0.0563211
0.472755 0.0612192 0.0619211
0.517952 0.0692912 0.074403
0.566613 0.0775311 0.0838788
0.61883 0.0855726 0.0880293
0.678767 0.0965133 0.104265
0.732479 0.105608 0.109453
0.786389 0.116854 0.12137
0.835966 0.128283 0.133394
0.884565 0.140429 0.146105
0.93518 0.153872 0.164721
0.97052 0.162707 0.173907
0.974456 0.163684 0.174929
0.974456 0.163684 0.174929
0.974456 0.163684 0.174929
0.974456 0.163684 0.174929
0.974456 0.163684 0.174929
0.974456 0.163684 0.174929
0.974456 0.163684 0.174929
0.974456 0.163684 0.174929
0.974456 0.163684 0.174929
0.974456 0.163684 0.174929
0.974456 0.163684 0.174929
0.974456 0.163684 0.174929
0.974456 0.163684 0.174929
0.974456 0.163684 0.174929
0.974456 0.163684 0.174929
0.974456 0.163684 0.174929
0.974456 0.163684 0.174929
0.974456 0.163684 0.174929
0.974456 0.163684 0.174929
0.974456 0.163684 0.174929
0.974456 0.163684 0.174929
0.974456 0.163684 0.174929
0.974456 0.163684 0.174929
0.974456 0.163684 0.174929
0.974456 0.163684 0.174929
0.0151522 0.0868238 0.0148013
0.0142672 0.0824598 0.0139315
0.0135653 0.0790265 0.0132448
0.0132448 0.0774243 0.0129397
0.0129854 0.0761578 0.0126802
0.0127413 0.0749828 0.0124361
0.0123751 0.0732433 0.0120851
0.0119936 0.071458 0.0117189
0.0123751 0.0694743 0.0113069
0.028336 0.0696574 0.0112154
0.0473945 0.0691844 0.013489
0.0612497 0.0694285 0.0145876
0.0741741 0.0699779 0.0181582
0.0890211 0.0707103 0.0212558
0.104845 0.0705272 0.0245975
0.122972 0.0696269 0.029221
0.14609 0.0677348 0.038819
0.166125 0.0680858 0.0452583
0.183185 0.0690166 0.0453498
0.197345 0.0701152 0.0373846
0.215641 0.070573 0.0345922
0.236789 0.0703899 0.0361181
