lut_old.cube
TITLE "Samsung Log 2 Rec709 by Lohk"
LUT_3D_SIZE 65
0 0 0
0 0 0
0 0 0
0 0 0
0.00143435 0 0
0.0103151 0 0
0.0362249 0.000213626 0.000228885
0.0694743 0.00132753 0.00135805
0.0970626 0.00216678 0.00222782
0.118669 0.00331121 0.0033875
0.134218 0.00460822 0.00469978
0.143114 0.00546273 0.00555428
0.148714 0.00590524 0.00601205
0.151797 0.00607309 0.0061799
0.155001 0.00622568 0.00633249
0.159335 0.00662242 0.00674449
0.165393 0.00714122 0.00726329
0.173144 0.00779736 0.00791943
0.182818 0.00833143 0.00846876
0.194003 0.00915541 0.009308
0.206439 0.010071 0.0102541
0.220111 0.0108492 0.0110323
0.235584 0.0119326 0.0121309
0.252628 0.0128176 0.0130312
0.271702 0.0140688 0.0143282
0.293095 0.0152132 0.0155032
0.316991 0.0164797 0.0168002
0.343755 0.0182193 0.0185855
0.372793 0.019913 0.0203098
0.40354 0.0217594 0.0222171
0.436316 0.0237888 0.0243229
0.469963 0.0260014 0.0265965
0.50544 0.028397 0.0290837
0.542016 0.0310063 0.0317998
0.579431 0.0339055 0.0347906
0.617655 0.0368811 0.0378576
0.656077 0.0404212 0.0415351
0.695262 0.0444343 0.0456703
0.734386 0.0489052 0.0502937
0.774411 0.0535897 0.0551156
0.815412 0.0590372 0.0607309
0.85803 0.0650645 0.0669413
0.896681 0.0704967 0.0725414
0.913878 0.0733043 0.0754253
0.913878 0.0733043 0.0754253
0.913878 0.0733043 0.0754253
0.913878 0.0733043 0.0754253
0.913878 0.0733043 0.0754253
0.913878 0.0733043 0.0754253
0.913878 0.0733043 0.0754253
0.913878 0.0733043 0.0754253
0.913878 0.0733043 0.0754253
0.913878 0.0733043 0.0754253
0.913878 0.0733043 0.0754253
0.913878 0.0733043 0.0754253
0.913878 0.0733043 0.0754253
0.913878 0.0733043 0.0754253
0.913878 0.0733043 0.0754253
0.913878 0.0733043 0.0754253
0.913878 0.0733043 0.0754253
0.913878 0.0733043 0.0754253
0.913878 0.0733043 0.0754253
0.913878 0.0733043 0.0754253
0.913878 0.0733043 0.0754253
0.913878 0.0733043 0.0754253
0 0 0
0 0 0
0 0 0
0 0 0
0 0 0
0.00222782 0 0
0.0149233 0 0
0.0482338 0.000717174 0.000747692
0.0782177 0.00166323 0.00170901
0.100938 0.00233463 0.00239567
0.117098 0.00331121 0.0033875
0.126421 0.00387579 0.00395209
0.131655 0.00437934 0.00447089
0.135897 0.00480659 0.00489815
0.139925 0.00514229 0.00523384
0.145449 0.00567636 0.00576791
0.152453 0.00608835 0.00619516
0.161456 0.00679026 0.00691234
0.17229 0.00772107 0.00784314
0.184482 0.00839246 0.00854505
0.197757 0.00944533 0.00959792
0.212512 0.0104067 0.0105898
0.228901 0.0114595 0.0116579
0.246372 0.0124361 0.0126497
0.266804 0.0137484 0.0139773
0.288472 0.0148775 0.0151522
0.312703 0.0163424 0.0166629
0.338613 0.0178836 0.0182345
0.366033 0.0194553 0.019852
0.395285 0.0211948 0.0216373
0.426291 0.0231022 0.023621
0.459327 0.0251774 0.0257572
0.494057 0.027512 0.0281834
0.530297 0.0300755 0.0308232
0.567758 0.0328832 0.0337224
0.605509 0.0359655 0.0369268
0.643717 0.0393835 0.0404517
0.681971 0.0430762 0.0442664
0.720455 0.0471656 0.0484932
0.759869 0.0518959 0.0533608
0.800076 0.0570535 0.0586862
0.841703 0.0626383 0.0644388
0.885008 0.0689555 0.0709392
0.911284 0.0728923 0.0749981
0.913878 0.0733043 0.0754253
0.913878 0.0733043 0.0754253
0.913878 0.0733043 0.0754253
0.913878 0.0733043 0.0754253
0.913878 0.0733043 0.0754253
0.913878 0.0733043 0.0754253
0.913878 0.0733043 0.0754253
0.913878 0.0733043 0.0754253
0.913878 0.0733043 0.0754253
0.913878 0.0733043 0.0754253
0.913878 0.0733043 0.0754253
0.913878 0.0733043 0.0754253
0.913878 0.0733043 0.0754253
0.913878 0.0733043 0.0754253
0.913878 0.0733043 0.0754253
0.913878 0.0733043 0.0754253
0.913878 0.0733043 0.0754253
0.913878 0.0733043 0.0754253
0.913878 0.0733043 0.0754253
0.913878 0.0733043 0.0754253
0.913878 0.0733043 0.0754253
0 0 0
0 0 0
0 0 0
0 0 0
0 0 0
0 0 0
0.00712596 0 0
0.0324254 7.62951e-05 9.15541e-05
0.0629892 0.00105287 0.00109865
0.0856794 0.00187686 0.00192264
0.102434 0.00239567 0.0024567
0.111955 0.00288396 0.00296025
0.117968 0.00326543 0.00334173
0.122866 0.00357061 0.00364691
0.128069 0.0040589 0.00415045
0.134798 0.00466926 0.00474556
0.142855 0.00544747 0.00553903
0.152697 0.00608835 0.00619516
0.164584 0.00704967 0.00717174
0.177707 0.0081178 0.00825513
0.19176 0.0089723 0.00910964
0.207477 0.0101472 0.0103151
0.223972 0.0111238 0.0113222
0.242267 0.0123598 0.0125734
0.26183 0.0134432 0.0136873
0.283116 0.0145724 0.0148318
0.306386 0.0160678 0.0163729
0.331106 0.0173953 0.0177462
0.357961 0.0189212 0.0193027
0.386557 0.0205386 0.0209812
0.417197 0.0224613 0.0229496
0.449928 0.0245212 0.0250858
0.484215 0.0267796 0.0274357
0.520134 0.0292821 0.0299992
0.556451 0.0319524 0.0327764
0.593835 0.0348974 0.0358129
0.631098 0.0381476 0.0391852
0.669154 0.0417945 0.0429541
0.707851 0.0458991 0.0471809
0.7467 0.0501869 0.051606
0.787381 0.0553292 0.0569009
0.830014 0.0611429 0.0628977
0.874876 0.0674449 0.0693828
0.908186 0.0723583 0.0744335
0.913878 0.0733043 0.0754253
0.913878 0.0733043 0.0754253
0.913878 0.0733043 0.0754253
0.913878 0.0733043 0.0754253
0.913878 0.0733043 0.0754253
0.913878 0.0733043 0.0754253
0.913878 0.0733043 0.0754253
0.913878 0.0733043 0.0754253
0.913878 0.0733043 0.0754253
0.913878 0.0733043 0.0754253
0.913878 0.0733043 0.0754253
0.913878 0.0733043 0.0754253
0.913878 0.0733043 0.0754253
0.913878 0.0733043 0.0754253
0.913878 0.0733043 0.0754253
0.913878 0.0733043 0.0754253
0.913878 0.0733043 0.0754253
0.913878 0.0733043 0.0754253
0.913878 0.0733043 0.0754253
0.913878 0.0733043 0.0754253
0.913878 0.0733043 0.0754253
0 0 0
0 0 0
0 0 0
0 0 0
0 0 0
0 0 0
0.000350958 0 0
0.0245365 0 0
0.0526741 0.000762951 0.00077821
0.0757153 0.00154116 0.00158694
0.0914473 0.00195315 0.00199893
0.100984 0.00233463 0.00239567
0.107744 0.00263981 0.00270085
0.114122 0.00306706 0.00314336
0.120424 0.00329595 0.00337224
0.12784 0.00402838 0.00410468
0.136828 0.00488289 0.00497444
0.147768 0.00584421 0.00593576
0.160266 0.00669871 0.00682078
0.174105 0.00784314 0.00798047
0.188663 0.00875868 0.00891127
0.204471 0.00994888 0.0101167
0.221149 0.0109102 0.0110933
0.238926 0.0121462 0.0123445
0.25835 0.0131991 0.0134279
0.279393 0.0144808 0.0147402
0.302113 0.0157778 0.0160678
0.326833 0.0171054 0.0174411
0.353368 0.0186007 0.0189822
0.381949 0.0202487 0.020676
0.412695 0.022385 0.0228733
0.444816 0.0243992 0.0249485
0.478553 0.0266117 0.0272526
0.51342 0.0289158 0.029633
0.549935 0.0315862 0.0323949
0.58648 0.0342565 0.0351568
0.624292 0.0374914 0.0384985
0.66305 0.0411536 0.0422827
0.702739 0.0452888 0.0465553
0.743862 0.0499123 0.0513161
0.786603 0.0552377 0.0568093
0.832044 0.0614633 0.0632334
0.879728 0.0681315 0.0700847
0.913649 0.0732738 0.0753796
0.913878 0.0733043 0.0754253
0.913878 0.0733043 0.0754253
0.913878 0.0733043 0.0754253
0.913878 0.0733043 0.0754253
0.913878 0.0733043 0.0754253
0.913878 0.0733043 0.0754253
0.913878 0.0733043 0.0754253
0.913878 0.0733043 0.0754253
0.913878 0.0733043 0.0754253
0.913878 0.0733043 0.0754253
0.913878 0.0733043 0.0754253
0.913878 0.0733043 0.0754253
0.913878 0.0733043 0.0754253
0.913878 0.0733043 0.0754253
0.913878 0.0733043 0.0754253
0.913878 0.0733043 0.0754253
0.913878 0.0733043 0.0754253
0.913878 0.0733043 0.0754253
0.913878 0.0733043 0.0754253
0.913878 0.0733043 0.0754253
0.913878 0.0733043 0.0754253
0 0 0
0 0 0
0 0 0
0 0 0
0 0 0
0 0 0
0.00190738 0 0
0.0198215 0 0
0.0459907 0.000595102 0.00062562
0.0673228 0.0011902 0.00123598
0.083299 0.00187686 0.00192264
0.0925307 0.00198367 0.00204471
0.100069 0.00228885 0.00234989
0.107408 0.00259403 0.00267033
0.114672 0.00311284 0.00318914
0.122988 0.00357061 0.00364691
0.132937 0.00450141 0.00457771
0.144244 0.00556954 0.0056611
0.157183 0.00640879 0.0065156
0.171237 0.00758373 0.00772107
0.185611 0.00848402 0.00863661
0.201389 0.00973526 0.0099031
0.217807 0.0106966 0.0108797
0.235615 0.0119326 0.0121309
0.254841 0.0129854 0.0132143
0.275914 0.0143587 0.0146181
0.298573 0.0155795 0.0158694
0.322774 0.0168765 0.0171969
0.349294 0.0183413 0.0187228
0.377676 0.0201267 0.0205386
0.407599 0.0220035 0.0224765
0.439429 0.0240482 0.0245823
0.473045 0.0261845 0.0268101
0.508598 0.0286107 0.0293126
0.545602 0.031281 0.0320745
0.583947 0.0340887 0.0349737
0.623774 0.0374456 0.0384527
0.664515 0.0412757 0.0424048
0.707088 0.0457923 0.0470741
0.749905 0.0505989 0.0520333
0.794751 0.0563668 0.057969
0.841657 0.0626383 0.0644388
0.887526 0.0693217 0.0713054
0.913878 0.0733043 0.0754253
0.913878 0.0733043 0.0754253
0.913878 0.0733043 0.0754253
0.913878 0.0733043 0.0754253
0.913878 0.0733043 0.0754253
0.913878 0.0733043 0.0754253
0.913878 0.0733043 0.0754253
0.913878 0.0733043 0.0754253
0.913878 0.0733043 0.0754253
0.913878 0.0733043 0.0754253
0.913878 0.0733043 0.0754253
0.913878 0.0733043 0.0754253
0.913878 0.0733043 0.0754253
0.913878 0.0733043 0.0754253
0.913878 0.0733043 0.0754253
0.913878 0.0733043 0.0754253
0.913878 0.0733043 0.0754253
0.913878 0.0733043 0.0754253
0.913878 0.0733043 0.0754253
0.913878 0.0733043 0.0754253
0.913878 0.0733043 0.0754253
0.913878 0.0733043 0.0754253
0 0 0
0 0 0
0 0 0
0 0 0
0 0 0
0 0 0
0 0 0
0.0151217 0 0
0.0389715 0.00030518 0.000335698
0.0596628 0.000885023 0.0009308
0.0756085 0.00154116 0.00157168
0.0852827 0.00187686 0.0019379
0.0937362 0.00202945 0.00207523
0.101732 0.00234989 0.00241093
0.109209 0.00267033 0.00274662
0.118181 0.00328069 0.00335698
0.128054 0.0040589 0.00415045
0.13959 0.00511177 0.00520333
0.152544 0.00608835 0.00619516
0.166415 0.00723278 0.00735485
0.180972 0.00831617 0.0084535
0.196384 0.00935378 0.00952163
0.213001 0.0104067 0.0105745
0.230564 0.0115663 0.0117647
0.249302 0.012604 0.0128328
0.269856 0.0139773 0.0142214
0.291936 0.0151522 0.0154269
0.316014 0.016434 0.0167391
0.342367 0.018143 0.0184939
0.37023 0.0196994 0.0201114
0.400519 0.0215152 0.021973
0.432837 0.0235752 0.024094
0.467964 0.025864 0.0264591
0.505547 0.028397 0.0290837
0.544732 0.03122 0.0320134
0.585473 0.0341344 0.0350347
0.626749 0.0377203 0.0387427
0.669459 0.0418402 0.0429999
0.712428 0.0463722 0.0476692
0.756634 0.0515145 0.0529641
0.802533 0.0574655 0.0590982
0.849867 0.0638437 0.0656901
0.895796 0.0703441 0.0723735
0.913878 0.0733043 0.0754253
0.913878 0.0733043 0.0754253
0.913878 0.0733043 0.0754253
0.913878 0.0733043 0.0754253
0.913878 0.0733043 0.0754253
0.913878 0.0733043 0.0754253
0.913878 0.0733043 0.0754253
0.913878 0.0733043 0.0754253
0.913878 0.0733043 0.0754253
0.913878 0.0733043 0.0754253
0.913878 0.0733043 0.0754253
0.913878 0.0733043 0.0754253
0.913878 0.0733043 0.0754253
0.913878 0.0733043 0.0754253
0.913878 0.0733043 0.0754253
0.913878 0.0733043 0.0754253
0.913878 0.0733043 0.0754253
0.913878 0.0733043 0.0754253
0.913878 0.0733043 0.0754253
0.913878 0.0733043 0.0754253
0.913878 0.0733043 0.0754253
0.913878 0.0733043 0.0754253
0 0 0
0 0 0
0 0 0
0 0 0
0 0 0
0 0 0
0 0 0
0.0102083 0 0
0.0325017 7.62951e-05 9.15541e-05
0.0527504 0.000747692 0.00077821
0.0684367 0.00123598 0.00128176
0.0788739 0.00167849 0.00172427
0.0877699 0.00180056 0.0018616
0.0959945 0.00210575 0.00215152
0.103578 0.00241093 0.00247196
0.11252 0.00296025 0.00303655
0.122499 0.00352483 0.00360113
0.134127 0.00459297 0.00468452
0.147051 0.00578317 0.00587472
0.160647 0.00672923 0.0068513
0.175174 0.00793469 0.00807202
0.190188 0.00886549 0.00901808
0.2065 0.0100862 0.0102541
0.223285 0.0110475 0.0112306
0.241871 0.0123751 0.0125734
0.261601 0.0134585 0.0136873
0.283726 0.0146334 0.0149081
0.30811 0.0161746 0.0164797
0.334829 0.0176242 0.0179751
0.364141 0.0192874 0.0196841
0.395544 0.02121 0.0216526
0.430106 0.0233463 0.0238651
0.467216 0.0257572 0.0263676
0.505913 0.0284276 0.0291295
0.546746 0.0313878 0.0321813
0.587793 0.0343786 0.0352941
0.630533 0.0381018 0.0391241
0.673686 0.0422827 0.0434577
0.718044 0.0468605 0.0481727
0.763806 0.0524758 0.0539559
0.810315 0.05832 0.0599985
0.860471 0.0654765 0.0673533
0.906432 0.0720836 0.0741588
0.913878 0.0733043 0.0754253
0.913878 0.0733043 0.0754253
0.913878 0.0733043 0.0754253
0.913878 0.0733043 0.0754253
0.913878 0.0733043 0.0754253
0.913878 0.0733043 0.0754253
0.913878 0.0733043 0.0754253
0.913878 0.0733043 0.0754253
0.913878 0.0733043 0.0754253
0.913878 0.0733043 0.0754253
0.913878 0.0733043 0.0754253
0.913878 0.0733043 0.0754253
0.913878 0.0733043 0.0754253
0.913878 0.0733043 0.0754253
0.913878 0.0733043 0.0754253
0.913878 0.0733043 0.0754253
0.913878 0.0733043 0.0754253
0.913878 0.0733043 0.0754253
0.913878 0.0733043 0.0754253
0.913878 0.0733043 0.0754253
0.913878 0.0733043 0.0754253
0.913878 0.0733043 0.0754253
0 0.00828565 0
0 0.00440986 0
0 0.000839246 0
0 0.000595102 0
0 0.00172427 0
0 0.00192264 0
0 0.00180056 0
0.00341802 0.00111391 0
0.023743 0.000747692 0.00015259
0.0430915 0.000518807 0.000549325
0.0598154 0.000900282 0.0009308
0.0707256 0.00135805 0.00140383
0.0794537 0.00170901 0.00175479
0.087892 0.00180056 0.0018616
0.0954757 0.00209049 0.00213626
0.104143 0.0024567 0.00251774
0.114031 0.0030518 0.00311284
0.125307 0.00378424 0.00386053
0.137972 0.00497444 0.005066
0.151263 0.00607309 0.00616464
0.164996 0.0071107 0.00723278
0.179873 0.00827039 0.00840772
0.195041 0.00926223 0.00941482
0.211597 0.0104067 0.0105745
0.229877 0.0115206 0.0117037
0.250141 0.0126497 0.0128786
0.273075 0.0141604 0.0144045
0.297932 0.0154879 0.0157778
0.325856 0.0170443 0.0173648
0.35584 0.0187381 0.0191196
0.388571 0.0207218 0.0211643
0.423667 0.0229038 0.0234226
0.460578 0.0253147 0.0259098
0.500282 0.027985 0.0286564
0.541299 0.0309148 0.031693
0.5841 0.0341039 0.0350042
0.628092 0.0378424 0.0388647
0.67248 0.0421607 0.0433204
0.718517 0.0469062 0.0482338
0.764691 0.0525826 0.0540627
0.812909 0.0586862 0.0603647
0.862867 0.0657664 0.0676432
0.910857 0.0728161 0.0749218
0.913878 0.0733043 0.0754253
0.913878 0.0733043 0.0754253
0.913878 0.0733043 0.0754253
0.913878 0.0733043 0.0754253
0.913878 0.0733043 0.0754253
0.913878 0.0733043 0.0754253
0.913878 0.0733043 0.0754253
0.913878 0.0733043 0.0754253
0.913878 0.0733043 0.0754253
0.913878 0.0733043 0.0754253
0.913878 0.0733043 0.0754253
0.913878 0.0733043 0.0754253
0.913878 0.0733043 0.0754253
0.913878 0.0733043 0.0754253
0.913878 0.0733043 0.0754253
0.913878 0.0733043 0.0754253
0.913878 0.0733043 0.0754253
0.913878 0.0733043 0.0754253
0.913878 0.0733043 0.0754253
0.913878 0.0733043 0.0754253
0.913878 0.0733043 0.0754253
0.913878 0.0733043 0.0754253
0.00129702 0.0276036 0.00129702
0.00106813 0.0237125 0.00106813
0.000823987 0.0203555 0.000823987
0.000595102 0.0185855 0.000595102
0.000396735 0.0169833 0.000396735
0.000503548 0.0152285 0.000503548
0.000335698 0.0127108 0.000335698
0 0.00923171 0
0.015671 0.00790417 0.00115969
0.0353552 0.00680552 0.00129702
0.0523079 0.00598154 0.00177005
0.063508 0.00550851 0.00199893
0.0723583 0.00517281 0.00222782
0.0797284 0.00474556 0.00221256
0.0871443 0.004654 0.00247196
0.0955367 0.00445563 0.00274662
0.104967 0.00424201 0.00306706
0.115404 0.00418097 0.00340276
0.127443 0.00445563 0.00419623
0.140047 0.00521859 0.00527962
0.153368 0.00610361 0.00621042
0.167926 0.00732433 0.00746166
0.183383 0.00831617 0.00846876
0.200473 0.00962844 0.00978103
0.218845 0.0107576 0.0109407
0.239765 0.0122377 0.0124361
0.262654 0.0135042 0.0137331
0.288106 0.0148623 0.0151369
0.315862 0.0164034 0.0167239
0.346319 0.018204 0.0185702
0.379385 0.0201572 0.0205844
0.414542 0.0224155 0.0229038
0.452537 0.0246738 0.0252537
0.492287 0.0273747 0.0280308
0.535012 0.030457 0.03122
0.579187 0.033875 0.0347601
0.623438 0.0374151 0.0384222
0.669245 0.0418402 0.0429999
0.714855 0.0464942 0.0478065
0.762188 0.0522164 0.0536812
0.809354 0.0581979 0.0598611
0.859632 0.0652934 0.0671702
0.908858 0.0724498 0.0745403
0.913878 0.0733043 0.0754253
0.913878 0.0733043 0.0754253
0.913878 0.0733043 0.0754253
0.913878 0.0733043 0.0754253
0.913878 0.0733043 0.0754253
0.913878 0.0733043 0.0754253
0.913878 0.0733043 0.0754253
0.913878 0.0733043 0.0754253
0.913878 0.0733043 0.0754253
0.913878 0.0733043 0.0754253
0.913878 0.0733043 0.0754253
0.913878 0.0733043 0.0754253
0.913878 0.0733043 0.0754253
0.913878 0.0733043 0.0754253
0.913878 0.0733043 0.0754253
0.913878 0.0733043 0.0754253
0.913878 0.0733043 0.0754253
0.913878 0.0733043 0.0754253
0.913878 0.0733043 0.0754253
0.913878 0.0733043 0.0754253
0.913878 0.0733043 0.0754253
0.913878 0.0733043 0.0754253
0.00383001 0.043595 0.00383001
0.00257877 0.038819 0.00257877
0.00209049 0.0352636 0.00209049
0.00170901 0.0326696 0.00170901
0.00154116 0.0307012 0.00154116
0.00137331 0.0284581 0.00137331
0.0012665 0.0261997 0.0012665
0.000991836 0.0227207 0.000991836
0.00769055 0.0193942 0.0012665
0.0267338 0.0174105 0.00288396
0.0445258 0.0152895 0.00277714
0.056611 0.0137636 0.00292973
0.0652018 0.0128939 0.00292973
0.0726787 0.0121004 0.00306706
0.0792248 0.0116121 0.00325017
0.0873121 0.0108644 0.00343328
0.0961776 0.00984207 0.00366217
0.106249 0.00875868 0.00410468
0.117983 0.00787366 0.00466926
0.130358 0.00738537 0.00531014
0.143603 0.00683604 0.00608835
0.157824 0.00668345 0.00674449
0.173693 0.00781262 0.00794995
0.190402 0.00888075 0.00903334
0.209384 0.0102998 0.0104677
0.229664 0.0115053 0.0117037
0.252644 0.0128023 0.0130159
0.277867 0.0144808 0.0147402
0.306172 0.0160525 0.0163577
0.337163 0.0178073 0.018143
0.370474 0.0197147 0.0201267
0.40676 0.0219577 0.0224308
0.445106 0.0244144 0.0249638
0.485939 0.0269017 0.0275578
0.529046 0.0299687 0.0307164
0.572778 0.0333104 0.0341802
0.617487 0.0368505 0.0378424
0.662501 0.0410925 0.0422217
0.708644 0.0460059 0.047303
0.755154 0.0512703 0.0527199
0.801755 0.0573587 0.0589914
0.851087 0.0640269 0.0658579
0.900267 0.0710613 0.0731212
0.913878 0.0733043 0.0754253
0.913878 0.0733043 0.0754253
0.913878 0.0733043 0.0754253
0.913878 0.0733043 0.0754253
0.913878 0.0733043 0.0754253
0.913878 0.0733043 0.0754253
0.913878 0.0733043 0.0754253
0.913878 0.0733043 0.0754253
0.913878 0.0733043 0.0754253
0.913878 0.0733043 0.0754253
0.913878 0.0733043 0.0754253
0.913878 0.0733043 0.0754253
0.913878 0.0733043 0.0754253
0.913878 0.0733043 0.0754253
0.913878 0.0733043 0.0754253
0.913878 0.0733043 0.0754253
0.913878 0.0733043 0.0754253
0.913878 0.0733043 0.0754253
0.913878 0.0733043 0.0754253
0.913878 0.0733043 0.0754253
0.913878 0.0733043 0.0754253
0.913878 0.0733043 0.0754253
0.0065156 0.0562753 0.0065156
0.00543221 0.051133 0.00543221
0.00462348 0.0472725 0.00462348
0.00404364 0.0445563 0.00404364
0.00344854 0.0423743 0.00344854
0.00282292 0.0398413 0.00282292
0.00230411 0.0373083 0.00230411
0.00175479 0.0335699 0.00175479
0.00140383 0.029221 0.00140383
0.0177615 0.0263828 0.00358587
0.036347 0.0247654 0.00433356
0.0488899 0.0234836 0.00459297
0.0585641 0.0226902 0.00492866
0.0660716 0.0222324 0.00527962
0.0726635 0.0220645 0.00567636
0.0801251 0.0219577 0.00616464
0.0894942 0.0218357 0.00665293
0.0993668 0.0213169 0.00694286
0.111421 0.0209354 0.00761425
0.12398 0.0204166 0.00833143
0.137407 0.0199893 0.00910964
0.151553 0.0190738 0.00961318
0.166827 0.0181888 0.0103304
0.183322 0.0172122 0.0109102
0.201312 0.0153811 0.0112917
0.221668 0.0137026 0.0120546
0.244541 0.0138552 0.0129854
0.269947 0.0145418 0.014435
0.29865 0.0155947 0.0158846
0.329656 0.0173037 0.0176394
0.363912 0.0192721 0.0196689
0.399817 0.0214542 0.0219272
0.438529 0.0239872 0.0245365
0.479591 0.0266423 0.0272831
0.521279 0.0293584 0.0300755
0.565072 0.0326696 0.0335088
0.60853 0.0362402 0.0372015
0.6533 0.0401312 0.0412451
0.699016 0.044892 0.0461433
0.744106 0.0499123 0.0513161
0.791394 0.0558633 0.0574502
0.839277 0.0623026 0.0640879
0.890028 0.0697032 0.0717174
0.913878 0.0733043 0.0754253
0.913878 0.0733043 0.0754253
0.913878 0.0733043 0.0754253
0.913878 0.0733043 0.0754253
0.913878 0.0733043 0.0754253
0.913878 0.0733043 0.0754253
0.913878 0.0733043 0.0754253
0.913878 0.0733043 0.0754253
0.913878 0.0733043 0.0754253
0.913878 0.0733043 0.0754253
0.913878 0.0733043 0.0754253
0.913878 0.0733043 0.0754253
0.913878 0.0733043 0.0754253
0.913878 0.0733043 0.0754253
0.913878 0.0733043 0.0754253
0.913878 0.0733043 0.0754253
0.913878 0.0733043 0.0754253
0.913878 0.0733043 0.0754253
0.913878 0.0733043 0.0754253
0.913878 0.0733043 0.0754253
0.913878 0.0733043 0.0754253
0.913878 0.0733043 0.0754253
0.00830091 0.0656443 0.00830091
0.00729381 0.0602274 0.00729381
0.00648508 0.0561379 0.00648508
0.00584421 0.0531167 0.00584421
0.0053254 0.05066 0.0053254
0.00476081 0.048188 0.00476081
0.00419623 0.045304 0.00419623
0.00317388 0.0414435 0.00317388
0.00233463 0.0373083 0.00233463
0.0109102 0.0343328 0.00222782
0.030396 0.0313115 0.00761425
0.0436866 0.0310216 0.00686656
0.0532387 0.0309453 0.00747692
0.0606699 0.0310674 0.00791943
0.0675059 0.0313573 0.00820935
0.0757153 0.0318608 0.00883497
0.0850538 0.0320134 0.00943008
0.0959182 0.0319982 0.00994888
0.107866 0.0315709 0.0104524
0.121035 0.0312657 0.0110628
0.134722 0.0308995 0.0116121
0.149081 0.0300755 0.0119478
0.165057 0.0293736 0.0126955
0.181857 0.028397 0.0134585
0.200778 0.0269322 0.0139467
0.221637 0.0252689 0.0145418
0.244862 0.0229496 0.0152285
0.270298 0.0200656 0.0155489
0.29868 0.0179904 0.0164797
0.330037 0.0173342 0.0176699
0.363806 0.0192721 0.0196536
0.400229 0.0215 0.0219577
0.438697 0.0240024 0.0245365
0.478645 0.026627 0.0272526
0.520592 0.0293126 0.030045
0.5635 0.0324865 0.0333257
0.607355 0.0360876 0.0370489
0.652094 0.0399634 0.041062
0.696651 0.0445716 0.0458228
0.742657 0.0498512 0.0512551
0.788525 0.0554971 0.0570687
0.836927 0.0619211 0.0636912
0.887053 0.0692454 0.0712291
0.913725 0.0732891 0.0754101
0.913878 0.0733043 0.0754253
0.913878 0.0733043 0.0754253
0.913878 0.0733043 0.0754253
0.913878 0.0733043 0.0754253
0.913878 0.0733043 0.0754253
0.913878 0.0733043 0.0754253
0.913878 0.0733043 0.0754253
0.913878 0.0733043 0.0754253
0.913878 0.0733043 0.0754253
0.913878 0.0733043 0.0754253
0.913878 0.0733043 0.0754253
0.913878 0.0733043 0.0754253
0.913878 0.0733043 0.0754253
0.913878 0.0733043 0.0754253
0.913878 0.0733043 0.0754253
0.913878 0.0733043 0.0754253
0.913878 0.0733043 0.0754253
0.913878 0.0733043 0.0754253
0.913878 0.0733043 0.0754253
0.913878 0.0733043 0.0754253
0.913878 0.0733043 0.0754253
0.00953689 0.0724804 0.00953689
0.00872816 0.0671244 0.00872816
0.00775158 0.0625772 0.00775158
0.00714122 0.0594492 0.00714122
0.00669871 0.0572213 0.00669871
0.00610361 0.0543679 0.00610361
0.00550851 0.0514992 0.00550851
0.00474556 0.0480049 0.00474556
0.00396735 0.0442054 0.00396735
0.00825513 0.0412146 0.00352483
0.0269627 0.0386664 0.00787366
0.0412451 0.0377508 0.0100404
0.0512551 0.0383154 0.00996414
0.0587472 0.038941 0.0104067
0.0655833 0.039765 0.0110628
0.0733806 0.0401007 0.0114137
0.0833753 0.0403906 0.0118715
0.0945144 0.0404669 0.0123445
0.107134 0.040177 0.0126345
0.120882 0.0400244 0.0132906
0.135103 0.0396124 0.0138705
0.150347 0.0389563 0.0142519
0.166674 0.0382391 0.0149996
0.184665 0.0372931 0.0157321
0.20412 0.0356756 0.0162203
0.225391 0.0337682 0.0167239
0.249424 0.0312505 0.0173495
0.274861 0.0276951 0.0174563
0.3037 0.0237278 0.0180209
0.334508 0.0199588 0.0185245
0.36791 0.0195621 0.0199741
0.40415 0.0218051 0.0222629
0.442191 0.0242161 0.0247654
0.482597 0.0266728 0.0273136
0.524315 0.029572 0.0303197
0.567803 0.0328832 0.0337377
0.61178 0.0365301 0.0375067
0.655543 0.0403754 0.041474
0.700633 0.0450599 0.0463264
0.745007 0.0499733 0.0513924
0.791302 0.0558785 0.0574655
0.838956 0.0622568 0.0640421
0.888136 0.069398 0.071397
0.913481 0.0732433 0.0753643
0.913878 0.0733043 0.0754253
0.913878 0.0733043 0.0754253
0.913878 0.0733043 0.0754253
0.913878 0.0733043 0.0754253
0.913878 0.0733043 0.0754253
0.913878 0.0733043 0.0754253
0.913878 0.0733043 0.0754253
0.913878 0.0733043 0.0754253
0.913878 0.0733043 0.0754253
0.913878 0.0733043 0.0754253
0.913878 0.0733043 0.0754253
0.913878 0.0733043 0.0754253
0.913878 0.0733043 0.0754253
0.913878 0.0733043 0.0754253
0.913878 0.0733043 0.0754253
0.913878 0.0733043 0.0754253
0.913878 0.0733043 0.0754253
0.913878 0.0733043 0.0754253
0.913878 0.0733043 0.0754253
0.913878 0.0733043 0.0754253
0.913878 0.0733043 0.0754253
0.0108034 0.0785077 0.0108034
0.00961318 0.0728618 0.00961318
0.00886549 0.0682841 0.00886549
0.00822461 0.0653086 0.00822461
0.00776684 0.0626688 0.00776684
0.00724804 0.0599374 0.00724804
0.00680552 0.057557 0.00680552
0.00601205 0.0539406 0.00601205
